/* XPM */
static char *kurisu[] = {
/* columns rows colors chars-per-pixel */
"223 329 256 2 ",
"   c None",
".  c #0E0D0D",
"X  c #18120E",
"o  c #131413",
"O  c #1B1D1B",
"+  c #181916",
"@  c #110F0E",
"#  c #28150E",
"$  c #35180E",
"%  c #291A13",
"&  c #341B11",
"*  c #3B1D12",
"=  c #341611",
"-  c #2A0E0A",
";  c #1D211E",
":  c #23231D",
">  c #2B251B",
",  c #2B241A",
"<  c #32261A",
"1  c #33291C",
"2  c #3B281A",
"3  c #3E301E",
"4  c #1E2521",
"5  c #232522",
"6  c #242A24",
"7  c #2B2B24",
"8  c #292D29",
"9  c #332D23",
"0  c #372D26",
"q  c #2C332C",
"w  c #2A3229",
"e  c #33342B",
"r  c #3B352B",
"t  c #333A2D",
"y  c #383628",
"u  c #2D3832",
"i  c #333C32",
"p  c #3C3A32",
"a  c #373735",
"s  c #322C34",
"d  c #451D11",
"f  c #521914",
"g  c #79181C",
"h  c #691718",
"j  c #4C2314",
"k  c #472619",
"l  c #532414",
"z  c #592A19",
"x  c #46331E",
"c  c #5B311F",
"v  c #652D19",
"b  c #6A321C",
"n  c #74331D",
"m  c #7B361E",
"M  c #722F1B",
"N  c #433A2D",
"B  c #4A3826",
"V  c #533C24",
"C  c #583626",
"Z  c #433D33",
"A  c #493D33",
"S  c #4F3027",
"D  c #663927",
"F  c #763A23",
"G  c #6A302C",
"H  c #751A25",
"J  c #3B4334",
"K  c #3D412E",
"L  c #594228",
"P  c #4C4233",
"I  c #474639",
"U  c #534534",
"Y  c #5C4A36",
"T  c #5C4C3A",
"R  c #574738",
"E  c #514B34",
"W  c #69452B",
"Q  c #76472B",
"!  c #634C35",
"~  c #634E3A",
"^  c #694835",
"/  c #764A36",
"(  c #65513B",
")  c #6B543D",
"_  c #6C5337",
"`  c #76583C",
"'  c #73562B",
"]  c #776532",
"[  c #56491F",
"{  c #494843",
"}  c #554D43",
"|  c #595348",
" . c #585751",
".. c #695745",
"X. c #735B42",
"o. c #7B5C43",
"O. c #785946",
"+. c #685D53",
"@. c #6B534A",
"#. c #7C6247",
"$. c #696458",
"%. c #786757",
"&. c #736B55",
"*. c #6D6B63",
"=. c #78746A",
"-. c #79746C",
";. c #59516B",
":. c #46394A",
">. c #89191C",
",. c #833A1E",
"<. c #8B1D21",
"1. c #853B21",
"2. c #8B3C22",
"3. c #843621",
"4. c #922F29",
"5. c #AB2C2D",
"6. c #AE1B1F",
"7. c #CA1B1E",
"8. c #CA1E21",
"9. c #CB2327",
"0. c #8A4326",
"q. c #944323",
"w. c #9A4825",
"e. c #865838",
"r. c #905034",
"t. c #A34C24",
"y. c #A54B26",
"u. c #AC5425",
"i. c #AA5627",
"p. c #B35A26",
"a. c #B45D29",
"s. c #B45927",
"d. c #A75637",
"f. c #89663C",
"g. c #B8642B",
"h. c #B96F32",
"j. c #8B421F",
"k. c #C27934",
"l. c #835C46",
"z. c #945A44",
"x. c #836344",
"c. c #83634B",
"v. c #8C6B4B",
"b. c #8A6746",
"n. c #926D4C",
"m. c #956A46",
"M. c #94714D",
"N. c #9B734C",
"B. c #9C7347",
"V. c #866B55",
"C. c #8A725B",
"Z. c #997653",
"A. c #8D704D",
"S. c #A6794B",
"D. c #A47B53",
"F. c #A97C54",
"G. c #B06B4D",
"H. c #897767",
"J. c #947B68",
"K. c #877A70",
"L. c #AC6E5C",
"P. c #CE6A5C",
"I. c #C8873A",
"U. c #B6864D",
"Y. c #AD8255",
"T. c #AD8459",
"R. c #A78258",
"E. c #B28454",
"W. c #B18659",
"Q. c #B48A5B",
"!. c #B98D5C",
"~. c #BA8C54",
"^. c #BD915A",
"/. c #AE844D",
"(. c #96836C",
"). c #888479",
"_. c #998575",
"`. c #908771",
"'. c #B78C64",
"]. c #BC9363",
"[. c #BC9669",
"{. c #A58978",
"}. c #AC8F75",
"|. c #9E8A49",
" X c #C19358",
".X c #CA9349",
"XX c #C39B6B",
"oX c #C39965",
"OX c #CC9675",
"+X c #C8A16C",
"@X c #C7A273",
"#X c #DCA27C",
"$X c #DBAB61",
"%X c #DDBB4F",
"&X c #6E6598",
"*X c #96918A",
"=X c #A99687",
"-X c #B59A88",
";X c #AB9A90",
":X c #A8A49B",
">X c #BBA597",
",X c #B8A38A",
"<X c #B8B3AB",
"1X c #B5B0AA",
"2X c #9592B1",
"3X c #C3AB99",
"4X c #C9B49A",
"5X c #D5AA8D",
"6X c #E3AB88",
"7X c #E9B898",
"8X c #E5B08E",
"9X c #CAB6A8",
"0X c #D1BDAA",
"qX c #C7BDB5",
"wX c #CAB6AA",
"eX c #D7AA8F",
"rX c #C8C2BC",
"tX c #D4C3B5",
"yX c #D5C5BA",
"uX c #DACABD",
"iX c #D8C7BA",
"pX c #D4C2AC",
"aX c #EBC4A6",
"sX c #F2C8A8",
"dX c #F6D5B8",
"fX c #EDCEB5",
"gX c #EEC19E",
"hX c #9EA5CE",
"jX c #CBC7C3",
"kX c #DCCDC3",
"lX c #D4CBC5",
"zX c #DDD1C8",
"xX c #DAD5D5",
"cX c #E2D5CC",
"vX c #E4D7CA",
"bX c #F7DDC3",
"nX c #E5DBD4",
"mX c #E7DDD7",
"MX c #FBE5CC",
"NX c #FAE4CA",
"BX c #EAE2DB",
"VX c #E6E1DD",
"CX c #FDEAD3",
"ZX c #FDEBD7",
"AX c #EDE7E4",
"SX c #F3EEEB",
"DX c #F1EBE6",
"FX c #F5F1EE",
"GX c #FCF3E9",
"HX c #F9F6F3",
"JX c #FEFDFD",
"KX c #F8F6F4",
"LX c #F2EDF0",
"PX c #DFD3E4",
"IX c #C8B8D4",
"UX c #7F80A3",
/* pixels */
"                                                                                                                                                                                    z z v b n m n n n n b v z l d d                                                                                                                                                                                                                                           ",
"                                                                                                                                                                          v n ,.q.w.t.y.u.i.u.u.u.u.u.u.y.t.w.w.q.2.,.n v l *                                                                                                                                                                                                                                 ",
"                                                                                                                                                                  l M ,.w.y.u.s.s.i.u.i.i.i.u.a.u.u.u.u.u.u.u.y.y.t.t.t.w.q.3.3.n v                                                                                                                                                                                                                           ",
"                                                                                                                                                            f M 2.w.t.u.u.u.p.a.a.p.s.a.p.s.s.a.s.u.s.s.p.i.u.i.u.u.u.y.y.t.y.t.y.w.2.n z                                                                                                                                                                                                                     ",
"                                                                                                                                                        z m q.u.u.y.u.u.u.u.u.a.a.s.s.a.s.s.s.a.s.u.a.a.s.s.s.u.s.u.i.u.s.s.u.u.y.t.t.w.q.3.v                                                                                                                                                                                                                 ",
"                                                                                                                                                    z ,.w.y.y.t.u.y.u.u.u.u.s.s.a.a.s.s.a.s.s.a.p.s.a.a.a.a.s.s.a.p.s.s.a.a.u.u.y.y.t.t.w.w.q.m z                                                                                                                                                                                                             ",
"                                                                                                                                                l m w.y.t.t.t.y.u.u.u.u.s.s.s.p.a.s.a.g.g.a.s.a.s.s.a.a.a.a.a.a.a.a.p.s.u.u.u.u.u.u.u.u.t.t.w.w.2.n d                                                                                                                                                                                                         ",
"                                                                                                                                            d M q.w.w.t.t.t.t.u.u.u.u.u.s.s.s.a.a.h.h.a.a.s.s.s.s.s.s.a.a.g.g.a.a.a.a.s.s.u.u.u.s.i.u.u.y.y.t.t.t.w.2.z $                                                                                                                                                                                                     ",
"                                                                                                                                          l 2.w.w.w.t.y.y.y.u.u.s.u.u.u.s.s.s.a.h.k.a.a.a.a.a.a.a.a.a.a.g.g.g.p.i.y.t.i.p.a.u.u.p.u.u.i.u.u.u.y.y.t.w.q.n d                                                                                                                                                                                                   ",
"                                                                                                                                      - v q.w.w.w.t.y.u.u.u.u.u.u.u.s.u.s.s.s.h.k.g.a.g.g.a.a.a.a.a.a.g.h.g.i.w.w.w.w.i.p.p.s.u.s.u.u.u.u.u.u.u.y.y.t.w.w.3.z #                                                                                                                                                                                               ",
"                                                                                                                                    $ M w.w.y.t.t.t.y.u.u.u.i.u.u.u.u.u.u.u.g.I.g.g.g.g.g.a.a.a.g.g.g.I.g.i.w.w.w.w.i.a.a.a.g.a.s.s.s.u.u.u.u.i.u.t.t.t.t.y.2.v $                                                                                                                                                                                             ",
"                                                                                                                                  $ M w.w.t.t.w.t.y.u.u.u.u.u.u.u.u.u.s.i.u.k.g.g.g.g.g.g.g.g.g.g.g.I.h.i.q.w.w.w.p.g.a.a.g.h.a.s.a.s.s.u.u.u.i.u.u.y.y.t.t.w.q.v *                                                                                                                                                                                           ",
"                                                                                                                                $ 3.w.q.w.t.w.t.t.y.y.u.u.u.u.u.u.s.s.y.t.h.h.s.a.a.g.g.g.g.h.g.g.I.k.u.0.q.w.w.u.g.g.a.a.h.g.s.a.a.s.s.s.u.u.u.u.u.u.t.t.t.w.t.q.n d                                                                                                                                                                                         ",
"                                                                                                                              $ m 2.2.q.w.w.w.t.y.u.u.u.u.u.u.u.s.u.y.w.g.k.s.s.a.a.g.g.g.k.g.a.h..Xg.q.j.w.w.i.g.g.g.g.g.I.g.a.a.a.s.s.s.s.u.u.u.u.u.u.y.y.t.t.w.q.n d                                                                                                                                                                                       ",
"                                                                                                                            $ n 2.2.2.q.w.w.w.t.y.i.u.y.u.i.i.s.s.u.w.i.k.g.g.s.s.s.g.g.g.k.g.g..Xk.t.m w.q.g.I.g.g.g.g.g.I.a.a.g.a.s.s.s.s.s.u.u.u.u.u.u.u.y.y.t.t.w.n d                                                                                                                                                                                     ",
"                                                                                                                          - M 2.2.2.q.w.w.w.t.y.y.y.u.u.I.h.u.s.s.w.w.I.k.g.s.s.s.s.a.a.h.h.g.I.%Xg.j.0.q.t.%Xk.g.g.g.g.k.I.a.g.g.a.s.p.s.s.g.u.u.u.u.u.u.u.u.y.y.t.w.2.b d                                                                                                                                                                                   ",
"                                                                                                                        - v 3.2.2.2.w.y.y.w.p.p.y.u.i..X.Xu.u.s.i.0.a.%Xg.g.s.s.s.s.a.a.h.k.h.%XI.t.,.q.q.g.k.g.g.g.g.g..X.Xg.h.g.a.a.a.a.a.g.s.u.u.u.i.u.u.i.u.y.t.w.q.1.b 2                                                                                                                                                                                 ",
"                                                                                                                        l 3.3.2.2.2.q.t.y.h.h.t.y.g..X%Xu.u.u.u.q.j..X.Xg.g.s.a.s.s.a.a.g.g.g.%Xh.j.0.q.i.g.g.g.g.g.g.g.%X%Xh.k.a.g.a.a.a.s.g.a.p.u.p.u.u.i.p.u.u.u.t.q.q.F c &                                                                                                                                                                               ",
"                                                                                                                      $ m 3.3.2.2.2.q.t.i.h.u.y.h.%X%Xg.u.u.u.i.m i..Xg.h.s.s.g.s.s.s.a.g.s.h..Xi.m 1.t.g.g.g.g.g.g.g.g.%X%Xh.k.a.a.a.a.a.s.h.a.s.a.s.u.u.u.g.i.u.y.i.q.1.q.F C #                                                                                                                                                                             ",
"                                                                                                                    - v 3.3.3.2.2.q.q.w.i.y.y.u.p..Xh.u.i.y.i.j.,.h.I.g.h.s.s.s.s.s.s.g.a.s.k.I.0.m 0.g.h.g.g.g.g.g.a.h.%Xk.k.k.a.a.a.a.a.s.k.g.p.g.s.s.s.u.g.p.y.y.p.t.2.2.0.D x                                                                                                                                                                             ",
"                                                                                                                    l m m 3.3.3.2.q.q.w.w.t.t.u.g.h.y.u.t.w.t.m w.h.g.h.g.p.s.s.s.s.s.g.g.s.k.h.j.m t.k.k.k.h.h.g.g.a.k..Xs.I.k.a.a.a.a.g.p.I.g.s.a.s.s.s.u.g.g.u.y.i.i.q.,.q.Q D 2                                                                                                                                                                           ",
"                                                                                                                  $ M m 3.3.3.3.2.2.q.w.t.t.t.y.i.y.y.t.w.w.w.,.u.h.a.k.s.s.s.s.p.p.p.g.a.s.I.i.m q.a.g.g.g.g.g.g.p.s.I.I.s.I.h.a.a.a.g.g.a.%Xk.g.s.s.s.s.s.g.h.u.u.i.g.q.1.q.0.Q C #                                                                                                                                                                         ",
"                                                                                                                  l m m 3.3.3.2.q.q.q.w.t.t.y.y.t.i.t.q.w.t.j.q.a.g.g.h.u.u.s.s.g.p.u.g.s.s.I.q.,.i.a.a.a.a.g.g.s.p.s..XI.a.I.h.g.a.g.a.a.a.%XI.g.a.a.a.s.u.p.h.i.u.u.h.w.0.1.q.Q W k                                                                                                                                                                         ",
"                                                                                                                $ M m m 3.3.3.2.2.2.q.w.w.t.t.t.t.t.q.q.w.y.1.y.g.s.h.g.u.u.s.g.p.u.u.g.s.g.k.m 0.g.g.g.g.g.a.a.i.u.a..Xk.a.k.h.g.g.a.a.a.a.%Xk.g.a.s.a.p.u.p.h.p.u.y.h.i.1.n q.0.Q D %                                                                                                                                                                       ",
"                                                                                                                l M M m 3.3.3.2.2.2.w.y.t.t.t.t.y.w.q.q.t.w.2.u.a.s.k.s.s.s.s.p.p.i.u.g.s.h.k.b q.g.g.g.g.g.g.i.t.u.g..Xh.a.k.h.g.g.a.g.a.g.I.g.g.s.s.a.a.s.u.I.g.i.y.g.g.1.b 0.0.Q W x                                                                                                                                                                       ",
"                                                                                                              $ v M M 3.3.3.3.3.2.2.q.w.t.t.t.y.t.q.q.w.y.q.q.u.u.a.h.s.s.s.s.u.i.i.i.g.g.k.h.b i.g.g.g.p.p.i.w.t.p.a..Xh.a.g.a.a.s.a.g.g.g.k.a.g.s.p.s.s.u.u.I.g.i.u.a.h.2.n m q.0./ D                                                                                                                                                                       ",
"                                                                                                              j M M m 3.3.3.3.2.2.q.q.w.t.t.y.y.q.q.q.w.y.j.t.u.u.g.h.u.u.s.s.p.i.i.i.g.g.k.i.n g.p.i.i.i.i.w.w.i.g.s.I.g.a.a.a.a.a.a.a.g.h.k.g.a.a.a.a.s.s.s.k.h.u.y.i.h.0.m n 0.0.W W k                                                                                                                                                                     ",
"                                                                                                            - v M M m 3.3.3.2.2.2.q.q.w.y.t.y.w.q.q.q.t.t.j.u.u.u.h.g.u.s.s.g.p.p.i.i.a.s.k.0.b w.t.i.t.i.t.w.w.p.p.u.I.g.g.g.a.s.s.s.s.g.k.h.g.g.g.a.g.s.s.u.h.h.u.i.i.h.0.F v 1.q.Q W C                                                                                                                                                                     ",
"                                                                                                            d v M M 3.3.3.3.2.2.q.w.q.q.w.w.w.q.q.q.q.y.w.2.u.u.i.h.g.s.s.s.g.u.u.t.i.g.s.h.m n w.t.t.i.i.q.w.t.g.i.p.I.g.g.a.a.s.s.s.s.a.h.h.g.g.g.a.a.s.s.u.k.h.u.i.p.k.q.1.v m q.0.W W &                                                                                                                                                                   ",
"                                                                                                          - l v M M 3.3.3.3.2.2.q.q.2.q.w.w.w.1.q.q.w.t.q.j.u.s.s.I.p.u.s.s.s.i.u.t.y.s.s.g.n 0.t.t.i.p.q.w.t.u.s.w.u.I.a.s.a.a.s.a.u.u.s.h.g.a.a.g.a.s.s.s.u.h.h.u.u.i.h.w.1.v m q.r.W / k                                                                                                                                                                   ",
"                                                                                                          $ z v M n 3.3.3.2.2.2.q.q.q.q.w.w.2.1.q.q.t.w.,.q.u.a.g.k.u.u.s.p.u.i.i.w.t.a.s.g.n q.w.t.u.w.q.t.i.a.i.q.u.k.p.s.s.s.s.s.i.s.s.h.s.s.s.s.s.s.u.u.u.h.h.t.y.u.h.w.0.b n 1.r.Q ^ C                                                                                                                                                                   ",
"                                                                                                          d z v v n 3.3.3.2.2.2.2.q.q.q.q.q.,.1.1.q.t.q.,.w.u.a.g.I.s.s.s.s.i.t.t.w.w.a.s.g.b q.w.i.t.q.w.w.u.g.w.q.i.k.s.s.a.a.s.i.y.u.s.g.s.s.s.s.s.s.u.u.u.h.h.w.t.i.h.w.0.b n 1.w.Q W D                                                                                                                                                                   ",
"                                                                                                          l z v v M 3.3.3.2.2.2.2.2.2.q.q.2.,.3.3.w.q.q.j.w.t.i.g.k.s.s.s.p.i.w.t.w.w.s.a.p.b q.w.t.q.w.w.q.a.t.q.q.i.h.p.p.g.s.s.t.i.u.s.g.s.s.s.s.s.s.u.u.u.h.a.w.w.y.h.q.2.b m m w.r.W W 2                                                                                                                                                                 ",
"                                                                                                        - z z v v n 3.3.3.3.3.2.2.2.2.2.q.3.,.3.,.t.n q.j.w.t.t.g.h.s.s.a.p.t.w.w.q.q.s.a.i.b t.t.1.w.w.q.w.u.q.w.q.t.g.u.i.g.g.i.t.i.u.s.s.s.s.s.s.u.u.u.u.u.h.i.q.q.y.h.q.2.n m m 0.r.W / x                                                                                                                                                                 ",
"                                                                                                        * v v v z n 3.3.3.3.2.2.2.2.2.2.2.m m m m 2.v 2.m w.t.t.a.h.s.a.g.s.w.w.w.w.q.s.s.w.m t.1.q.q.w.2.s.q.q.q.q.w.s.i.u.a.g.y.w.t.i.s.s.s.s.s.s.u.u.u.u.u.h.w.q.q.t.h.q.2.n m n 0.r.W Q C                                                                                                                                                                 ",
"                                                                                                        d z v v z m 3.3.3.3.3.3.2.3.2.2.2.n n M m m n 2.n w.w.w.a.g.s.s.s.s.w.w.w.w.q.s.s.w.m 1.q.w.q.n t.t.2.q.w.j.q.s.u.y.s.s.w.w.w.u.s.s.s.s.s.s.u.u.u.u.u.h.w.q.q.t.g.2.2.b ,.m ,.r.W Q D                                                                                                                                                                 ",
"                                                                                                        j z v z z m 1.3.3.3.3.3.2.3.3.2.3.M M v m v ,.3.n w.w.w.g.g.u.u.u.u.w.q.w.q.q.u.s.q.M q.w.w.1.,.w.1.0.m y.m j.u.y.t.u.u.q.q.q.i.s.u.s.s.s.u.u.u.u.u.u.g.q.q.2.t.p.3.2.v 1.m m r.Q Q W                                                                                                                                                                 ",
"                                                                                                        l z z z v m 1.3.3.3.1.3.2.3.3.2.m v v v n v 2.m m w.w.t.g.g.u.u.u.u.w.q.w.q.1.u.s.q.m w.w.0.n i.1.n F F y.v m u.t.w.u.u.q.q.q.i.s.u.s.s.u.t.y.u.u.u.u.i.2.2.1.t.i.1.3.v 2.m m r.Q Q Q *                                                                                                                                                               ",
"                                                                                                      - l z z z v m 1.1.1.m 3.3.3.3.3.3.n v v M v M 1.n n q.q.w.i.p.t.u.u.u.q.q.q.q.1.y.s.q.m q.q.n q.q.1.n F r.w.v m y.w.w.u.t.0.q.q.i.u.u.u.u.y.w.t.u.u.u.u.w.3.1.1.t.t.3.3.v 2.m n w.Q Q Q 2                                                                                                                                                               ",
"                                                                                                      # l z z z v m m 1.m m m 2.1.F 3.3.M v v z j M m v n w.w.t.i.a.t.u.u.u.q.q.q.q.3.t.s.0.m q.n ,.q.1.,.0.e.F 0.F 0.t.w.q.y.w.1.q.q.i.u.u.u.u.w.w.t.u.u.y.t.q.3.3.1.t.w.1.1.z q.m n q.Q D Q k                                                                                                                                                               ",
"                                                                                                      - z z z z v m m m m m m 2.m m 3.m m v v * j M n d M w.w.y.u.a.y.y.y.y.q.q.q.q.2.w.s.q.m m b 2.3.,.0.G.z.b v e.r.w.w.q.t.w.1.0.0.t.u.u.u.t.q.q.t.t.t.t.t.2.3.3.1.t.q.3.m v q.m n 0.Q W Q k                                                                                                                                                               ",
"                                                                                                      $ l z z z v n m m n n m 3.m m 3.M n v l % l v z $ n w.w.w.y.p.y.y.y.y.2.q.q.q.q.w.s.q.n v 0.2.,.0.'. Xr.r.j Q 0.q.q.q.w.q.,.1.2.w.u.u.u.t.q.w.y.t.t.t.t.3.3.3.3.y.2.3.n v q.m v 0.Q D Q k                                                                                                                                                               ",
"                                                                                                      $ z z z l v n m m n n 3.3.n m 3.v n l.-X-X(.^ * d n q.w.w.t.p.y.t.y.y.3.2.q.q.q.w.s.1.D 1.q.,.r.OX8XG.r.d./ C z 2.q.q.w.q.m ,.1.w.u.u.u.w.q.w.y.y.y.y.w.3.2.2.3.y.3.m v b q.n v 0.Q D Q c                                                                                                                                                               ",
"                                                                                                      $ z z z l v n m m n n 3.1.n 3.3.v }.bXbXbXbXaXJ.k M q.w.w.y.u.t.t.y.y.3.2.q.q.q.q.u.1.F 2.F m.5X7X6Xd.d.d.OXN.k l 2.q.w.q.n ,.1.q.t.t.t.q.q.q.y.u.u.u.q.2.q.3.,.w.m m z m q.n z 1.Q F Q c                                                                                                                                                               ",
"                                                                                                      * z z z l v n n n n n 3.3.m 3.3.J.NXdXaX7X7XdXfXD.n 2.q.q.t.y.t.w.y.y.2.3.q.w.q.q.u.1.m r.'.8X7X7XoXr.d.D.7XOXe.k z 2.q.q.n m 2.q.t.t.y.2.2.q.y.u.y.t.3.2.2.3.q.q.m m l 2.2.M l 1.Q D Q x                                                                                                                                                               ",
"                                                                                                      * z z z l v n F n b n 3.m m 3.r.vXbXgX7X7XOX[.aX5X1.2.2.2.w.y.y.y.y.y.2.3.q.q.q.q.y.m k M.5X5X7X8XG.d.m.eXsXOXG.c k l 1.q.n m 2.2.t.t.w.3.2.2.t.u.y.q.3.2.2.,.w.2.m M l q.,.v d 1.Q D Q k                                                                                                                                                               ",
"                                                                                                      * z z z l z n F n b n 3.m F 3.}.ZXsXsXsXOXL.m.D.OX1.3.2.2.q.w.w.w.y.y.q.1.q.q.q.0.u.F % 5 0 A V.D.d.G.OXsXaX5XG.F D k j 1.m m q.1.t.t.w.2.2.2.w.t.t.3.3.2.3.m q.m n v z q.m v d m Q Q Q k                                                                                                                                                               ",
"                                                                                                      * z z z l v n F b b n m n m F 0XCX7XfX7XOX#XOXL.N.F 3.2.2.2.w.w.w.y.y.q.1.q.q.q.q.y.r.H.K.+.7 % S z.l.OX5X5X8XL.r.2.F j j v m q.,.y.y.2.2.2.2.y.y.q.m 3.3.3.m 2.M M l v q.m z * n Q Q Q *                                                                                                                                                               ",
"                                                                                                      d z z z l v F n b b m m n n Q uXNX7XdX8X#X6X7X6XF.F 3.2.2.2.q.w.w.y.y.w.1.q.q.w.q.y.r.>XuX).s s +.A s A O.'.#XoXz.0.y.F j k z 0.1.w.y.3.2.2.2.y.y.2.3.3.3.m 3.3.M M f m q.n j $ n Q Q Q 2                                                                                                                                                               ",
"                                                                                                      * z z z z v F n b b m n n n e.fXNX7XdX8XOX7X7X7XOXF 3.2.2.2.2.w.w.y.y.w.1.q.q.w.q.w.r.3X*Xa :.;.+.:.a s a O.N.z.e.0.y.w.F c d z n q.y.3.2.2.2.y.w.3.3.3.2.m ,.m m v l 1.q.n d $ v F Q F k                                                                                                                                                               ",
"                                                                                                      * z z c z v F n b b m n n n e.fXNX7XdXsXOX#X7X7X6X0.3.2.2.2.2.w.w.y.y.w.1.0.0.w.q.w.w._.A a }  . . .$. .s 5 9 l.G.0.d.d.2.0.v b z m w.m 2.3.3.w.2.m 3.3.2.n 3.n m z v q.1.v $ $ v F Q D k k                                                                                                                                                             ",
"                                                                                                      * z z z z v F b b n m n n n e.aXbX8XsXsXaXOX#X7X6Xr.3.3.2.2.3.q.w.w.y.y.1.2.0.q.w.w.w.} a { ;.&X2XUX&X*. .0 7 B z.r.d.d.2.q.F w.2.3.w.n 3.2.2.q.3.3.3.3.n m m M n l n q.m z = & z F Q D k C                                                                                                                                                             ",
"                                                                                                      * z z z z v F b b n m b n n 0.7XdXOXF.OX8XgX6X6X7Xz.3.3.2.2.3.2.y.y.y.y.2.2.0.0.w.w.w.Z ;.&X&XjXhXhXhX&X=.$.@.& & C r.G.0.0.F y.w.2.q.M 3.3.2.2.m 3.1.3.M ,.n n v l m 2.M j = $ z F F z k D                                                                                                                                                             ",
"                                                                                                      * z z c z v F b b n n b M n F 5XsXOXF.OXOXOX7X7X7Xz.3.3.2.2.2.2.y.y.y.y.2.1.0.q.w.w.w.:.&X&X<XJXPXhXhX2X&X*.,XC k S F G.d.0.2.y.w.2.q.M 3.3.3.n 3.3.3.m n m n n j z ,.,.v d = $ z n F k k W                                                                                                                                                             ",
"                                                                                                      & z z c z v F v v n b b v n m L.sX7XOX6X6XOXOXgXaXD.3.2.2.2.2.3.y.y.y.y.0.1.2.2.w.q.w.} &X&XhXLXIXhXhXhX2X*.4XJ.D D r.G.G.r.0.y.d.q.q.M m 3.3.m 2.1.1.M n n n b C v 2.m v = & $ v F F 2 k Q                                                                                                                                                             ",
"                                                                                                      & c c c z b n v v m b b v n b ^ 7XaX7X6X8X6XoX5XaX'.2.2.q.2.2.3.w.y.y.y.w.1.0.2.w.w.y.@.&XUX2X2XhXIXIXIXxX<X9X3Xz.m.e.z.G.d.0.r.d.w.q.M m m F 3.2.2.m b m F n F Q v 1.n j = & & v F b & k /                                                                                                                                                             ",
"                                                                                                      # z c C c b b v b n v v v n b * }.sX7X#X6X6XOX#X8XeXr.3.2.2.2.3.q.y.y.y.w.0.0.1.w.w.i.l.2XhXhXhXIXPXxXPXlXLXkXfXD. X'.r.G.d.r.0.d.y.w.M m m m F 2.2.v b v b v m.F n m v $ & & & v F v % 2 e.                                                                                                                                                            ",
"                                                                                                      # z C C c b b v b n v M v m v & ^ 7X7X6X6X6X6XOXeXfXd.3.2.2.2.2.2.y.y.d.d.0.q.2.0.y.d.r.*XhXhXhXIXIXPXPX<XLXnXbX5XOXdX'.z.G.G.r.h.d.w.F n n F F 1.1.v k S k d D l v z j # & * * b F z % k e.                                                                                                                                                            ",
"                                                                                                      # c C C C b b v b n v v v m z * k J.sX8X6X6X6XoX7XsXG.2.2.2.2.2.3.y.i.d.d.q.q.0.1.y.d.d.-X2XhXhXIXPXPXIXVXJXmXNXdXeXdX7X XG.L.m.G.d.y.F F m F F 1.b c F D / F.e.c b z * # & & * n F j % k e.W                                                                                                                                                           ",
"                                                                                                      # c D D C b v v b n v v v 1.z 2 j S 5X7XOX6X#XoX6X7XG.2.2.2.2.2.3.q.d.d.d.r.q.0.F y.d.d.7XaX:X2XhXIXIXPXJXHXMXMXMXfXdXbX8XoXG.F.G.G.d.2.F 1.1.0.b D F 0.e.5X8Xz.b b l $ * * & d b b * % k z.^                                                                                                                                                           ",
"                                                                                                        c C D C v v v n v v v v ,.j 2 j d ..gXOXOXOX'.OX8XF.2.3.2.2.2.2.2.d.d.d.r.r.q.F w.d.d.4XNXbXiXqXlXAXHXGXCXMXMXMXMXbXCXdX7XOXoXG.P.G.q.2.q.q.1.Q e.r./ OX7XeXe.b v * * * * & j b n & % k z.^                                                                                                                                                           ",
"                                                                                                        x C D C v v v n v v v v ,.j * l l 2 J.7X5XOXL.r.OXOX2.2.2.q.q.2.1.d.d.d.d.r.r.F 0.d.d.5XNXbXMXdXdXdXbXNXMXMXCXCXCXMXMXCXdXgX5XF.P.G.r.q.y.w.Q e.z.D v.'.5XOXD b j $ d * * & l b v % % k z.^                                                                                                                                                           ",
"                                                                                                        k D D C b v v b v v v M m d k l z j S OXaX7X8XoXG.OXq.2.2.2.2.2.3.w.d.d.d.r.r.1.F d.d.}.NXbXGXCXdXdXfXdXNXMXCXCXCXCXCXCXMXdXdX#XG.P.r.q.d.D N @.A % , D L.n.D z $ d d * & & z F l % % j z.^                                                                                                                                                           ",
"                                                                                                        k D D S v v v b v v z n n d j l z z j ^ 7XaXaX8X'.5Xr.2.2.2.2.2.3.q.d.d.d.r.d.0.F d.d.F.bXNXbXbXdXdXdXdXdXNXMXCXCXCXCXCXMXMXNXsX XP.d.y.z.p Z  . .} 0 % C D z * * d d * & & v m * & & z z.^                                                                                                                                                           ",
"                                                                                                        k D D C v z v v v v z n v d j z v j v k n.7XaX7X8X8Xz.2.2.2.2.2.2.2.d.d.d.r.d.r.e.d.G.G.dXNXbXbXdXdXdXdXdXNXMXCXCXCXCXCXCXMXNXdX6XP.G.z.O.:. .&XK.9X%.x l.c * & d d d * & * n n $ & & z m.^                                                                                                                                                           ",
"                                                                                                        2 D D C v z v v v v z ,.z d j v v z b b z D.7XaXaX8XG.2.3.2.2.2.2.1.d.h.d.r.d.d.z.r.G.m.pXMXNXNXbXdXbXdXbXNXMXCXZXZXCXCXCXCXNXbXdXOXP.r.*X2X2X2XK.0XH.^ ^ j & & d d d d & d 3.z & & $ D m._                                                                                                                                                           ",
"                                                                                                        2 D W C v z v v z v z ,.l d j v n z z F v D z.'.OXF.G.2.3.2.2.2.0.1.w.h.d.d.d.d.m.z.G.G.4XCXMXNXbXbXbXbXbXNXMXMXCXZXZXZXCXCXNXbXdXsXOX'.lXIXhX2X*X9XO.l.W # & & d d d d $ v 2.* & * # D m.^                                                                                                                                                           ",
"                                                                                                          D W C v z v v z z z m j j j v n v z b F F z.e.e./ z.0.3.3.2.2.2.2.0.h.d.d.d.G.z.L.z.G.}.CXMXNXNXbXbXbXNXNXMXCXCXZXZXZXZXCXMXNXdXdXgX>XIXIXIXPXnX=XF.n.2 * & & d d d d d m m # & * # D m.^                         -X9X0X,X}.}.,X5XpX                                                                                                                ",
"                                                                                                          C ^ C v v v z z z v m d j l M n b z z 0.F G.OXOXOXz.0.3.1.2.2.2.2.1.d.G.d.d.G.z.'.z.G.F.NXMXNXNXNXNXNXNXNXMXCXCXCXCXCXZXCXCXNXdXdX7XK.IXPXIXlXzXL.#Xl.& & & & d d d d j 2.l % & * = F m.^                   -XpXvXMXCXCXbXdXfXsXgX8X                                                                                                                ",
"                                                                                                          C ^ C v v v z z z v b d j l v n n b j F r.G.#X6X6X'.D 2.3.2.2.0.0.1.r.G.d.r.G.z.oXL.G.G.uXCXMXNXNXNXNXNXNXNXNXCXCXCXCXZXCXCXNXNXdX8X*XIXPXIXmX,X5XOXk % & & & d d d d v 3.& & & d * F m.^               {.tXMXZXZXMXbXdXfXaX7X5X5X'.          -X                                                                                                    ",
"                                                                                                          C ^ D z v v z z l b v d j z n n n n k D r.G.6X8X7X8Xe.3.m 3.2.2.0.0.0.G.G.r.G.d.OXOXm.G.5XCXNXNXNXNXNXNXMXMXMXCXCXCXCXZXCXCXMXNXNXaX2XIXIXxX5X8X7XO.# # & & & d d d d 3.z & & * d d Q m.^           C.4XMXZXCXNXfXeX5XeX4X4X0XaXfXfXfXaXaXaXsX5X                                                                                                    ",
"                                                                                                          C ^ c z v z z z l n l d j z n n v n z e.r.G.8X7XaX7XOX0.3.m 2.2.2.2.0.d.G.r.d.d.eX7XL.G.'.MXMXMXMXNXNXMXMXMXMXCXCXCXCXZXZXCXCXNXNXfX-XqXuX8X7XsX-X2 # # & & & d d d v 3.d & * * j j Q m.^         C.iXZXCXNX7XOX-XpXvXbXNXbXsX7X7XsXsXsXdXsX5X                                                                                                      ",
"                                                                                                          S ^ c z c z z z l n j d l z M n z n F r.d.G.8XsXsXaX7Xz.3.n 1.2.2.0.0.r.G.d.d.d.eXbX6XG.F.dXCXMXMXMXNXMXMXCXCXCXZXZXZXCXCXCXCXNXbXbX7X7X7XsXdXdXO.# # @ & = & d d d ,.v * * * * j j Q m.^         [.fXCXNX7XJ.-XNXZXMXbXdX7X6X7XsXaXaXgXeX'.                                                                                                        ",
"                                                                                                          S ^ c c v z l z l n d d l z b b l b F z.z.G.eXsXsXsX7X'.2.n 1.2.2.2.1.0.G.d.r.d.5XCXsXOXG.0XZXCXCXMXMXMXMXCXCXCXCXCXCXCXCXCXCXNXbXCXdX8XbXCXMX4X< # # . = & & d d v ,.d d $ $ * l j Q m.^         OXaXMXgX'.3XCXCXNXdXsX7X8X#X5XOX}.Z.v.                                                                                                            ",
"                                                                                                            ^ c v v z l l l b d j l z b D j z 1.r.G.d.5XsXsXsXaXeXr.n n 2.2.2.1.2.d.G.r.d.5XCXbX8XG.OXCXCXCXCXCXMXCXCXCXCXCXCXCXCXZXCXCXNXbXNXdXOXdXMXMXH.# % #   # & & * d 3.l d d * * * z z   z.^         5X7XeXOXfXZXZXNX0X7X8XOXF.                                                                                                                        ",
"                                                                                                            W v D c z l l z v d l l z v c c l 1.r.L.d.#XsXsXsXsX7Xm.m v 1.2.2.2.1.w.G.r.d.,XCXCXdXOXG.dXCXCXCXCXCXCXCXCXCXCXZXZXCXCXCXMXNXdXdXOX5XNXCXfXA # % #   # & & $ n M d j d d * * c z   b.          5X5XOX7XNXCXZXCXfXOXN.                                                                                                                            ",
"                                                                                                            D D D C l l j z z d l l l v z v j F r.L.z.5XsXsXsXsX7X'.3.z m 1.1.2.2.0.G.d.r.OXMXMXMXsXF.eXZXCXCXCXCXCXCXCXCXZXZXZXCXZXZXCXNXdX6X#XaXNXCX3X% # $       $ $ z n d j j d d d d D c   l.        }.eXOX7X8XdXCXCXZXdXD.                                                                                                                              ",
"                                                                                                            D D D D z z j v l d l l z z z b c Q r.G.L.8XsXsXsXsXaX5Xr.v v 1.1.1.1.1.d.G.r.[.MXMXCXMX8XOXNXCXCXCXCXCXMXCXZXZXZXZXZXZXZXCXbXaX8XaXdXCXCXV.# % d       $ z v d d d f d d d d D c   O.      3XaX7XeXsX7XbXCXCXCXdX'.                                                                                                                              ",
"                                                                                                            C D D c z l d v l d l l l j v v D G.r.G.OX6XsXsXsXsXsX7XN.m v m 1.3.1.1.r.G.r.F.NXMXCXCXNX#XaXCXCXCXCXCXCXZXCXZXZXZXCXCXCXNXdXfXdXMXCXZXfXB # & j       l j * j j j f d d d j F     `     3XbXaX7XaXsXaXNXMXCXCXdX'.                                                                                                                              ",
"                                                                                                            C D D c z l j v d k C C B B C k O.L.m.d.G.OXeXaXsXsXsX7XOX1.0.n 1.1.1.1.2.d.d.L.bXMXCXMXCXbXeXNXCXCXCXCXCXCXZXCXCXCXCXCXCXMXNXMXCXCXCXZX=X% % * l       $ $ j l l l l j j d l Q     /     5X7X5XgXsX7X7XbXMXCXNXdX}.                                                                                                                              ",
"                                                                                                            k C D z l j j v d _.wXwXqXqXqX<X1X;X=XJ.n.L.#XsXsXsXsXsX8Xr.r.Q m 3.1.3.1.r.G.z.dXMXMXCXCXCXbXdXCXCXCXCXCXCXCXCXCXCXZXCXCXCXCXCXCXZXZXNX..# & d z       # * j l l l l l j d z Q     `     8X5XOXsXaX8X7XfXfXfX0X5XC.                                                                                                                              ",
"                                                                                                            k C D z l j l v j {.3X>X>X>X3XwX0XkXnXmXnXyX4X7XaXsXsXsX7XL.0.G.F 3.3.3.1.0.d.r.7XNXNXMXMXMXMXbXNXMXMXMXCXMXNXNXbXdXbXCXMXCXCXZXZXZXZX>X* = & j z         * j l l l l l j d b Q     /     7X5X5XsX5XOX-X3XqXlXlXlXrX<X:XK.                                                                                                                        ",
"                                                                                                            k C D z l k l z j _.>X>X>X-X>X>X>X>X3X9X0XcXmXcX0X4XaXsXsX5Xr.L.r.m 3.1.1.1.r.r.OXNXNXMXMXCXMXMXNXCXMXCXaX,X3X4X0X7XsXMXCXCXCXZXZXZXbX} # * $ l z         * d l z l l l l f F /           7X#X8X5X-XqXmXSXFXFXFXFXFXFXSXnX<X).|                                                                                                                   ",
"                                                                                                              C C z j * z l d _.>X-X-X-X>X3X9X9X9X9X9X9X9XtXnXnX0XeX7X7XF.z.oXF F F F 3.0.d.F.dXNXMXMXMXMXCXCXCXCXCXfX3XBXxX}.7XbXMXMXCXCXCXZXZX_.# & * * z C         & j l z l l l l j Q Q           5X[.>XlXSXSXmXjX1X;X*XK.K.*X:X<X:X;XK.r                                                                                                                 ",
"                                                                                                              C C l j 2 z l j _.-X-X-X-X>X3X9X9X9XwX0X0X0X0X9XtXnXnX0XeXOXr.OXN.b m m m F r.r.8XNXNXNXMXMXMXMXMXMXCXCXbXfX0XfXNXNXMXCXMXMXCXCX3X1 # & & * v C         # j j z l l l z l e.W           _.1XAXAXqX:X:X:X).%.#.x.m.m.m.m.m.V.%.+...T r                                                                                                           ",
"                                                                                                              C C z j k z l j J.-X-X>X-X>XwX0XyXuXkXuXuXuXiXtXtXtXuXmXzX3Xn.L.OX0.n n m F 0.r.'.dXNXNXNXMXMXMXMXMXCXCXMXdXdXMXMXMXMXMXMXMXMX3XB # # & & * D D         # l d z l l l z z e.C         { :XzX1X:XjXxXrX,X[.oXoXoX!.Q.E.S.S.S.S.Z.A.C.%.~ >                                                                                                       ",
"                                                                                                              S C l k k z l j _.>X3X9XwXyXzXzXkXkXuXuXuXuXuXtXtXtXiXuXcXnX>XZ.OX'.F m m m F r.z.8XbXNXNXNXNXCXCXCXCXCXCXMXMXMXNXNXNXMXMXNX,X0 X # # $ * * D D           l & l l z z z b e.S         *X:X).<XSXVX3X[.@X+XXXoXoX].Q.W.Y.S.S.S.S.S.S.N.V.+.0                                                                                                     ",
"                                                                                                              S C k 2 j z l c =X>X>X>X>XwXyXkXzXkXkXkXkXkXkXkXkXuXuXuXkXkXcX>XJ.L.m.n n n n 0.r.OX7XbXNXMXMXMXCXCXCXCXCXNXNXNXNXNXMXMXfXJ., X # # % & * * D D           j 2 d z l z b Q e.         .=.$.jXFXlX}.+X@X@X@XXXXXXXoX!.Q.W.E.F.S.S.S.S.S.m.V.+.9                                                                                                   ",
"                                                                                                              C C j * l l j C -X-X-X>X3X0XtXyXkXkXkXkXkXkXkXkXzXzXkXzXzXcXcXiX-X{.n.D n m m F 0.F.#X7XbXMXMXMXCXCXCXCXMXNXMXNXNXNXdX5X( X X X X % k & * * D W           j k $ l l z b e.e.        e p <XFXtX[.XX@X@X@X@X+X+XXXoX^.!.W./.S.S.S.S.S.S.S.f.V.(                                                                                                   ",
"                                                                                                              C C k 2 z l d O.-X-X>X>XqXkXmXAXAXmXzXkXkXkXzXcXcXcXcXcXcXcXcXvX0X-X-XV.c m n n 1.r.OX6X7XbXMXMXCXCXCXCXMXNXNXNXNXaXJ.1 X X X # X & z & d d D W           j c   l z v F e./         : ).mXyXW.oXXX@X@X@X@X@X+XXXXXoX!.Q./.S.S.B.m.f.m.S.f.x.%.0                                                                                                 ",
"                                                                                                              S c * k z l j _.>X>X3XlXVXDXDXDXSXSXDXVXcXkXzXcXcXcXcXnXnXnXmXmXnX0X>X>XH.D M n m F W [.6X8XdXMXMXMXMXNXNXNXNXdX-XU # X # # # # X 2 D   j d v D           j c   d v v Q f.W         +.rXwXR.^.oXXX@X@X@X@X+X+XXX+XXXoX^.E./.S.B.m.m.f.e.f.` #.U                                                                                                 ",
"                                                                                                              x k * k z f ~ -X-X3XkXAXDXDXSXSXSXSXFXFXSXAXnXzXcXcXnXmXmXmXmXmXmXnX0X3X,X%.v n n F z C M.5X8XsXbXNXNXNXbXdX5X..% # # # # # # # # 2 F   k d z W           j c   * v b r.z.C       r =X<XZ.U. XoXXX@X@X@X@X+XoX+XXXoXoXoX^.!.E.S.S.B.m.b.` _ X...                                                                                                ",
"                                                                                                              k k & j l j J.-X3XcXBXBXmXxXxXxXxXlXxXxXAXDXSXDXBXnXmXmXmXmXmXBXBXmXmXyX3X=.S v n n b j j C Z.5X7XsXdXdX8XV.2 # # # # # # # # # # * Q   * j z Q           k C   # z F e.l.        $.;XC.S.~.^. XoX+X@X@X@X+XXX+XXXoXoX XoX^.!.Q.E.F.S.B.b.` ~ ~ N                                                                                               ",
"                                                                                                              k 2 & j j ~ -X>XqXrX1X2X2X2X2X*XUX).*X:X<XjXlXxXVXmXnXmXBXBXBXBXBXmXmXmXwX-.:.k M n m l j d & x X.F.OXR.B # = # # # # # # % % % # * Q   * j z /             C     l Q z.o.        &.`.e.U.U.~.~.oXXX+X@X@X@X+XXXXX X^.!.!.~.!.~.~.E./.F.S.f.` Y P                                                                                               ",
"                                                                                                              2 2 * z j H.*XUX&X&X&X&X&X&X*XqXxXDXFXHXJXJXJXHXKXSXVXxXzXnXmXmXBXmXBXBX1X&X:.T D M n v d d * $ # # & # @ X = & # # # # # % % % = & F     j z /             C     f Q b._         } ..B.~.U.U.^. XoXXXXX@X@X[.'.Y.D.D.F.S.F.Y.W.~.E.E./.S.S.m.` Y B                                                                                             ",
"                                                                                                              2 2 k z k ;.&X&X&X;.:.;.*XlXSXJXJXJXJXJXJXJXHXFXFXKXHXKXAXzXlXnXmXBXBXnX2X&XS A O.F v n d * * & = & = # X @ # * # # = % & % % = = $ D Q   k l Q C           C     d e.b.W         % ^ S.~.U.~.^.^.^.oXoX[.'.R.D.N.S.S.D.D.S.F.Y.E.~.~././.S.S.m.` Y 9                                                                                           ",
"                                                                                                              2 2 j j :.;.&X:.s r V.>XAXJXJXJXJXJXJXJXFXDXDXFXFXKXFXDXAXVXxXqXqXnXBXjXUX&XH f ..Z.Q M z $ * & = = = # # @ X & 2 # = = = = = = $ $ z 0.  k z D D           D     k e.l.C         2 e.S.U.~.~.^.~.^.!.'.R.R.Z.N.D./.F.F.F.S.F./.E.~.~.U./.S.S.B.b._ U y                                                                                         ",
"                                                                                                              < * j 2 :.:.p 0 } {.9XLXJXJXJXJXJXJXHXDXDXHXJXJXJXJXJXJXJXFXAXnXqX>XuX2X&X:.5.4.d V.J./ v $ $ = & = = & # @ @ # * % # = = * = = = $ j Q Q   z D W           D     S z.e.          B f./.U.~.~.~.~.E.Y.D.Z.D.Y.W.~.~.~.~.~.~.~.E.Q.~.~.U././.S.B.m.e._ ~ B                                                                                       ",
"                                                                                                              & * j s :.A p +.}.9XLXJXJXJXJXJXJXKXDXHXJXJXJXJXJXJXJXJXJXJXJXHXAXkX:X&X&XZ m 5.h S V.@.k # $ $ & & = & # X @ X & 2 # = = * 2 $ & * d Q e.  z v /                   e./           W f./.~.U.~.~.E.S.N.D.Q.].!.!.~.~.~.^.^.^. X^.~.~.~.~.U.E.S.S.m.x.` _ (                                                                                       ",
"                                                                                                              % * l s A P J.-X3XSXJXJXJXJXJXJXLXLXJXJXJXJXJXJXJXJXJXJXJXJXJXJXHXDXmX:X;.z v <.g d ^ x.c._ < = = = = = * # @ @ # & < # = = * j & * * c e.W k v Q S                 e.^           ^ f.S.~.U.U./.S.S.W.!.!.Q.T.Y./././.~.~.^.~.^.~.~.~.~.~.U./.S.B.x.` ) ) ..                                                                                    ",
"                                                                                                              & k z & { =X>X>XAXJXJXJXJXJXJXLXKXJXJXJXJXJXJXJXJXJXJXJXJXJXJXJXJXHXDXBX=XS f f ^ Z.Q.[.oXoXM.2 $ & & = $ = @ @ @ # * & # = = k j * $ j Q e.S c F D                 `           X ^ f.S.U./.S.f.S.~.Q.T.F.Z.N.S.S.S.S.E.!.~. X X X X~.~.~.U.U././.S.m.` ( #.R                                                                                   ",
"                                                                                                              % k l k *X9X>XnXJXJXJXJXJXJXKXKXJXJXJXJXJXJXJXJXJXJXJXJXJXJXJXJXJXJXHXFXBX%.C v.].XXXX+X+X+XXXb.& # # # 2 V ! _ ! < = * % = = & c W ' ' ' e.^ C v D                 `             W f.f.B.m.e.f.U.F.S.D.N.N.N.m.B.S.E.Q.~.~. X~.Y.S.S.S.S.S.S.S.S.S.F.S.b.) ..r                                                                                 ",
"                                                                                                              % j j H.tX9XtXHXJXJXJXJXJXHXHXJXJXJXJXJXJXJXJXJXJXJXJXJXHXHXFXFXFXFXKXAX;Xc.T.oXoXXXXX+X+X+X+XXXo.B B ` N.F.Y.Y.Y.f.= & = % B ^ e.B.U.~.^.^.Q.R.Z.m.e.' V           ^             V f.f.f.` e.U.S.S.B.B.N.N.Z.N.D.W.^.~.~.~.S.m.b.b.m.S.F.F.F.S.B.m.m.B.B.f.( I                                                                                 ",
"                                                                                                            X & j } qX0XwXVXJXJXJXJXJXJXHXJXJXJXJXJXJXJXJXJXJXJXJXHXFXFXSXSXDXDXDXmX_.v.^.oXXX+X+X+X+X+X+X+X+X[.x.` m.F.R.R.F.N.D.x X x ` ` _ _ ` e./. X].].].].Q.!.Q.F.m.` W                   2 ^ ' ' W f.B.m.m.m.f.f.x.` ` x.m.m.m.S.f.e.x.N.W.~. X XU.U.U.U./.S.m.b.b.e.( y                                                                               ",
"                                                                                                            X 2 S ;XkXtXyXFXJXJXJXJXJXJXJXJXJXJXJXJXJXJXJXJXJXHXFXFXFXFXSXSXDXSXnX(.Z.oX+X+X+X+X+X+X+X+X+X+X+X+XQ.` x.N.D.F.F.N.F._ < ~ ` ` S.S.b.b.N.!.XX@X[.[.].!.^.Q.Q.Q.E.S.f.^     x W ` b.m.S.S./.E.!.~. X^. X^.~.!.!.].Q.T.F.B.f.' W W e.S.E.S.S.S.U.~.^.~./.S.B.b.b.x.U                                                                               ",
"                                                                                                            X * @.uXuXyXzXHXJXJXJXHXJXJXJXJXJXJXJXJXJXJXJXJXHXHXHXKXFXFXSXSXFXmX(.D.oXXXXX+X+X+X+X+X+X+X+X+X+XoX+XR._ e.b.m.v.m.Y.m.9 Z T %.T.^.~.D.N.Y.XX@XXX[.[.].!.!.^.Q.!.!.'.T.m.b.b.M.R.Q.^.^.^.^.~.^. X X^. X X~.!.!.^.].oXoX X X~.!.Y.B.e.f./.~. X~. X X^.U./.D.B.m.n.c.B                                                                             ",
"                                                                                                            # k =XkXuXyXnXJXHXHXHXHXJXJXJXJXJXJXJXJXJXJXJXHXHXHXHXKXKXFXFXHXAX_.F.oXXX+XoX+X+X@X+X+X+X+X+X+X+X+X+X+XY.f.` f.m.S.!.T.B 7 7 9 E #.~.~.Y.T.'.XXXXXXXX].!.!.!.!.!.Q.'.W.W.T.D.N.M.N.Y.W.Q.!.~. X X X~. X X^.^.[.oX[.oX~.~.~.~.~.^.^. X X X X~. X X X^.~.U./.S.S.N.M.#.                                                                            ",
"                                                                                                            # C tXzXkXyXVXJXHXHXHXHXJXJXJXJXJXJXJXJXJXJXHXHXHXHXHXHXKXKXJXSX*XR.XXXX+X+X+X+X+X+X+X+X+X+X+X+X+X+X+XoX X^.Q.Q.Q.~.^.!.V 7 9 9 9 9 m. X!.'.'.XX@XXXXXXX[.].!.Q.!.Q.Q.T.T.T.Y.D.B.N.N.F.Y.Q.~. X X~. X X X^.^.].oXoX!.U.~.~.~.~.~.~. X X X~.~. X X X~.~.U.U.E.D.B.m.Z.%.                                                                          ",
"                                                                                                            # %.cXzXkXiXVXHXHXHXHXKXJXJXJXJXJXJXJXJXJXJXHXHXHXHXHXHXHXJXKX=XD.XX+X+X+X+X+X+X+X+X+X@X+X+X+X+XXXXXoXoXoXoX X^.^.^.^.!.`  .I y 9 9 _ oX].].].oXXXXX@X@XoXoX^.!.Q.W.T.T.Y.Y.Y.Y.D.N.N.R.Y.E.~.~. X~.~. X X^.~.].[.oX].~.@X4X!.^.~.~.^.~.~.~.~. X X~.~.U.U./.E.S.B.N.v.C.|                                                                         ",
"                                                                                                            * *XcXzXkXiXmXHXHXHXHXHXJXJXJXJXJXJXJXJXJXJXHXHXHXHXHXHXJXHX;XZ.@X+X+X@X+X@X+X+X+X+X+X@X+X+X+XoX^.!.!.^. X^.^.~.~.~.~.^.b.).:X:X).| !  X+X[.[.oXoXXX+X@XXXoXoX^.Q.W.T.T.Y.Y.Y.F.D.N.D.F.Y.~.~. X X~.^. X X X^.].[.].^.W.fXvXR.~.~.~. X~.~.~. X X^.~.U.E.F.F.S.S.S.N.v.V.%.r                                                                       ",
"                                                                                                            k >XmXnXzXkXnXFXHXHXLXHXJXJXJXJXJXJXJXJXJXJXJXJXHXHXJXJXHX;XZ.+X@X+X+X+X+X+X+X+X+X+X+X+X+XoX^.E.E.E.E.E.E.Q.~.~.~.U.~.^.` > y } ).<X<X'.oXoXoXoXoXoXXXXXXXoXoX X!.T.F.F.Y.Y.Y.D.N.Z.S.Y.E.~.~.^. X^. X X X X X X].^.~.[.CXCX}.E. X X~.~.~.U. X~.~.U.E.Y.F.F.S.S.S.m.V.V.C...%                                                                     ",
"                                                                                                          # c qXmXnXcXcXcXDXHXHXLXHXJXJXJXJXJXJXJXJXJXJXJXJXJXJXJXSX=XV.XX@X+X+X+X+X+X+X+X+X+X+X+XoX!.E.E.E./.Y./.E.Q.~.~.U.U.U.U.~.` 9 y 9 9 P ;X}.].XXoXoXoXoXXXXXoXoXoX^.Y.F.D.D.F.D.D.D.N.N.Y.E.E.~.^. X X X X X^. X X^.^.^.~.3XNXbXfXR. X~.~.~.~.~.~.U.E././.F.F.S.S.S.m.v.c.V.v.C.r                                                                     ",
"                                                                                                          $ C yXmXmXcXcXcXnXSXKXDXJXJXJXJXJXJXJXJXJXJXJXJXJXJXJXAX=X#.[.@X@X+X+X+X+XXX+X+X+X+XoX!.W.E./.Y.Y./.E.E.E.E.~.U.U.U.U.U. X` 9 y y y y $.}.].oXoXoXoXoXXXoXoX X!.Y.S.S.D.S.D.S.B.N.N.F.E.U.~.~.^. X X X X X^. X^.~.~.^.E.}.sXsXsX,X/.~.~.~.~.~.E.U.E.E.F.F.S.S.n.b.b.v.v.n.v.Z...                                                                    ",
"                                                                                                          $ D kXmXmXnXcXcXcXnXVXAXJXJXJXJXJXJXJXJXJXJXJXJXJXJXmX=XO.'.@X+X@X@X+X+X+X+X+XXXoX!.E.Y.Y.E.E.E.F.F.E.E.E.E.U.U.U.U.U.~. X_ y y y N y ..}.Q.oXoXoXoXoXoXoX^.W.D.S.S.N.N.S.B.N.B.N.D.W.Q.~.~.^.^. X X X X X X X~.~.~.^.F.'.fXsXsXfXR.~.~.U.U.U.E.S.S.F.F.N.x.o.X.o.b.v.n.n.m.n.V.<                                                                   ",
"                                                                                                          d ^ zXmXmXmXnXcXcXkXyXxXHXJXJXJXJXJXHXJXJXJXJXJXJXnX=X@.D.XXXX+X+X+X+X+X@XXX].!.Q.W.W.W.W.E.E.Y.F.E.E.W.E.E.F.U.U.U.~. X~.L y y y N y ..}.!.oX].oXXXoX].!.T.S.N.N.S.B.N.m.m.m.m.N.W.Q.~.Q.[.~.^.^.^.^.^.^.^.^. X~.^. XY.F.dXdXfXdX3X/.U.E./.E.S.S.S.E.m.o.X.#.x.b.b.b.m.m.m.m.Z.B                                                                   ",
"                                                                                                          l ^ zXmXmXmXmXnXcXkXqXqXcXDXHXJXJXHXHXHXJXJXJXJXkX=X%.V.oXoXoXoXXX+X+XXXoX!.Q.Q.Q.W.E.W.W.W.E.Y././.Y.E.E.S./.~.~.~.~.~.U.B y y N N y .._.Y. X].[.[.].Q.Y.D.N.N.N.N.m.m.b.b.b.m.W.Q.~.~.@XBX3XE.~.~.^.~.~.~.~.~.~.~.^.Q.Z.fXdXdXdXfXY.U.E.S.S.S.S.B.f.` ` l.b.m.m.m.m.m.m.b.m.v.A                                                                   ",
"                                                                                                        $ l ^ kXmXmXmXmXmXcXkXwXqXtXyXnXDXHXHXHXJXJXJXJXlX}.C.O.'.^.].[.oXXXXXoX^.Q.W.W.W.W.W.E.W.E.E.Y.Y.Y.Y.E.E.E.E.~.~.~.U./.S.f.1 > > , 3 3 $.J.n.^.].].[.'.F.N.Z.Z.M.Z.m.b.f.b.b.m.F.Q.!.~.Q.eXMXvXR.E.Q.Q.Q.Q.~.Q.~.~.~.!.!.v.aXdXdXsXbX}.S.S.S.S.B.e.` ` b.x.f.m.m.m.m.m.b.b.b.m.A.A                                                                   ",
"                                                                                                        * l C lXmXmXmXmXBXmXcX1XqXtX0XtXyXzXzXzXmXDXKXlX}.J.@.R.^.!.].].oXoXoX^.~.Q.W.W.W.E.Y.E.W.Y.Y.Y.W.E.E./.E.~.~.E.F.S.S.S.S.' X A ..% : , =.H.m.W.].].'.R.Z.n.n.n.v.x.f.l.x.x.m./.Q.Q.Q.~.Y.[.bXNX0XD.W.Q.Q.Q.W.W.Q.E.~.~.!.m.5XfXsXsXdX9XS.S.S.m.` ` _ ` f.f.f.f.b.m.m.b.b.x.b.v.V.r                                                                   ",
"                                                                                                        d l C qXmXmXmXmXBXBXBXqXyXtXtX0XtXtX0X0X9X3X>X=X{.+.C.Q.!.!.!.].oX^.!.!.Q.E.W.E.W.E.Y.E.E.E.E.Y.Y.E.E.~.Q.W.S.B.B.m.f.m.B.V O %.H.: , : T ) B./.~.Q.D.Z.v.x.b.x.o.o.` o.x.n.Y.Q.Q.~.E.Y.F.T.sXsXdX3XN.Y.Y.F.F.Y.F.F.F./.E.m.{.sXsXsXsXfXN.f.f.` ` ` ` ` e.f.f.f.b.b.b.x.x.c.c.V...                                                                    ",
"                                                                                                        f l k wXnXmXmXmXBXBXBXlXnXkXyXtXtXtXtXtX0X0X3X-XC.%.R.E.Q.!.!.^.!.!.Q.Q.E.E.E.E.E.E.E.E.E.Y.Y.W.Q.^.^.W.N.m.m.b.f.f.m.m.m.1 : *X=.: , > Y ` S.~.^.D.v.c.c.x.o.o.o.o.o.x.Z.T.Q.Q.E.E.F.S.D.n.7XsXsXdX-Xm.S.S.D.D.S.S.S.S.S.B.v.7XsXsXsXdX{.e.` ` ` ` ` ` e.e.e.f.f.f.o.o.#.c.V.%.0                                                                     ",
"                                                                                                      $ l j j ;XnXmXmXmXBXmXBXlXmXmXzXyXiXuXyXtX0X9X3X{.+.J.Y.E.W.Q.Q.Q.Q.Q.Q.E.E.E.E.E.W.W.E.E.W.W.Q.!.^.W.N.x.x.x.x.f.f.f.f.m.' 9 y +.P 1 > A Y e.S.^.Y.b.o.X.` ` o.` o.o.c.M.T.Q.Q.Q.F.S.N.B.B.x.5XsXsXsXfX(.f.N.N.N.B.m.m.m.m.m.` -XaXaX7X7X4X` ` ` ` ` ` ` ` ` ` ` ` ` ` X.#.%.%.A                                                                       ",
"                                                                                                      d l l f *XnXnXmXmXBXmXBXlXmXVXmXcXkXuXiX0XwX9X>X%.H.R.Y.Y.E.W.W.W.E.W.Q.E.E.E.E.E.E.E.Q.~.~.^.^.T.v.#.o.o.o.` ` ` e.f.f.f.L 0 N ..0 1 Z C.Y f./.U.b.` ` ` o.` ` ` o.c.Z.W.Q.Q.E.S.N.m.m.m.m.e.R.sXsXsXsXaXC.b.m.m.m.b.b.b.b.f.` V.7X7X7X8XaXC.` ` ` ` ` ` ` ` ` ` ` ` X.X.#.#.U , P ..+.+.|                                                             ",
"                                                                                                      l l l l H.cXnXmXBXBXmXBXzXmXBXVXBXnXzXuXtXwX9X_.%.J.F.F.Y.F.Y.W.W.E.W.E.E.E.E.Q.!.!.!.^.~.!.T.b.) ) ) ` ` ` _ _ ` ` _ Y B N | %...( %.>XV._ B.U.f.` ` ` ` ` ` ` ` o.Z.W.Q.E.D.B.m.b.m.b.b.f.f.` 8XsXaXaXaX0Xc.` f.` ` o.` ` ` ` _ [.7X8X8X7X0X` ` ` ` ` ` ` ` _ ( ) ( ( ....U B X.C.J.(.(.(.H.|                                                         ",
"                                                                                                    $ l f l l @.uXcXnXmXBXmXBXzXnXBXBXBXBXnXkXtXwX>X%.H.Z.S.D.F.F.F.Y.Y.Y.Y.W.W.Q.!.!.!.!.!.!.W.v.) ~ ( ( ) ) ) ! _ _ ! Y V B , @ % } r U ..%.! f.S.m._ _ _ ` ` ` ` ` ` N.Y.W.Y.N.b.x.x.x.f.f.f.` ` _ Z.aXaXaXaXgX4XO.` ` ` X.) ` ` ` ` l.6X8X6X8XbX{._ ` ` ` ` ` _ ( Y T T T T N y N P Y ) X.V.H.(.(.V.R                                                     ",
"                                                                                                    d l j l l C wXkXcXmXBXmXBXnXnXBXBXBXBXmXzXyX9XK.H.J.D.S.N.N.S.S.D.D.D.F.Y.Y.W.E.Q.Q.Q.T.M.X.( ~ ~ ~ ( ( ~ Y Y Y Y Y U U y X X + X X X @ B e.S.m._ ! _ _ ) ..) ` x.S.E.F.N.b.o.` ` ` ` ` ` ` ` ` ` ^ [.sXaXaX7X7X4Xo.` ` ` ` ` ` ` ` _ F.6X6X#XsXdX#._ _ _ ~ Y U U R U U P 9 7 7 7 y N P Y ( X.#.v.(.(...                                                  ",
"                                                                                                    j l j l l k ;XuXkXcXmXmXBXnXnXBXBXBXmXmXcXtX;X=.J.Z.S.m.m.M.N.N.N.N.N.S.S.F.Y.W.Q.W.M.X.~ Y ~ ~ ~ T Y U P U U Y ! ! _ _ , X + + % + + # ' f.f._ ! ! ) _ ) X.` m.F.E.S.x.` ` _ ) _ _ _ _ _ ` ` _ ` _ ` 5XaX7X7X8X7X4XC._ _ ` ` ` ` ` ` ^ OX#X#X6XNX-XL Y U P A N P P A y > > 5 5 > 7 0 N U T ~ ) ` x.A.(.V.B                                               ",
"                                                                                                  $ j j j l l * K.0XkXzXnXmXmXmXnXBXBXmXmXmXkX9XK.H.J.N.m.m.m.m.m.m.m.m.m.N.N.S.F.Y.N.o.~ Y Y Y Y U U P U Y ~ ) ) ) ` ` ` B . X + % + + X 2 f.f.! L L ! ) _ ..o.N.E.F.m.` ) ! ! ) _ _ _ _ _ ` ` ` _ ` ` _ c.8X7X8X8X6X6XaX=X#.` _ _ ` ` _ ^ N.#X#X#XaXuXT P N Z Z N N y 9 y r r r r r r r r N Z R ~ ) ) o.c.Z.C.B                                             ",
"                                                                                                  d l j l l l $ } wXyXzXzXnXmXmXzXmXmXmXmXcXwX_.H.(.Z.m.b.b.b.b.b.b.b.b.b.b.b.m.m.` ~ Y U U P P U Y ~ ( ) ) ` X.X.o.` ` ! + . X + + + + X L ` L V L L L ) ` o.M.N.v.` ! Y ! ! ! ! _ _ _ _ _ ` _ _ _ _ ` _ _ v.6X8X6X6X#X#XdXpXc.! _ _ _ _ _ _ OX#X#X#XdXH.N N r r 9 y L ` f.m.m.m.b.) ( Y ( #.#.( R Y ( ) ` l.Z.C.A                                           ",
"                                                                                                  j l l l l l - 7 ;XwXkXzXzXnXmXzXnXmXnXmXtX=X=.J.J.m.x.x.x.x.x.x.x.x.o.o.` ` ) Y U U U U Y T ( ) ) ( ) ) ` ` ) ) ) ) ! % o % @ X X + o % U V B N B L L _ ` x.#.) ~ Y Y Y ! ! ! ! _ ) ! _ _ _ _ _ _ _ ` _ _ ^ l.OX6X6X6X#X8XNXuXV.! _ _ ! ~ L F.6X#X#X7X3XN r 5 7 I %.J.(.J.D.S.E.~.!.T.M.#.X.A.T.Z...~ ~ ` ` f.v.V.Z                                         ",
"                                                                                                * l l l j j d X X -.9XtXzXzXzXnXcXlXmXmXzX>X%.K.K.M.b.o.o.o.o.l.` ` ` ) ( ~ Y U U U Y ~ ( ( ( ( _ ) ` ` ) ) ) ) ~ ( ! % . . % : + + o @ : 9 r B B N L L ! ! ~ Y R R Y Y ! ! ! ! ! ) ! ! _ _ _ _ _ _ _ _ _ _ _ _ ` '.6X#X#X#XgXNXvXH.W _ _ ~ Y ` 6X6X6X6XaX+.: A =.:XjXxXAXAXmXyX>X}.T.].oX'.M.#.v.R.T.v.X.` ` ` ` V.%.                                        ",
"                                                                                                j l l l d d $ X X Z ;X>XkXzXcXnXcXqXkXnX9XH.%.K.J.v.) ` ` ` ` ` ` ) ~ Y U A N U ! ~ ~ ( ( ( ( ( ) ) ) ) ) ~ ~ Y U P % . . . . . . . @ y y > 7 B B L L L U U U U U Y Y Y ! ! ! Y ~ _ ~ ~ ! _ _ _ ! ^ _ ^ _ _ _ _ _ _ D.#X#X#X6X7XNXMX{.! ! ! Y L '.8X6X#X6X,X9 Z *.K.K.-.).*X<XxXSXAXrX=X'.oXXXR.V.V.Z.'.].R.m.o.` ` V.T                                       ",
"                                                                                                l l l l d d # X X X ).-X3XyXlXkXkXlX<XuX=X$.K.K.V.` ) ) ( ) ) ( ~ R A N N A Y ( _ ) ( ) ) ( ( ( ) ..( Y R U U U A % . . . . @ . . . r U P N > 0 N B B L L P U U U U Y Y ~ ~ Y Y ~ ! ! ~ ~ ! _ ! _ ^ _ _ _ _ _ ^ _ _ ! m.#X#X6X6X7XdXMX3X( L ) ..c.6X6X6XOX7XK.*.VXAXmXzXqX:X).$.K.1XAXSXrX}.[.XXT.A.V.Z.'.oX^.Y.v.` #.#.N                                     ",
"                                                                                              d l l l j d d # X X X { qX>X>X3X3X3X9X=X{.H.%.K.H.o.) ( ( T Y Y R A N Z P U T ~ ~ ) ) ( ( ( ) ) X.) Y A A N A P N : + : > 7 7 > : + r T U U U r > 0 r N P P U Y R U U Y Y Y ! T Y ! ~ ! ! ! ! ! ! _ _ ! ! ! ^ _ _ _ _ _ ! x.OX6X6X6X8XgXdXuX(.R 0 1 [.6X6X6X6XfXH.;XxXDXFXDXAXAXlX*X*.*.1XAXDXwX}.XX'.Z.M.Z.R.^. X!.D.x.#.T                                     ",
"                                                                                              j l l j d d * X X X X # *XkXwX>X>XwXwX9X_.| H.H.V.) ( T R R R P Z P { I U T Y ~ ( ) ) ( ~ ~ ) ( T N r r N Z P N + + > 7 r p p p r y T | U P R A 9 9 y N A P U Y R U U U Y Y Y Y Y ! ~ ( ) ~ ! Y Y ! ! ! ! ! ! ^ _ _ _ _ _ _ l.OX8X6X6X#X6X7XfX0XK.H.}.#X6X6X#XgXbXpXiX3X9X9X3X3XVXFXxX:X*.-.jXSXlX=X[.'.Z.Z.N.D.!. X XY.v.T                                     ",
"                                                                                              l f j d * d $ X X X X X } 9XwXqX;X*X>X9X-X$.`.H.X.T R R U P Z A } | } U R Y Y ~ ~ ~ ! ~ ~ ~ Y A y r Z I | } r + o % : > + : 7 + + y T ..T T T U B 1 0 r N P E T R P P R Y Y Y T T ~ ( ~ ~ ~ ~ ~ ~ _ ! ! ~ ( ) X.X.X.X...( R N B Z.6X6X#X#X#XOX6XfXbXpX#X6X6X#X5XbXMXdX0XbXCXZXvX9XDXFXLXxX*X| ;XAXmX,X[.'.Z.M.N.D.!. X~.Y.` 2                                   ",
"                                                                                            j l j d d $ d - X X X X X 9 =X3X>XqXwX=XK.$...H.#.T U P A r Z }  . .} U U R Y ! ~ ! Y ! ! Y U r r Z { | | Z > > : + 9 r r , 0 R P r 9 0 A U T T T U N r r N P R T ....@...#.X.#.%.%.%.%.%.%.%.%.%.$.&.$.+.@.| } I Z N r y 0 9 9 0 9 ) OX#X#X6X#XOXOXsXdX6X6X6X6XOXaXbX4XbXZXZXZXZXvX0XDXSXSXDX:XI *XAXAX>X'.R.M.M.N.S.~.~.Q.S.!                                   ",
"                                                                                            z l d d * $ d X # X X X X % ).3X3X-X3XyXlXqX+...~ U P Z Z { | |  .| R U R T T ~ ~ ~ T Y U N r Z { { I p 7 > y r 7 + r r r > r R } ..%.+.......C.<XzXxXjX1X:X*X*X).).-.+.@.+.$.+.| | @.} A A Z p r y 9 9 7 7 9 9 y r B B r y y r r y 0 C D.#X6X6X#XOX7XgX#XOX5X#XoX7XeX0XbXCXZXZXZXZX0X9XSXSXSXDX<XI *XAXmX=XT.Z.n.m.m.F.Q.E.F.m.V                                 ",
"                                                                                            z d d d $ $ $ X # X # # # X K.>X9X3X>X-X-X=X} < N P P P } | | | | I P P U R Y Y ~ T R P N r y 9 7 > > 0 r N N r 7 > y y r > r } @.V.J.{.J.c.c.c.J.xXJXJXJXJXJXJXHXHXLXlX=XJ.>X;XC.A S D S % : 9 r 0 0 y y y r r N N N r r r r r N N N r B / oX6XOXoX8X8X5X#X#XOXOX8X-XaXsXdXZXZXCXCXCX4XtXSXSXAXDX<XI ;XDXzX(.N.n.m.m.m.F.F.F.F.X.,                               ",
"                                                                                          k j d d d $ $ # # # # # # # X +.1X>X9X3X>XJ.B N U > 9 Z I } | | | I P Z A A A P U U A y : : O O 0 r N N N r r r r 9 7 y y N > P %.J.}.}.}.{.(.V.o.O.C.lXJXJXJXJXJXJXJXJXJXHXlX:XxXDXtXJ.R C ^ S < > y y y y r r r r N N N N N N N N A N N N A }.OX#X#X8X6X#X#X#XOXeXOXaXdXdXsXCXZXMXMXCXMXiXuXVXAXAXDX*XJ <XAX1XV.m.v.b.b.m.F.E.S.v.B                               ",
"                                                                                          k j d d d $ $ # # X # # # # X p wX>X3X9X_.R R } T P N 9 7 e p I I { I P A N N r 9 : O O : O + y r N N N N r r r r > y r N N > @.{.=X-X}.}.}.}.{.J.V.V.J.wXHXJXJXJXJXJXJXJXJXJXLXjXAXJXSXwX%.S D D S , 9 r r r r r r r N N N N Z P P P P P A } 5X#X#X6X8X6X#XOXOX#XOXaXdXbXdXfXbXCXsXdXsXdXCXbXtXqXVXAXAX*. .xXrXK.x.x.b.x.f.S.S.S.m.~                               ",
"                                                                                          z d d * * * # # # X # # # # # % ;X1X>X_.P ......T A r e 7 6 5 : : O % O O O + O O : 5 5 ; + 9 r r N N N r r r r 0 > r r A A 9 V.}.-X-X-X-X-X-X}.}.R.F.Z.n.>XSXJXJXJXJXJXJXJXJXJXJXAXDXJXJXnX{.~ C / G k < y r r r r N N Z P P P P P P P U P 1X>X#XOX#X6X6XOXOXoXoX7XfXdXdXdXsXbXaX8XeX7XfXCXZXZX4XwXAXAXjXI *XqX;XV.b.x.l.l.m.B.B.N.#.<                             ",
"                                                                                        k j d * * & * - # # X # # # & % X *.yXH.R @.+...R N y 9 9 9 7 7 6 6 5 5 6 6 7 7 7 7 6 5 O O 7 y r N N A N N N r y 9 9 r N ! A 0 J.=X-X-X,X-X-X-X-X-X}.}.}.R.R.-XkXFXJXJXJXJXJXJXJXJXJXAXLXHXHXBX>X%.C G / C 0 0 r r N Z Z P P P I R R R R U +.AXwXOXOXOX#X6X6XOX'.7XdXfXdXdXdXdX4X'.OX7X8XbXZXZXZXbX=XmXAXDX*XI :X:X_.x.` x.o.e.B.S.S.V.B                             ",
"                                                                                        S k * * $ $ $ # # # X # # % # # # r *X| $.+.} P N y y y y y e 7 7 7 7 7 7 7 7 7 7 7 6 O : 7 9 y N A P A A N r r N 1 N A ! l.P B (.-X-X-X>X3X3X3X>X,X-X-X-X}.}.}.-X3XzXFXJXJXJXJXJXJXJXHXVXFXFXSXmXwXK.x S G G k 9 r P P P P P I R } T T T R ).SX:XZ.#X#X6X8X6X8XaXfXCXbXfXdXfX5X'.OX7X5X5XCXZXZXZXbXJ.qXAXAXlXJ =.:X;XV.` ` ` ` m.S.B.v.U                             ",
"                                                                                        C & & & & * # # # X X # # # # # # % } +.+.R N r r r r r r r r e 7 9 e 7 7 7 7 7 7 5 O > 9 7 e r P U U U A N N B B r U U f.b.P N {.-X-X>X3X3X3X3X3X3X3X3X,X-X-X-X-X-X,X9XzXDXHXJXJXJXJXHXAXmXFXDXAXcX0X_.< k G D S 0 P R I U R R T } } ~ ..R ;XSX=X%.OX5X8X8XeXsXaX7X7X8XsXaX,XoXOXOXOXL.fXZXZXZXZXfX-X>XAXAXAX$.} :X:XJ.l.` ` ` b.B.B.v.R                             ",
"                                                                                      B S = & & & $ # # # X # % # # % # # A $...R Z N r r r r r r r e e e e e e 9 e e 7 : O 7 9 7 7 r P U Y U A N N A P B P U _ B.x.N P {.-X-X,X3X3X3X3X3X3X3X3X3X3X3X3X3X,X,X>X>X9XuXmXSXHXHXHXFXxXDXDXBXnXuX0XH.# 2 D D C S A } | T T } | ......R :XDX*X%.F.6X6X#XOX7X8X8X7X7X5X[.OX6XOXL.m.-XZXZXZXZXCX7X0X>XlXAXxX*.p :X:X(.o.` ` ` x.B.m.v.U                             ",
"                                                                                      C k $ & & & # & # # # # % # % # # r +...T A N N r N r r r r y e y y y y y e 9 7 : ; 7 7 7 9 N R Y ~ Y A A U U U Y B Y ~ b.S.` N } {.-X-X>X3X3X3X4X9X3X4X3X3X3X4X4X4X9X9X9X3X3X3X9XuXcXnXBXAXxXVXAXBXnXcXiX9XR # & C D G h d A | +.+.| ......R 1XAX_.H.eX7X7X8XOX,XeXeX,X'.OX6X6X8X7X7X}.vXCXZXZXCXbXeXbX3X:XzX<X-.q *X:X_.l.` ` ` x.f.f.x.B                             ",
"                                                                                      W 2 & & * $ % & # # # # & & & # 0 $.+.R P N N N Z N N N r r r r r r r y e 7 7 : : 7 7 7 9 P ( ) ) ~ U U Y Y Y ) W Y ! ` S.S.` N ..{.-X-X-X3X3X4X4X3X4X9X9X9X9X9X9X9X9X9X0X0XwX0X0X0XtX0XtXkXkXnXmXnXnXcXkXyX_.% % & S C G >.f % p | $.%.+...T <XDX`.0XsXaXgX7X7X6X5X5XeX8X8X8X8X8X8X5X4XfXaXbXCXCXaXOXdX5XK.1X:X-.8 *X:XJ.l.` _ e.e.f.f.o.1                             ",
"                                                                                    C ^ * & & & # 2 & = & # # & & & < +.+.U P P Z N N N N N N N r r r r r r y 9 7 : 6 7 6 6 y Y ) ` ` ~ ! Y Y ~ ( ( ` W ` ` n.Y.N.` A @.(.-X-X-X,X3X3X3X3X3X3X9X4X9X9X9X9X9X0XtXtXtXyXtXtXtX0X0XtXtXuXcXcXcXzXuXyX>X0 & & % S C H 6.d & & 9 A +.*.+.1XlX<XdXaXaXgXgXgX7X8X8X7X7X8X8X8X8X8XOXgXaXaX7XbXbX'.5XdXOX+.:X:XK.8 *X:XV.` ` _ ` e.e.x.~                               ",
"                                                                                    W Y & = & & % 2 & & & # # & & % } *.} A P P N N N N Z Z N N N N N N r r 9 : : 7 7 6 6 r ~ ` ` ) ) ~ ( ( ( ( ) ` ` ~ _ x.S.F.N.) R @.J.-X-X-X>X3X3X3X3X9X9X9X9X9X0X0X0X0X0XtXtXtXuXiXtXiXyXtXiXtXtXkXkXuXuXuXyX0XR # & # # S c <.>.$ $ $ # # & < +.=XaXsXsXaXgXgXaXgX7X8XeX8X7X8X6X8X5X5XsXfXfXaXbX4XOXgX7XF.@.:X:X-.8 ;X:X#.` ` _ ` ` e.c.B                               ",
"                                                                                    / C % & & # 0 2 & & % # # & & A *.| P A P U P P Z Z Z Z Z N Z N N N r 9 5 7 7 7 6 7 A X.x.b.x.X.) ` ) ) ) ` x.m.W ) o.N.S.S.m.Y } @.J.}.-X-X-X>X3X3X3X9X9X9X0X0X0X9X0X0X0XtXtXyXuXyXyXyXtXiXuXwX0XuXkXuXiXtXtXyX+.# # 2 S @.V.H.L.H.H.V.V.(._.{.3X7XsXaXaXaXgXaXaXaX7X8X8X5XeX7X8X7XOX7XfXfXfXsXdX[.6X7X8Xl.+.:X:X=.a :X*X) ` ` ~ ` ` x.)                                 ",
"                                                                                  S O.S # & & X A 2 & & & # # & 1 *. .P A A P P P P P A Z Z N A A A N r 7 5 7 7 7 5 7 U o.x.x.o.` ) X.X.X.` ` x.S.e._ #.m.F.Y.F.m.Y $.%.{.-X-X-X-X,X,X3X3X3X9X9X9X9X0X0X0X0X0XtXtXtXtXyXyXyXyXiXuX9X0XuXuXuXuXtXyXzX-.Y (.4XdXMXCXZXZXZXCXNXbXbXbXdXdXsXsX7X7X7X7X7X7X7X8X8X6X8X5X8X7X8XOXsXdXsXsXfX4X5X7X7XOX/ K.1X1X*.{ <X=.` ` ` Y ) o.#.R                                 ",
"                                                                                  Y O.k & & # > U & & & & # # % | *.R P P P U I U P A Z Z A U R P N y 7 7 w 7 6 5 r ~ x.b.b.#.o.x.o.X.o.o.o.x.N.S._ x.b.D.W.W.F.x.@.%.%.}.-X-X-X>X3X3X9X9X9X9X0X0X0X0X0X0X0X0X0XpXtXtXtXtXtXtXtXyX1XqXuXkXkXkXkXyXyX9XfXbXdXbXCXCXCXCXCXMXMXbXdXfXsXsXsXaX7X8X8X8X8X6X8X8X8X6X8X8XeX7XOXeXdXdXdXfX0XOX7X7XOXl.^ *X1X1X .=.:XX.X.) ( R ..#.X.                                  ",
"                                                                                  ) O.2 & = X 0 C & & # & % # 0 =.+.U I I I U U U I P P U T R P Z y 7 7 7 7 5 5 A X.v.v.v.x.o.` o.o.o.#.x.b.N.T.x.` c.D.Q.Q.W.Y.` @.%.%.J.}.}.-X-X-X>X3X9X3X9X9X9X0X0X0X0X0X0X0XpXtXtXtXtXtXtXtXtX>X0XuXkXkXkXkXyXBXdXdXdXdXNXZXCXCXCXCXCXNXdX7X6X6X8X7X7X8X8X8X6X8X6X7X8X8X8X8X7X7XeXOXsXdXdXdXfX-X6X6XL.^ | +.1X<X1X{ *X%.` ) ` T R ..#.                                    ",
"                                                                                B O.X.& = #   A U & & & & & # } &.~ R R R U U U R U U R ~ ~ P r e 7 7 9 7 : 9 ~ b.m.m.b.x.#.#.x.x.x.x.x.n.F.W.D._ c.n.Y.W.W.F.m.Y +.%.%.C.{.}.=X-X-X,X,X3X3X3X4X4X9X9X9X9X0X0X0X0XtXiXyXiXiXiXtXtX>XtXuXuXkXkXkXtXnXsXfXdXdXMXZXCXCXMXNXsX8XOXOXoXoXOX5X7X7X7X7X7X7X7XaXsX7X7X7X7XgX5X7XfXfXdXfX-XOX'.l.+.-.*.*X<X<X*X .*X~ ) ) ) U ..%.%.                                    ",
"                                                                                Y l.) & = X   U U & & = & & #  .@.} T T R R R R R R ~ ..T A r 9 e e 9 7 > A ` b.m.m.m.b.x.x.c.v.v.v.m.M.Y.Q.W.` o.n.Y.!.Q.W.F.m.@.%.%.C._.{.}.-X-X,X3X3X3X3X9X9X9X9X9X0X0X0X0X9X0XtXtXtXyXtXtXiX0X>XtXtXuXuXuXuXkXtXJ.C.}.,XeXeX4X5X}.Z.z.4.4.G k k k S _.0X0XpXaXfXsXdXsXaXaXaXsX7XeXdXbXfXsX>X~ ) @.=.K.-.=.<X<X<X*.=.| ) ) ` Y U =.H.                                      ",
"                                                                                ) l.^ & #     R A & & & & & # A @...| } } R T T T T ( R N r y 9 e 7 5 7 Y x.m.m.N.N.m.b.b.x.b.b.b.v.m.Y.W.W.N._ n.R.].].Q.W.Y.o.+.+.%.H._.{.}.-X-X>X3X3X9X3X3X9X9X9X9X9X0X0X0X0XtXtXtXtXyXyXyXuX>X>XyXyXkXkXkXkXcXAXA # # * 2 2 2 * $ $ f 7.8.>.$ * * $ A <XAXxX<X=X>X9X0X0X4X5X}.}.fXbXCXfX4X%.+.=.K.K.K.$.:XqXqX:X| } T ( ) ) P &.K.}                                       ",
"                                                                                O.O.^ % #     U A & & = & & & % } ....| T T ......( U N r r y y 8 5 N ` m.m.N.N.N.M.v.v.v.v.v.n.N.N.T.Q.Q.T._ l.D.].[.].'.Q.D...$.$.%.J.{.=X-X-X>X>X3X3X3X3X9X9X9X9X9X9X9X0X0X0XpXtXtXtXyXyXuXuX>XwXuXyXuXkXzXzXmXxXB $ & = = # # & % % $ 6.7.6.f * * & $ A <XFXDX1XK.H.%.%.%.%.@.}.gXaXfX4X=.=.-.-.-.K.*.;XrXqX<X .r Y ~ ) ) U +.K.}                                         ",
"                                                                              V o.o.! # #   < A C * & & & & & # % } +.@.........( P N r r r y 7 7 Y x.m.m.N.N.N.N.n.v.m.n.m.m.N.F.Y.Q.Q.Q.b.` Z.'.].!.Q.Q.E.b.+.$.+.+._.wX>X-X-X>X3X3X3X3X4X9X9X9X9X9X9X0X0X9X0X0XtXtXtXyXkXkXiX>XtXyXuXuXkXkXkXBXqX< $ # # # = = # # % % h 7.6.>.d d * * & x *XAXSXlX;XK.=.=.%.%.%.4XaX3X=.=.-.K.K.=.=.:XjXqXqX-.9 U T ~ ~ U +.-.{                                           ",
"                                                                              ^ l.o.Y X     0 C S 2 % % & & & & # % A +.&.....T P N r r r r 7 N o.n.N.N.N.S.S.N.N.M.N.Z.N.Z.D.F.T.Q.].].T.` Z.'.XXoXoX[.!.Y.#.%.%.+.+.;XcXkX0X9X9X9X9X9X9X9X0X0X0X0X0X0X0X0X0XpXpXtXtXyXyXkXkXtX1XkXuXyXuXkXkXkXDX*X# # # # # # = = # # & $ 6.6.<.f j j d * & < $.jXSXAXrX*X-.=.=.%.%.H.*.=.-.K.-.-.*X<XlXjXjX*Xr r P U P I *.*.p                                             ",
"                                                                              ` c.o.U @     0 A x 2 & % % & & * & # # < R ..T A N r r r y 9 Y m.M.N.S.D.S.S.S.N.N.N.D.D.F.F.F.F.W.].].].#.v.Q.XXXXXX[.'.W.N.%.C.%.$.%.>XcXcXkXuXtX0X0X0X0X0X0X0X0XtXtXtXpXtXtXtXtXiXuXkXuXkXkXwXwXkXuXyXkXkXcXcXAX*.= & = # # # # # = = = # h 6.<.h d l j * * & = N *XzXDXAXlX<X;X_.`.K.-.=.K.).*X<XzXxXzXqX-.e 7 7 8 p | *.}                                                 ",
"                                                                              O.l.O.A .     0 A 2 k = % & * & * * & & * # 9 P N r N r 9 y ` m.N.S.S.S.D.D.D.D.D.D.F.F.F.F.R.R.T.].[.[.Z.` F.[.XXoX].].W.F.c.C.%.%.$.H.wXcXcXcXkXkXuXyXtXtXtXtXtXtXtXtXtXtXtXiXtXtXiXuXkXkXlXkX>XtXkXkXuXuXkXcXcXxXR & & & # # # # # = % # & d 6.<.>.f z l j * * * & & A *XjXAXDXAXmXzXlXrXrXjXxXxXxXzXqX*X} y e e a I } I                                                     ",
"                                                                            0 O.O.O.S       9 U * x & & & = & * d d * # # 9 r r r r 9 V x.N.B.S.S.S.F.F.F.F.F.F.F.F.F.F.R.T.Q.].[.oXT._ n.'.XXXXoX[.].Q.N.@.%.%.%.+.H.tXcXcXcXzXzXkXuXiXtXtXtXiXiXtXiXiXtXtXtXtXiXuXuXuXyXyXwX;XyXiXkXuXuXkXcXcX<Xk 2 * & & % # # # % & # # $ >.<.g f d z j d * * * & = = B %.:XjXnXVXVXVXVXmXxXjX1X*X*.9 + + + 5 8 7                                                         ",
"                                                                            B o.o.o.B       9 ~ 2 k & % & & * * * * # % r N r r 0 0 _ m.N.S.S.S.F.Y.Y.Y.Y.F.Y.W.Y.T.T.T.T.'.'.[.[.'.o.x.'.+X+XXX].!.Q.W.#.%.%.%.+.+._.kXzXzXkXkXkXkXkXuXuXuXiXuXiXiXuXiXiXiXtXiXuXuXtX0XwXwX=X>XyXyXyXkXkXkXkXcXK.* 2 * & & & & # # # % # & # O.4.g h = j z j d * * * * & = $ & x R +.-.).=.%.*.                                                                              ",
"                                                                            B c.o.o.B         R 2 < 2 & & & & * & # 9 N N N r 9 N o.N.D.S.F.F.F.F.Y.Y.Y.W.W.W.W.W.W.W.T.T.'.[.oX[.Z.o.Q.+X+X@XXXoX[.'.D.%.K.H.C.%.%.>XzXcXcXzXkXzXkXkXzXzXuXuXuXuXuXuXuXuXuXuXuXtX4X3X3X9X9X_.qXtXtXtXuXkXkXkX>XA * * * & & & # % # # # % & # +.z.h h $ & l v l j d * * * & & = = $ $ # X # $ #                                                                               ",
"                                                                            B c.c.c.U         T A & 2 & & & & # % r Z N N r y Y v.S.D.F.F.F.Y.Y.Y.W.W.W.W.W.W.W.W.W.Q.Q.'.[.oX[.R.X.Z.XX@X@X+XXXoX[.'.c.H.H.H.C.%.H.9XzXzXzXzXkXkXkXcXkXkXkXkXuXuXuXuXuXkXkXtX3X,X,X3X4X9X_._.tXqXqXqX9XtXuX9XH.* * * * * * & # # # # # # & = H.l.h h f # * l v l j j * * * & & $ = = & # .   = &                                                                             ",
"                                                                            B #.c.O.C         R ~ & 2 * & & # > N N N N y B o.N.D.Y.Y.Y.Y.Y.Y.W.W.Q.Q.Q.Q.W.W.T.W.W.Q.].[.oX[.'.o.A.XX@X@X+XXXXX].'.Z.V.J.H.C.C.%.J.0XkXkXkXkXzXzXcXcXkXkXuXuXkXkXkXkXkXtX>X=X-X,X3X3X3X3X%.>X0XwXwXwX3X>X3X,XA & & & * & & & & # = = = # # % J.v f h f # & & l v l j d * * * & $ $ $ & & #     # * $                                                                         ",
"                                                                            B O.o.O.)         N ..x & 2 & # 9 N N N N N Y b.D.F.F.Y.W.W.W.W.W.W.Q.Q.Q.Q.W.W.W.Q.!.Q.].[.oX[.'.v.#.[.@X@X@XXXoXoX].Q.#.H.H.V.V.C.%.=XyXzXzXkXkXkXkXkXiXiXuXkXkXcXcXcXtX;X{.-X3X,X3X3X-X9X0XH.0X0X9X9X9X9X3X3XK.& & & * & & & & & = & % & & = x L.f f f f = % & * z M z j d * * * & & & & & & #     # * $                                                                       ",
"                                                                            0 O.c.c.O.2       0 @.! * & % r A A N N N ` m.S.F.Y.Y.W.W.Q.Q.Q.W.Q.Q.Q.!.!.Q.Q.Q.W.Q.'.[.XXXX[.Z.#.[.@X@X@X@X@X+XXX].n.V.H.C.V.H.H.H.3XuXlXyXtX0XtXyXyXuXuXkXcXcXkXwX=X{.-X3X3X,X,X,X,XtXkXkX_.1XyXwX>X3X3X>X,XA & & & & & & & & * * * * 2 & = G r.f f h h d & & & * v M l j j d k * * & & & & & #       $ $ #                                                                   ",
"                                                                            1 O.V.c.O.B         ..O.2 , A A N A N Y l.m.S.D.Y.W.W.Q.Q.Q.Q.W.W.W.Q.Q.!.!.Q.Q.Q.Q.Q.].[.[.[.Z.o.T.@X@X@X@X@XXX[.].Y.c.J.J.H.H.H.H._.3X0X0X0XqXtXyXkXkXzXcXcXkX>X{.{.>X9X9X3X3X3X,X9XuXkXzXcX>X;XuXyX9X-X3X>XC.* & & & * & & & & * * * & & & = 4.c f f z z l & & & & d v v l j j j k 2 & & & & * * %       $ d $                                                                 ",
"                                                                            < ..#.c.c.Y         N N N R U A N V ` m.N.S.S.F.Y.W.W.Q.Q.Q.Q.Q.Q.Q.Q.Q.W.Q.Q.Q.Q.Q.'.[.XX[.R.#.Z.@X@X@X@X+XXX[.].'.b.H._.J.H.H.H.H.{.3XwXwX0XyXkXcXcXcXzXqX>X*X=X9X0X0X3X3X>X>X3XuXvXkXkXcXzXtX=XyXyX0X3X>X=XA * * * & & & & & * * * * * & & d 4.f f f f z z & * & & * j v M z j j j j * & & * 2 * k &       # d *                                                               ",
"                                                                            % ..c.c.c.o.0       % A T U U P ! x.m.B.B.S.D.F.W.W.W.!.Q.Q.Q.Q.!.Q.Q.W.W.W.Q.Q.Q.].].[.[.R.c.M.@X@X+X+X@X+XXXoX[.D.V._._.J.H.H.H.J.-XwX0XyXkXcXnXcXkXwX=X_.,XtXuXuXtX9X9X>X3XtXcXvXvXvXvXvXcXzX;XwXiX0X0X3X=XY 2 & * & & & & * * & & * * * % h g f f f z c c & & & & * * j v M l j j j j d * * * d * * =         * d #                                                           ",
"                                                                              Y V.V.c.l.Y     > U T R U Y ` b.m.B.S.S.D.F.Y.T.W.Q.Q.Q.Q.Q.Q.!.Q.W.W.W.W.Q.Q.Q.'.[.[.R.v.c.[.XXoXoX+X+XXX[.'.W.o.J.J.J.H.C.C.H._.>XwXyXcXcXzX0X1X=X{.>XtXuXkXkXtX9X3X-X9XkXnXcXnXnXcXvXcXvXcXwX>XiXtX0XwX>X@.V & & * * * & & & & * * * * = >.h f f f z c z # & & & * * * j v v l j j j j j * d d d * * =         $ d $                                                         ",
"                                                                              N c.c.c.c.c.0 0 T Y U U ( x.b.m.N.S.D.F.F.F.Y.Q.Q.!.!.Q.Q.Q.Q.!.Q.W.Q.Q.W.Q.Q.'.'.[.R.C.c.[.@X@XXXXXXXXXXX[.].n.C.{.J.J.J.H.J.J.{.9XiXcXzXqX>X,X-X>XtXkXkXkXzXyXwX9X;XqXcXnXnXnXnXnXcXcXvXnXcXkX=XwX0XwXwXwX=.V 2 & & & & & = & & & & * * f >.f f h h h v z # # & & & & & * j M M l j j j j j j k j j d j &         $ f *                                                       ",
"                                                                              > O.V.V.c.! N ..Y Y Y ) x.n.m.N.D.F.D.F.D.F.W.W.Q.!.Q.Q.Q.Q.W.Q.W.Q.Q.Q.Q.Q.Q.'.'.Z.A.c.'.@X@X@XXXXXXXXX[.].R.#._.{._.J.J.J.J.J.-XyXzXtX>X>X>X>XwXkXkXkXkXkXyXqX3X>XkXnXnXnXnXnXnXnXnXnXnXnXnXcX>XwX0X0XwXwX*XA V & * & & * & & & & & * $ g h f h h h h H h # # # & & & & & * l n M l j k k k j j j j j j k &           d d                                                     ",
"                                                                                U V.c.Y P ..T Y Y ) x.b.N.N.D.D.F.D.D.F.T.W.Q.Q.Q.Q.W.Q.Q.W.W.W.W.W.W.W.T.W.T.Z.C.c.R.@X@X@X@XXXoXoX[.].W.c.J.{.{._.J.J.J.J.{.3X0X3X,X-X-X>XyXkXkXkXkXkXyX0X>X>XzXnXcXcXnXnXvXcXcXnXcXcXcXcXnXrX>X0XwX9X9X>XZ Y * * & & * * * * * * * d >.f f h h h h H f # & # # & & & * * d l M v j j k j k k j j j j j j *           d d #                                                 ",
"                                                                                  ~ R R ..( T ) o.x.n.M.N.N.N.D.D.D.F.Y.W.Q.Q.Q.Q.Q.Q.Q.Q.Q.W.T.T.T.Y.T.W.T.Z.A.c.R.@X@X@X@X+XoX[.[.].'.M.C.{.{.{._._._.J.J.{.-X>X>X-X-XwXkXkXkXkXkXkXiX0X>XwXcXcXcXcXcXcXcXcXcXvXvXcXcXcXcXcXzX1X0XwX9X4X3XR A B $ & & & * * * * * & h >.f f h h h H g f % & & # # & * * * d j l M v l j j k j k j j j j j z *           d f $                                               ",
"                                                                                  9 } ..~ ~ ) x.b.n.n.Z.N.N.N.D.F.R.Y.W.!.Q.Q.Q.W.W.W.Q.Q.Q.W.T.T.T.T.T.R.Z.A.V.Z.@X@X@X@X@X+XoXXX[.'.Y.#.=X=X{.{.{._._.J.{.}.-X-X-X>XuXcXzXzXzXzXkXyXqX>XqXcXcXcXcXcXcXvXvXcXcXcXcXcXcXvXvXvXnXqXqXwX9X9X9X+.9 T & * * * * & & & & $ >.h h f h h h h g d & & & & # # * * * * d j z n v j j j l j j j j j k l z *             f $                                             ",
"                                                                                r ....( ( X.x.b.m.n.N.Z.N.N.D.D.F.Y.W.W.Q.Q.Q.W.W.W.Q.W.W.W.T.T.T.Y.T.R.Z.V.c.Z.XX@X@XXX+X+XXXoX[.].T.o.J.=X=X{.{.{.{._.J.{.}.-X-X9XcXcXcXcXzXzXkXuXwX>XtXcXcXcXcXcXcXcXcXcXcXcXzXcXcXcXcXcXcXnXyX9X9X9X4X9XK.: T 0 $ * * & & & & = h >.h h h h h g g g = & & & & & # X * * * * j j z b z l z l j j k k k j j z v *             l d                                           ",
"                                                                              Z ....( ( ) o.x.b.n.Z.Z.Z.N.Z.D.F.Y.W.Q.W.W.W.W.W.T.T.Q.W.W.T.T.R.F.F.Y.Z.c.c.Z.oXXX@X+XXXXXoX[.].].Q.x.%.=X{.{.{.{._._.J.J.{.-X-XwXcXcXcXcXcXcXzXkXwX1XyXkXkXzXzXcXzXzXzXzXzXzXkXkXcXcXcXcXcXvXzX1X-X3X3X9X9X*X5 r T & * * & & & & $ >.h h h h h g g g h $ & & & & & & # X * * * d k j v b z z z l z l j j j l l z b *             l d                                         ",
"                                                                            A +...( ~ ) o.x.b.n.M.Z.Z.N.N.D.F.F.Y.W.Q.Q.W.W.W.W.W.W.Q.Q.T.T.R.F.F.D.Z.v.c.M.[.@X@X@XXXXXXXoX].'.Q.N.@._.{.{.{.{.{.J.J.J.J.{.=XwXcXnXnXnXnXcXcXkXwXwXuXyXyXkXkXzXzXkXkXkXkXkXkXkXkXkXvXcXcXcXuXwX>X>X9X9X9X9X:X7 7 } 1 * * * * * $ h >.h h h h g g g g f $ * & & & & & & # X * 2 d j j j b b z z z z z z z l l j z b b               l j                                       ",
"                                                                          A $...~ ~ ) o.x.b.n.M.M.M.Z.N.N.D.D.T.W.W.W.W.T.T.T.W.T.T.W.T.T.Y.F.F.D.Z.c.c.A.].XX@X@XXXXXXX[.[.'.W.F...J.{.{.{.{.{.{.{.J.J.{.=X9XcXcXcXnXnXcXkXyXwXlXnXkXiXiXkXkXkXkXuXuXkXkXkXkXkXkXkXvXcXzXyXwX9X>X>X9X9X9X9X:X6 5 P U & * * * * $ 6.g h h h h g g g g f j j d * & & & & & # X 2 k 2 k j l b v z z z z z z l z z l z m n               j l                                     ",
"                                                                        r +...~ ( X.#.x.x.v.n.n.n.M.M.M.N.D.T.W.Q.W.W.W.T.T.T.Y.Y.Y.T.R.R.F.D.D.M.c.#.v.'.oXoXXXXX[.[.].].'.W.Y.` %.{.{.{.{.{.{.{.{._.{.{.3XkXcXcXcXcXkXlXqXqXnXDXAXmXkXiXyXiXuXuXuXuXuXkXkXkXkXkXcXzXuXyXqX9X9X>X>XwX9X9X9X*X5 5 9 @.< * * * * g <.h h h h h g g >.g d j l j * & & & & & * # # k k j j j l b v z z z z z z z z z z b ,.n               d l                                   ",
"                                                                      y +.@.( ) X.o.x.c.v.v.n.n.v.n.Z.D.F.T.W.W.W.W.W.T.Y.T.T.T.T.Y.Y.F.D.D.Z.n.#.#.v.'.oX[.[.oX[.[.[.].'.W.Y.m..._._.{._.{._.J.{.{._.{.=X0XzXcXzXuX0XwXwXlXDXSXSXSXSXmXuXtXtXtXtXyXuXuXkXkXkXkXkXuXiXtXqXwX9X9X>X>XwXwXwXqX*X5 6 5 R Z & * j f 6.g h h h h h g >.>.g * j j j j d * * $ $ * * # # k j j j j v b v v z z z z z z z z z b 0.b               d l                                 ",
"                                                                    9 $.&.) ) X.X.x.x.v.v.v.n.n.n.n.Z.F.T.W.W.Q.W.W.W.T.T.T.T.Y.Y.F.F.F.D.D.v.o.#.v.'.oXoX[.[.[.].].].'.W.T.N.~ J.{.{.{.{.{.{.{.{.{.{.{.>XuXkXyX0X0X9XwXxXFXFXFXFXFXFXSXnXuXtXtXyXuXkXkXkXkXkXuXiXiXtX0XwX9X9X9X,X>XwXwXwXlX*X6 5 : r | % k d >.<.h h h g g g g g <.h * k k l l d * * * * * k * X % k j j j j v v z z z z z z z z z z b m 0.b               d l d                             ",
"                                                                    +.%.X.) ) o.#.x.b.v.v.v.v.M.n.Z.F.Y.W.W.Q.Q.W.W.W.W.T.T.T.F.F.D.D.D.Z.v.o.#.v.Q.oXoX[.[.[.[.].[.].W.Y.F.~ C.{.{.{._.{.{.{.{.{.{.{.-XwXyXwX3X3X3XqXDXHXHXKXFXFXFXFXSXAXmXuXtXuXuXuXuXuXuXyXtXtXtXtX0X9X9X9XwX>X3X0XqXwXmX-.> > > 7 } 0 * h 6.g h h h g g g g g <.h k k k z z z l d * * * 2 2 & X & j j j j j b b v c c c v z z z z b b 0.0.z               f l k                           ",
"                                                                  } %.#.X.X.o.#.x.x.v.v.v.v.v.v.n.D.Y.W.Q.Q.!.W.W.T.W.T.Y.F.F.D.D.D.Z.Z.b.#.#.v.R.[.oXoX[.[.[.].].'.W.Y.Y.` @._._.{.{.{.{.{._.{.{.{.{.=X>X3X9X>X>XzXHXJXHXHXHXFXFXFXSXDXAXBXmXkXtXuXuXuXiXtX0X0X0X0X0XwX9X9XwXwX>XwX0X0XqXAX*.9 7 7 7 P | * 6.<.h h g h g g g g >.>.d k k k j z z z j * * * * 2 2 & X * k k k j z n v v v v b b v z z z v n 0.0.                f l C                         ",
"                                                                Z %.X.X.X.X.o.#.x.x.b.v.v.v.v.v.D.Y.W.W.W.W.W.W.T.T.Y.Y.F.D.D.D.D.D.M.c.#.#.v.R.[.oXoXoX[.].].].Q.W.T.Y.m.T J.J.(.{.{.{.{.{.{._.J.{.}.}.>X3X>XwXDXJXJXHXHXFXFXFXSXSXSXSXDXAXBXBXzXiXuXtXtX0X0X0X0X0X0XwX9X9X9XqX:XqXqX0XyXAX .r 9 7 7 r @.>.7.>.g g g g g g g >.<.>.* k k k j k z z z j d * * j k j % X 2 k k l j b b z v b b b b z z z v b F r.F                 l z ^                       ",
"                                                              9 $.&.X.) X.X.o.#.x.x.c.v.v.v.v.N.Y.W.W.W.W.Q.W.W.T.R.F.D.D.D.F.D.D.Z.c.#.#.v.R.oXXXXXoX].].].].'.Q.Y.F.S.S @.(.J.J.J.{.{.{.{._.J.J.J.{.=X-X-XlXHXJXHXKXSXDXDXDXDXSXSXSXDXDXAXAXBXBXzXtXtX0X0X0X0X0X9X9X9X9X9X9XwX=X0X0XqXzXxX{ r r 9 7 e c 7.<.g g g g g g g >.<.6.h 2 k k k k k z C z z j d d * k k k # # k j z z l n v v b b v b z z v v b b 0.r.v                 f C                       ",
"                                                              | %.X.X.X.X.#.#.c.c.x.c.c.c.b.M.F.Y.W.W.W.W.Q.W.T.Y.F.D.F.D.D.D.Z.n.c.c.c.v.R.oXoXoXoX[.].].].'.Q.Y.F.S.^ % B J.J.J.J.J._._.{.J.J.J.J.{.{.>XmXHXHXFXDXVXmXBXVXAXDXSXSXSXSXSXSXSXSXDXAXvXtXtXtX0X0X0X9X9X9X9X9X0X9X*XtXtX0XmX<XA N N r e 2 6.6.g g g g g g g >.<.<.6.d k k k k k k z z C z l * j * * j k 2 X % k z z z z n v b b b b b v v v b b F r.0.                  d W                     ",
"                                                            I %...) X.X.#.#.#.#.c.x.x.x.x.v.F.R.W.Q.W.W.Q.Q.T.R.F.F.D.D.F.D.N.v.c.c.c.v.R.[.oXoXoXoX[.[.].'.Q.T.F.F.e.> 6 : C.J.H.J.J.J.(.J.J.J.J.J._.wXAXSXAXBXvXzXcXnXmXBXAXSXSXSXFXFXFXHXHXHXHXKXSXvXtXtX0X0X0X0X9XwX9XwX0X9X{.yXtXtXDX*XN Z N r 9 g 7.<.g g g g g g g >.<.<.>.* k k k k k k z z C v z j * * * j k k 2   & z z z j b b b b b b b b b v v b b 0.r.Q                   j `                   ",
"                                                          9 $.#.X.X.X.o.#.#.#.#.#.#.x.#.v.F.T.T.W.Q.W.W.Q.T.R.F.D.D.D.D.D.N.v.b.c.c.A.R.[.[.oXXXoXoX[.].'.Q.Q.T.Y.N.y 5 7 O @.J.J.J.J.H.H.H.H.H.H._.qXnXcXkXyXiXuXzXcXnXBXAXSXSXFXFXHXHXHXJXJXJXJXHXSXmXkXtX0X9X9X0X0X0XwX0XyX3X{.iXyXyXFX-.N Z N r h 7.6.>.g g g g g g >.<.<.6.f 2 k k k k k k k z c D v z j * d j k k k &   2 z z l l m b b b b b b b b b b b F r.r.c                   D o.                ",
"                                                           .%.X.X.X.X.o.o.o.o.#.x.x.x.v.D.R.T.W.W.Q.Q.R.R.R.F.D.D.D.D.D.Z.v.v.v.v.n.T.[.[.oXoXoX[.].!.Q.Q.W.T.F.S.V : 6 7 5 r H.J.H.%.%.%.%.C.H.{.3XqX9X3X9X0XtXyXkXnXVXDXSXSXFXHXHXJXJXJXJXJXJXFXAXmXvXzXuXtX0X0XtXkXkXkXkXyX>X_.tXtXkXHX*XZ Z Z z 6.7.<.g g g g g g g >.<.<.>.* k k k k k k x k c c c D c z d d j k k x k #   k z z j z m b b b b b b b b b b b 0.r.0.                  $ /                 ",
"                                                        I %.X.X.o.o.X.o.#.o.#.#.x.c.b.Z.R.R.T.W.W.W.T.R.F.R.F.D.D.D.D.Z.b.c.v.v.Z.T.[.oXoXoX[.].].'.Q.Q.W.T.D.S.^ : 6 6 6 6 : @.%.@.@.@.+.C.J.{.=X-X-X>X3X9X9X0XyXnXVXDXSXSXHXHXHXJXJXJXJXJXFXAXmXnXcXcXkXkXuXtXyXkXkXzXcXzXkX>XJ.tXtXcXJX:XZ P x 6.7.6.>.g g g g >.>.>.<.<.6.h 2 k k k k k k x x c c z c D v z d j k k k c k     c z z j n b b b b b b b b v b b F r.r.F                   S l.              ",
"                                                      9 *.%.) ) X.X.X.X.o.o.#.#.#.b.Z.Y.T.T.T.T.Y.F.F.R.F.R.R.F.R.D.n.b.c.v.v.Z.T.].[.[.[.[.].[.].Q.W.Y.Y.Y.F.` > 6 6 6 6 6 ; Z +.@.@.+.H.(.{.{.{.-X>X3X3X4X0XzXmXAXDXSXFXHXHXHXJXJXJXJXHXDXBXnXnXcXcXcXcXcXnXBXcXcXcXcXcXcXcXwX_.yXkXmXJXqXP B >.7.8.<.g g g g g >.>.<.<.<.6.f k k k k k k k x x c x z c C D v l * j k c c c *   2 c z j l m b b b b b b b v b b b 0.r.r.c                   ` o.            ",
"                                                      } &...) ) X.X.X.#.o.o.#.#.x.N.Y.T.T.T.Y.F.F.D.D.R.R.F.F.F.Z.v.c.v.v.v.Z.Q.[.[.[.oXoXoX].].'.Q.Q.Y.F.F.b.1 5 6 5 5 6 6 6 7 +.%.H._.{.{.{.{.=X-X>X3X9XtXvXBXAXSXSXFXHXJXJXJXJXJXHXSXAXBXmXnXnXnXcXnXmXDXHXHXSXmXnXnXnXnXnXlX=XyXkXVXHXlXA g 7.7.6.<.g g g g g >.>.<.<.6.>.2 k k k k k k k k x x c c c c D D v j * j k k c k #   k c c k b F b b F b b b b b b b F r.r./                   C b.            ",
"                                                    a *.+.) X.X.X.X.X.X.X.#.#.x.N.R.T.T.T.R.D.D.D.F.D.D.D.D.D.Z.v.v.v.M.n.Z.Q.[.oX[.[.oXoX[.].].].Q.T.F.S.m.B ; 5 6 5 5 6 6 6 : @.(.{.{._.J.J.{.=X-X>X9XkXmXAXDXSXFXHXJXJXJXJXJXHXFXSXAXVXmXmXnXnXnXmXAXHXJXJXJXJXAXmXnXnXnXnXzX=XtXlXVXFXlX3.7.7.7.<.>.<.>.g g g >.>.<.<.6.f k k k k x k S x x x x c c c z C D b z d j k k k c 2     S C z k F n m F F F b b b b b m e.r.e.C                   e.x.          ",
"                                                    +.=...X.X.) X.X.X.X.#.#.x.Z.F.Y.Y.T.T.R.D.D.D.D.D.D.D.D.Z.v.v.n.n.M.Z.Q.].[.[.].].[.[.].].'.Q.T.Y.D.D.L : 5 5 6 6 5 5 6 6 5 P {.{._.J.J.J.{.-X>XwXcXAXSXSXFXHXJXJXJXJXJXJXHXSXDXAXBXVXBXBXmXBXAXFXJXJXJXJXJXJXHXBXmXnXnXcXcX;XtXkXmXVXL.7.7.7.6.<.g >.g g g g >.<.<.<.>.k x x x x x k k k x x S x c c c z C D v z * j k k c S %   1 C c j z Q F F F F n b b b b n 0.r.z./                   W m._         ",
"                                                  I =.+.T ( ) ) ) X.X.X.#.b.Z.Y.R.F.F.D.D.D.D.D.D.F.D.D.D.M.b.v.n.M.n.Z.Q.].[.oXoX[.[.oX[.].'.Q.T.T.F.S._ : 5 5 5 5 5 6 6 6 6 6 7 H.{.J.J.J.{.=X3XyXmXDXSXFXHXJXJXJXJXJXJXHXFXSXDXAXAXAXAXAXDXFXHXJXJXJXJXJXJXJXJXJXAXmXnXnXnXnX:XrXlXzXJ.6.7.7.7.6.>.g >.>.<.<.<.<.<.<.6.h x S S x x k k x x c S x z z c c c c D D z j d k z c S k     x C c j Q F F F F n b b b b b F r.e.e.C                   l.b.        ",
"                                                : +.$.T ~ ) X.X.X.X.X.#.b.Z.F.F.R.R.R.R.Z.D.D.D.D.D.Z.Z.v.v.n.M.n.M.Z.Q.!.].oXoXoXoXoX[.].].Q.Q.T.F.D.e.> 6 5 5 5 5 6 6 6 6 6 6 > @.{.{.{.{.=X3XkXmXDXFXHXJXJXJXJXJXJXHXFXSXDXAXDXDXDXSXFXHXJXJXJXJXJXJXJXJXJXJXJXHXSXmXnXnXcXnX:XqXkXJ.6.7.7.7.6.<.g g <.<.<.<.<.<.<.4.6.d C S S x k k k k x c c S S c c c c c C D D z d j k c c C 2     C C k z Q b F F F b b b b b m r.e.f./                   ^ n._       ",
"                                                I =.+.T ( ( ) ) X.X.#.v.N.D.F.D.F.D.D.Z.D.D.D.D.Z.D.M.b.v.v.n.n.n.D.Q.^.].[.[.[.oXoXoX].].Q.W.Y.D.S.x.1 5 5 5 5 : 5 5 6 5 6 6 6 : @.{.}.}.,X9XkXmXDXHXJXJXJXJXJXHXFXDXDXAXAXAXDXDXSXFXHXHXJXJXJXJXJXJXJXJXJXJXJXHXFXFXAXnXnXnXmX<XwXJ.6.7.7.7.8.6.<.<.<.<.<.<.<.<.<.4.5.g k C C S S S x x x c S S c S c c c c c c C D b z d j k x C C %   0 C c k W F b F F F b b b n n 0.e.z.z.C                   v.x.      ",
"                                              5 $.*.T T ( ( ( ) ) #.v.Z.D.D.D.N.Z.Z.D.Z.D.D.D.D.D.v.c.v.v.n.n.n.D.!.].[.[.].oXoX[.[.[.].Q.W.W.F.S.m.0 : 5 5 5 : : 5 5 5 6 6 7 6 : %.}.=X>XwXyXnXmXVXAXDXDXAXVXmXmXmXBXBXAXAXDXSXSXHXHXJXJXJXJXJXJXJXJXJXJXJXJXFXSXSXSXDXmXmXnXmXqXV.6.7.7.7.7.8.<.<.<.<.<.<.<.<.<.<.4.<.d C C C C C S S S x S C C C S c S S c C C C D F b l d z C C C k     B C c c / F F F F F F n b n F e.z.z./                   ` n.^     ",
"                                              Z =.+.R T T ~ ( ) #.v.Z.D.D.N.Z.N.Z.N.Z.Z.Z.D.D.Z.b.c.v.v.n.n.n.Y.!.].].].].!.[.oX[.[.].'.Q.T.F.S.S.B : 5 5 5 5 5 : : 5 5 5 5 6 5 : H.=X=X=X=X=X>X>X9X0X0XtXyXkXzXcXnXBXBXAXDXSXFXHXJXJXJXJXJXJXJXJXJXJXJXJXJXFXDXSXSXSXSXAXnXnXnX{.6.7.7.7.7.8.6.<.<.<.<.<.<.<.<.<.4.4.g B C C C C C C C S S S C C C S S S c c C C C D F F b j j c C C C 1     C C z W Q F F F F F b b n F r.z.z.l.x                 ^ M.o.    ",
"                                              $.-.T U Y Y ~ ( X.b.Z.Z.Z.N.N.Z.Z.Z.Z.Z.Z.Z.D.n.#.c.M.Z.n.n.M.T.].].!.!.].].].[.oX[.[.'.Q.W.Y.F.S.! + ; 5 6 6 5 5 5 5 5 5 5 6 6 6 9 (.{.(.{.}.}.-X,X3X3X9X0XyXzXvXnXmXBXAXDXSXFXHXJXJXJXJXJXJXJXJXJXJXJXJXJXFXSXDXSXDXDXDXDXmXnX=X5.7.7.7.7.8.8.<.<.<.<.<.<.<.<.4.4.4.<.G C.A W C C C C C C c c C C C C C C C C C C D C D W D z $ k S C C S     0 W C C e.F b F F n n n m m 0.l.l.b.D                   b.v.    ",
"                                            a *.+.P U Y Y ~ X.v.N.Z.Z.Z.Z.Z.Z.Z.N.N.N.N.N.c.#.v.n.n.n.n.M.T.!.!.Q.!.].].!.Q.].[.].!.W.W.F.F.S.` > 5 + 6 6 6 6 5 5 5 5 5 6 6 6 5 r {.{.}.}.=X-X-X,X3XwXtXiXkXcXnXmXBXBXAXDXSXHXJXJXJXJXJXJXJXJXJXJXJXJXJXSXSXSXDXSXSXDXDXSXAX=X5.8.7.7.7.8.8.6.<.<.<.<.<.<.<.<.<.4.4.h O.J...! W D C C C C C S S C C C C C C C C D D D C D F v j * c C C C 2     A D C / Q b F F F F F m m Q l.b.m./                   o.M.^   ",
"                                             .=.T P U U ~ o.v.M.N.Z.Z.Z.Z.Z.Z.N.Z.N.Z.M.#.#.v.M.M.M.v.Z.W.!.Q.Q.Q.!.!.!.!.!.'.'.'.Q.W.F.F.S.f.1 6 7 ; O 6 5 5 5 5 5 6 6 5 5 5 : A }.}.}.}.{.}.>X9X0XtXyXuXkXcXnXnXmXBXAXDXHXJXJXJXJXJXJXJXJXJXJXJXJXHXSXDXDXSXDXDXSXDXSXDX;Xd.8.7.8.8.7.8.8.<.<.<.<.<.<.<.4.4.4.4.4.k @.J.C.Y ) W D C C C C S C C C C C C C C C C D D D D Q F v j k C C C C       ! C D e.F D F F F F n n F e.b.b.l.k                 ^ n.o.  ",
"                                          q -.$.Z P U ~ o.v.n.n.M.M.M.Z.Z.N.Z.N.N.N.v.#.c.v.n.M.M.v.Z.Q.!.!.!.!.!.!.'.].].!.!.!.Q.Q.T.F.F.m.y 6 6 6 6 + O : 5 6 5 5 5 5 5 6 7 : @.}.{.{.}.-X3XwX0XtXtXiXuXuXkXzXcXnXBXDXKXJXJXJXJXJXJXJXJXJXJXJXJXHXSXSXSXDXSXDXSXSXDXDX>XG.9.7.7.8.8.8.8.6.<.<.<.<.4.4.4.4.4.4.4.z r ( H.J...) X.W C C C C C C C C C C C C D D D D D D D D Q F z k S C C W B     B ^ C / Q D F F F F F F F r.b.b.b.C                 C n.b.  ",
"                                          { *.R P U T o.v.n.n.n.M.M.N.N.M.M.M.Z.M.b.o.c.n.Z.Z.n.v.Z.Q.Q.!.!.!.!.!.'.].!.!.!.Q.Q.W.Y.F.F.S.B 6 7 6 6 6 : + : 5 5 5 5 5 6 6 7 7 % %.}.=X-X3X9XwX0X0XtXtXtXuXuXkXzXcXmXAXKXJXJXJXJXJXJXJXJXJXJXJXJXHXFXSXSXSXDXDXSXSXSXDX;XL.9.7.7.8.8.8.8.8.6.<.<.<.<.<.4.4.4.4.4.3.2 N R %.H.H.Y c.) W W C C C C C C C C C C C D D C D D D D W Q D j k C D W U       Y D W / F F F F F F F F r.b.b.n.^                   b.n.  ",
"                                        5 *.*.Z P T X.x.v.v.n.n.n.M.M.M.M.M.M.n.#.#.v.n.n.M.n.v.N.Q.!.Q.!.!.!.!.!.].].Q.W.W.W.W.T.F.F.D.L 5 7 7 6 6 5 5 5 + : 5 5 6 6 6 6 7 7 : H.-X3X9X9XwX0X0X0X0XtXuXuXuXkXzXnXAXHXJXJXJXJXJXJXJXJXJXJXJXJXHXFXSXSXSXSXDXSXSXSXDX;XL.9.7.8.8.8.8.8.8.6.<.<.<.<.4.4.4.4.4.4.4.l N N P ..H.(..._ c.` ^ W C D D C C C C C C C C D D D D D D D Q D C j c C C Y 0     0 ~ C O.F F F F F F F F 0.b.v.n.`                   l.n.^ ",
"                                        a -.| N R ) #.v.v.v.v.n.n.M.M.n.Z.n.c.#.#.v.n.n.M.v.v.D.!.!.!.!.!.].].'.Q.Q.Q.Q.Q.Q.Q.W.F.F.F.! 7 7 7 7 7 6 6 5 5 5 O 5 6 5 5 5 7 7 7 7 {.3X3X9XwXwXwX0XtXtXtXtXtXuXkXnXDXHXJXJXJXJXJXJXJXJXJXJXJXJXHXFXFXSXSXSXSXSXSXSXAX=XL.P.7.7.7.7.8.8.8.8.6.<.<.<.4.4.4.4.4.4.4.G x U A A ..C.H.H.N o.c.O.^ ^ W D C C C C C C C C D W D D D D D D W D C k C C C A       U ^ / / F F F F F F F F l.v.v.l.2                 ` M._ ",
"                                        { *.P R ..o.x.x.v.n.n.n.n.M.n.n.n.c.X.c.v.n.n.n.v.v.F.!.!.!.!.].].!.!.!.!.!.'.].Q.W.Y.Y.F.F.` 7 e 7 7 7 7 6 6 6 5 5 5 ; : 6 7 7 7 7 7 p ,X3X3X9X9XwX0X0X0XwX0XtXiXkXmXSXJXJXJXJXJXJXJXJXJXJXJXJXJXHXHXFXSXSXSXSXSXSXSXAX=XP.P.7.7.8.8.8.8.8.8.8.<.<.<.4.4.4.4.4.4.4.4.k A U A Z R %.J.(.R V c.#.O.^ ^ W D D D D C C C D D D ^ W W W D D Q Q D k S C C Y 9     9 ( ^ O.F F F F F F F F e.b.n.n.x                 ! M.) ",
"                                      5  . .U ( X.o.#.x.v.v.v.v.n.Z.n.v.c.#.c.v.M.n.v.c.v.R.!.!.!.!.Q.!.].'.].[.].!.Q.E.E.Y.T.Y.F.x.y w w 7 7 7 7 5 5 5 5 6 6 7 6 6 7 8 7 7 7 I >X3X9X9XwX9X9X9X9X0X0XtXkXBXHXJXJXJXJXJXJXJXJXJXJXJXJXHXHXHXHXKXFXSXSXSXSXFXAX{.P.P.7.7.8.8.8.8.8.8.8.6.<.<.<.4.4.4.4.4.4.4.G B U A A Z P +.H.(.C.9 ) c.o.` ^ ^ ^ W D D D D D D D D ^ / W W W D D / W D x C C ^ A       A ) ) Q F F F F F F F e.v.v.n.S                 L M.) ",
"                                      I  .P ~ ) o.o.x.x.x.v.v.v.M.Z.c.X.#.c.b.v.M.v.c.v.T.^.!.!.Q.Q.Q.!.'.].].].Q.E.E.Q.W.Y.F.F.m.N e e w 7 7 7 5 : : : 5 5 5 6 7 7 e 8 7 7 > | 9X9X3X>X>X>X3X9X9X0XtXcXDXHXJXJXJXJXJXJXJXJXJXJXJXJXHXHXHXHXHXKXFXFXSXSXFXDX{.P.P.8.7.7.8.8.8.8.8.8.8.6.<.<.4.4.4.4.4.4.4.4.k U U P P A A ..H.(.(.U 0 O.#.o.X.^ ^ ^ W D D D W W W W W ^ ^ W D D D W / D C S C C Y         ( _ O.F F F F F F F e.b.v.n.C                 C M.o.",
"                                    8 | I T ) X.o.#.x.x.v.v.v.v.b.#.X.#.c.v.v.v.c.c.M.Q.!.!.Q.!.!.!.].].'.'.!.!.!.Q.W.Y.S.S.S.N.B e r r e 7 7 7 6 5 5 5 : : 5 7 8 w 7 7 7 7 7 +.>X-X-X>X>X3X9X9X9XyXmXFXJXJXJXJXJXJXJXJXJXJXJXJXHXJXJXJXHXHXHXKXFXLXLXFXFX;XL.P.8.7.8.8.7.8.8.9.8.8.6.<.4.4.4.4.4.4.4.4.4.k A R R U P A N Y C.(.J.%.% Y #.#.#.O.^ ^ ^ ^ W D W W W W W W / ^ W D D D / W D C C C ! B       A X.O.Q F F F F F F e.v.n.n.Y                   n.o.",
"                                    { T T ) X.X.o.#.x.c.b.c.c.c.#.X.#.c.v.v.v.c.#.Z.Q.!.!.!.!.].].^.!.!.!.].].!.Q.E.S.S.S.D.S.Y y r e e 9 8 8 8 7 6 6 6 7 7 7 7 7 7 e y 9 R C.J.=X-X-X>X>X3X9XwXkXAXHXJXJXJXJXJXJXJXJXJXHXHXHXHXJXJXJXHXHXHXHXHXKXKXFXHXxXL.6X9.7.7.8.8.7.8.8.8.8.9.6.5.4.4.4.4.4.4.4.4.G 0 U U U P A N A U #.H.H.H.A   ) #.o.o.O.^ ^ ^ ^ W W W W W W W ^ / ^ W W D W / Q D S C ! Y         _ O./ D F F F F F e.b.Z.Z.^                   v.` ",
"                                  p } T ) X.X.X.o.o.#.#.#.#.#.#.#.#.c.c.v.v.#.#.Z.!.!.!.!.!.!.!.!.!.].].].'.W.E.E.E.F.Y.F.D.! y r r y e e 9 7 8 7 7 7 7 7 7 7 7 7 7 9 R _.=X_.=X-X-X,X>X>X3X9XkXAXHXJXJXJXJXJXJXJXJXJXHXHXJXJXJXJXJXJXJXJXJXJXHXHXHXKXHX>XOXP.7.7.8.8.8.8.8.8.8.9.6.6.5.4.4.4.4.4.4.4.4.2 P U U U U P P P P ( C.H.J...    X.c.c.c.O.) ^ ^ ^ W W W W W ^ ^ ^ / / W W W W W D C C D ( 0       A O.O.F F F F F F r.m.M.n.!                   v.) ",
"                                e } T ..X.X.X.X.X.X.o.#.#.X.X.X.#.c.c.c.V.#.#.Z.!.].].!.!.!.!.!.].].!.Q.E.Q.Q.Q.W.Y.F.F.S.^ y r r r r e e e 8 8 7 8 8 8 7 7 7 7 7 9 %.3X3X{.=X-X-X-X-X-X>X>X9X0XzXAXHXJXJXJXJXJXJXJXJXJXJXJXJXJXJXJXJXJXJXJXJXJXJXJXJXDXG.9.7.8.7.7.8.8.8.8.8.8.9.6.6.4.4.4.4.4.4.4.4.k N U R U R R P P P P Y %.H.H.C.9   V o.c.c.c.O._ ) ) ^ W W W W W ^ ^ ^ / ^ W W W Q Q D C W ) A         O.v./ F F Q 0.F r.m.v.n.^                   v.! ",
"                                R ~ ( X.) ) ) ) X.o.#.o.X.X.X.#.b.c.#.#.#.c.F.!.].].!.!.!.].].!.!.Q.Q.!.Q.Q.Q.W.W.F.D.D.` 0 r r e e e e 9 e q 8 8 7 7 7 7 7 7 5 Z _.9X0X9X>X-X-X-X-X-X>X>X>X3X0XkXcXVXSXHXJXJXJXJXJXJXJXJXJXJXJXJXJXJXJXJXJXJXJXJXJXJXlX5.7.7.8.8.8.8.8.8.8.9.9.6.6.4.4.4.4.4.4.4.4.G 0 P U U U U U U R U P P X.C.C.J.R %   Y o.c.c.#.O.) ) ` ^ ^ W W W W W W ` / ^ ^ W / / Q D W ^ ~         Y v.l.Q Q 0.0.F 0.m.b.v.^                   v.L ",
"                              A ( ( ( ) ) ) X.X.X.X.X.X.X.X.#.#.#.#.o.X.V.R.!.!.Q.!.!.!.!.Q.Q.Q.!.!.!.!.Q.Q.W.Y.F.D.D.l.y r r r r r r e e e q 8 8 7 7 7 7 7 5 } =X3X9XwXqXtX0X9X3X>X-X=X-X>XwXyXkXcXmXDXSXHXHXHXJXJXJXJXJXJXJXJXJXJXJXJXJXJXJXJXJXJXJX-X7.8.8.8.8.8.8.8.8.8.9.9.6.6.4.4.4.4.4.4.4.F < P P P U U U U U R R A N ( V.C.J.%.B     ~ c.#.#.o.O._ O.` / ^ W ^ ^ ^ ^ / ` / ^ ^ / / / W W ^ X.        0 l.n.e.Q Q 0.0.r.l.b.v.W                 V c.  ",
"                            9 T T ( ) X.X...) ) ..X.X.X...X.o.#.o.X.X.v.Q.!.Q.Q.!.!.!.Q.Q.Q.Q.'.!.!.!.Q.W.W.Y.F.F.D.b.r r r r r r r t e e e e 8 8 8 8 8 8 5 +.,X>X>X3XwXyXzXcXkXuXtX0XwXwX0XyXkXcXnXBXAXDXSXFXHXJXJXJXJXJXJXJXJXJXJXJXJXJXJXJXJXJXJXLXG.7.8.8.8.8.8.8.9.8.8.9.9.6.5.4.4.4.5.4.4.4.d N P P P U U U U R R R U P Y %.C.H.H.T R     ..#.o.o.o.O.O.O.` _ ^ ^ / / ^ / / O./ / / / / / ^ ^ O.A         ! n.e.F F 0.0.e.l.v.n.C                 Y o.  ",
"                            A ( ( X.X.X.) ( ) X...) ..X.X.X.o.X.X.X.M.Q.].!.Q.Q.Q.Q.!.!.Q.!.!.!.Q.Q.Q.E.Y.Y.T.F.D.m.N r a p p r r r t e e e e e e 8 9 8 5 +.>X3X>X>X>XwXkXnXnXVXVXnXcXcXcXnXnXnXmXmXBXAXDXSXSXFXKXHXHXHXJXJXJXJXJXJXJXJXJXJXJXJXJXJXkX5.7.8.8.8.8.8.8.8.8.9.9.5.5.5.5.4.5.5.4.4.z r Z P P P P P U U R R R R U R %.H.(.J.....A   B X.#.#.o.o.O.O.` O.) _ / / ^ / / ` ` / / / / / / ^ ) !         B l.l.Q F 0.Q e.l.v.n.C                 ! _   ",
"                          r ( ) ) X.) X.X.X...) ....X.X.X.X.X.X.X.Z.Q.!.!.!.Q.Q.Q.!.!.!.!.!.Q.Q.Q.Q.W.W.Y.W.Y.D.M.V r p p r r r r r t t e e e e e e e 7 +.>X>X3X>X>X>X3X0XnXVXAXDXFXFXAXmXnXmXBXBXVXAXDXSXSXSXSXSXFXFXHXHXHXHXJXJXJXJXJXJXJXJXJXJXJX-X7.8.8.8.8.8.8.8.8.9.9.9.5.5.5.5.5.5.5.5.G B R A A P P U U R R R R U R U U X.C.(.(.V.T %.B   B o.c.o.o.o.O.O.O.O.O.O./ / ` / / O./ / / e./ / / ^ ..          ^ l./ F 0.0.e.m.n.b.S                 _     ",
"                        , Y ( ( ) X.X...) X.X...X.X.X.X.X.X.X.#.Z.Q.!.!.!.!.Q.!.!.!.!.!.Q.Q.Q.Q.W.W.W.W.Y.Y.D.N.U y r r r r r r a r r t r e e r e e 7 } >X3X9XwXwX3X>X>X3XqXmXDXSXFXHXHXHXDXBXBXBXDXDXSXSXSXSXSXFXFXFXFXHXHXHXHXHXJXJXJXJXJXJXJXJXKXL.7.8.8.8.8.8.8.8.9.9.9.5.5.5.5.5.5.5.5.F B T Y P A P P U U U R U U U R U U ..H.(.J.J.T V.O.    A #.c.o.o.l.O.O.O.O.O.O./ / / / ` O./ / / / e./ / ~           S l./ Q Q 0.e.b.b.l.2               x )     ",
"                        N ) ) ) ) ) ) ) X.X.X.X.X.X.X.X.X.X.#.D.Q.Q.!.Q.Q.!.Q.!.!.!.Q.Q.W.Q.W.W.W.Q.W.W.Y.D.N.Y 9 r r r r a p a a r r r r e e e e e 9 =XwXwX0XtXtXqX9X3X3X3X0XAXFXHXHXJXJXJXHXHXFXSXSXSXSXSXSXSXSXFXFXFXHXHXHXHXHXJXJXJXJXJXJXJXJXmX5.7.8.8.8.8.8.8.9.9.9.9.5.5.5.5.5.5.5.4.k T ~ T R A A P P P U R U U U U U U ( V.J.J.(.+...C...    U #.c.c.c.c.o.O.O.O.O.O.` / / / O.O./ / / / ` / ! B         1 O.O.Q Q Q / b.v.l.&               V       ",
"                      < ( ) ( ) ) ..) X.X.X.X.X.X.X.X.X.X.x.D.W.Q.!.!.!.!.!.!.!.Q.Q.Q.Q.W.W.W.W.W.Q.T.Y.N.M.! 9 p p a r p a p a p r r r r r r r r 7 } wXqXtXyXyXyXkXkXwX9X3X9XtXDXHXHXJXJXJXJXJXJXHXHXFXSXSXSXSXFXFXFXFXHXHXHXHXJXJXJXJXJXJXJXJXJXqX6.8.8.8.8.8.8.8.8.9.9.5.5.5.5.5.5.5.4.@.A ( ~ ~ Y R P P P U R R R U U U R U Y %.J.(.(.H.R C.C.T     Y c.c.c.c.c.l.O.O.O.O.O.` / / O.l./ / Q / ` ` ) x         0 ! l.Q Q Q e.v.n.O.                        ",
"                      B ) ( ( ) X.X.X...) X.X.X.X...X.X.v.Y.Q.Q.Q.Q.!.!.!.!.!.Q.W.Q.Q.W.W.W.W.W.Y.Y.D.N.N.` 0 p p p p r r a p p a p r r r r r r a 9 | >X9XyXyXkXnXVXAXnXqX9X9X9XyXDXHXJXJXJXJXJXJXJXJXJXHXHXHXHXHXHXHXHXJXJXJXJXJXJXJXJXJXJXJXJXJX-X7.8.8.8.8.8.8.9.9.9.9.5.5.5.5.5.5.4.O.K.A ( ~ ~ T T U P U U U U U U U U R R T #.J.(.(.(.} %.C.C.U     ! c.c.c.c.c.o.O.O.O.O.O.O./ ` l.l./ / / ` ` O.C           C l./ Q / l.b.n.!                         ",
"                    , ~ ) ) ..X.X.X.X...X.X.X.X.X.X.o.n.Y.W.Q.Q.Q.Q.!.].!.!.!.!.Q.Q.Q.W.W.W.W.Y.F.D.N.N.x.y p Z p p p p p p p a p p p r r r a a a r r =X>X9XlXmXAXDXAXDXmXuXwX9XwXyXDXHXJXJXJXJXJXJXJXJXJXJXJXJXJXJXJXJXJXHXJXJXJXJXJXJXJXJXJXJXJXL.7.8.7.8.8.8.9.9.9.9.9.5.5.5.5.3.G +.*XK.U ~ ~ ~ Y Y Y P U U P U U U U U R R Y X.H.(.`._.&.V C.J.C.A     ..V.c.c.c.c.o.O.o.O.O.O.` ` O.l.O./ / / l.O.(           U O.e.Q / l.b.b.B                         ",
"                    V ) ) ) ) X.X.X.) ) ) ) X.X.X.#.M.Y.W.W.W.Q.Q.Q.!.].].].!.!.Q.Q.Q.W.W.W.Y.F.D.N.N.b.B p p p p p p p a r a p p p a r p p r r a a 7 +.-X-X3XmXSXDXSXSXSXAXkXwX9X9XlXDXHXHXJXJXJXJXJXJXJXJXJXJXJXJXHXHXHXHXHXHXHXHXHXJXJXJXJXJXKXL.7.8.8.8.8.8.8.8.9.9.5.5.4.F ^ %._.*X;XK.Y ~ ! Y Y Y ~ U P U U U U U U U R R R ..C.H.(.(.H.0 T C.J.C.A     O.C.c.c.c.c.l.c.o.O.O.O.O.O.l.l./ / / O.` O.A         Y _ l.Q / l.v.O.<                         ",
"                  > ( ) ) ) ) ) ) ) ) ) ..X.X.#.x.n.F.Y.W.Q.W.Q.Q.!.!.].].!.!.!.Q.Q.W.T.W.E.F.D.M.n.n.V r Z Z p p p p r p p p Z p p p a a a a a Z p > r _.-X-X>XnXFXFXFXHXHXAXkXqXwXtXnXSXHXHXJXJXHXJXJXJXJXJXJXJXHXHXFXFXFXFXFXFXFXKXHXHXHXJXJXHX-X5.6.6.6.6.6.6.4.4.3.O.c.J.=XK.=X*X=X>XK.Y ~ Y Y Y ~ ~ R A N P U U U U U U R R ( V.H.(.(.(.U   U V.J.C.U     #.V.#.#.#.c.c.o.o.o.O.O.O.O.l.l./ / ` O.O.(         ! ! l./ / l.v.^                           ",
"                  N X.) ) ) ( ) ) X.X.X.X.X.#.x.m.D.F.Y.W.W.Q.Q.!.'.].].].!.Q.Q.Q.W.W.T.Y.Y.D.n.m.n.Y r P Z Z p p r p p p r p Z p p p p p p p p Z 9 y | R {.=X=X;XxXHXHXJXJXHXAXkXyXuXzXBXSXFXHXHXHXHXJXJXJXHXHXHXFXSXSXFXFXFXFXFXFXKXKXHXHXHXJXJXVX(.V.o.O.O.c.C.J._.=X;X-X-X=XJ.=X;X>XwX$.! ! Y Y ~ ( ( Y A A P U U U U U R R R ( #.C.(.(.(.$.    B X.C.C.R     %.V.O.c.c.c.c.l.o.O.O.O.` l.l.` / e.l.O.O.B       Y ! O./ / b.c.S                           ",
"                % T ~ ~ ( ) ) ) X.X.X.X.X.#.x.n.D.F.Y.T.W.Q.Q.!.!.Q.Q.].].'.Q.Q.W.W.W.Y.F.D.N.n.M._ r A P P Z p p Z Z p r p p p a p p p p p a p p > | $.| } {.{._.=XnXJXJXJXJXHXBXcXcXcXmXBXDXSXSXSXFXFXFXFXFXSXSXSXSXSXFXFXFXFXFXFXFXFXKXHXHXHXJXuX{.J.H.C.J._.{.=X=X=X-X-X,X=X{.>X1X9X<XT ~ ~ Y Y ( ( ~ R U U U U U U U R U U R ( #.C.J.(.(.H.9       ( C.C.T   N c.V.O.c.c.c.c.l.l.O.l.O.O.l.l./ ` l.l.O.Y       U ( _ / ` c.O.                            ",
"                y ~ ~ ( ( ( ( ) X.X.X.X.X.x.M.D.F.Y.T.T.W.Q.Q.Q.Q.Q.!.].!.Q.Q.W.F.T.W.F.D.N.n.n.` y Z A P P P I Z Z Z p Z Z p p p r p a a p p p > U &.%.&.} | {._.J.*XmXJXJXJXJXSXmXmXmXmXmXBXAXDXSXSXSXSXSXSXSXSXSXSXSXFXFXFXFXFXFXFXFXFXHXHXHXHXtX}.J.J.J.J._.{.{.=X=X=X=X>X=X>X3X3XwX:XY ! ~ ~ ~ ~ ( Y U Y T U U U U U R R R T ( #.C.H.H.J.(.P         U V.C...  N V.C.O.c.c.c.l.l.l.l.o.O.O.l.O.` l.l.l.)       V O.^ e.l.c.V                             ",
"              % ~ X.X.) ` ) ) ) ) X.X.o.x.M.D.D.F.Y.T.T.T.W.Q.Q.Q.Q.Q.Q.!.Q.Q.W.Y.T.Y.D.M.n.n.o.y Z P P P P p p Z Z Z p r p Z Z Z p p p p p p 7 Z %.H.C.%.&.T } J.J.H.*XmXJXJXJXJXSXDXSXFXHXHXJXJXJXJXJXJXJXJXJXJXJXHXHXFXFXFXFXFXFXFXFXFXFXHXHXHXmX>X{.J.J.J.(._.{.*X=X=X>X9X>X3X3X3XyXK.Y ( ~ Y Y Y Y Y Y ( T R R R U P U U R T ( #.V.J.J.(._...          B X.H.%.N A H.H.O.c.c.c.l.l.l.l.O.O.l.l.` l.l.l.O.B     A o.W O.l.X.                              ",
"              0 ( ( ( ( ~ ~ ~ ( ) X.o.x.n.N.F.D.F.Y.T.T.T.W.Q.Q.Q.Q.Q.Q.'.Q.W.W.Y.Y.N.n.v.v.x.N Z I I I I I Z Z p p p Z Z Z Z Z Z Z p p p p 9 p %.J.(.H.%.&.&.| } %.H.H._.nXJXJXJXJXJXJXJXJXJXJXJXJXJXJXJXJXJXJXJXJXJXJXJXHXFXFXFXFXFXFXFXFXFXKXHXHXAXuX9X>X>X>X>X>X>X>X9XqXqX>X9X9X9XlX+.~ ~ ~ Y Y Y Y Y ( ( T R R Y U P U U R T T X.V.J.J.(.(.%.              | H.H.| T H.C.X.c.c.c.l.l.l.l.O.l.l.o.l.l.l.l.Y     S o.! O.l.A                               ",
"            X Y ( Y Y ~ ~ ( ) X.X.#.x.m.N.S.F.D.F.T.T.T.T.W.W.Q.Q.Q.Q.Q.Q.Q.Q.T.D.N.n.m.v.v.A p I P P I I Z Z Z A A P Z Z Z Z Z Z Z Z Z r 7 p | J.(.(.(.H.H.H.&.| P @.H.C._.nXJXJXJXJXJXJXJXJXJXJXJXJXJXJXJXHXHXFXFXHXJXJXJXHXFXFXFXFXFXFXFXFXFXHXHXHXJXJXFXBXkXtX0X0XtXuXkXwX9XwXwXtXqX~ ! ~ ~ ~ ( ( ( ) ( ~ ~ T R R U U R Y T T T ..%.C.H.H.(.H.9               U V.J.%...H.C.O.c.v.c.l.l.l.O.l.c.l.l.l.l.l.)     B #.~ X.X.                                ",
"            1 ( ! ~ ( ( ( ) X.X.#.x.m.m.B.S.D.D.F.F.Y.Y.T.W.Q.Q.Q.Q.Q.Q.Q.Q.T.D.N.Z.M.M.n.Y r I I I Z Z A Z I I P A Z Z Z Z Z Z Z Z p 5 5 O Z $.(.(.(.(.(.(.H.=.%.+.U } %.C.J.zXJXJXJXJXJXJXJXJXJXJXJXJXHXHXHXHXFXSXAXDXHXJXJXHXHXKXFXFXFXFXFXFXKXHXHXHXJXSXzXtXtXyXuXkXkXkX1XwXwXwXkX;X) ) ) ) ( ) ) ( ( ~ ~ ) ~ T R U R R Y Y T T ..#.C.J.(.`.K.Z                   O.J.C.O.J.C.X.l.c.c.l.l.l.O.l.c.l.l.l.l.l.B   V c.) Y                                   ",
"          . A ( ~ ( ) ) ` X.o.o.o.b.m.N.N.S.S.S.F.F.F.T.W.Q.Q.Q.Q.Q.Q.Q.Q.T.F.N.Z.M.n.n._ 0 I P I I I P P P I Z Z Z Z A Z Z Z Z Z Z % O a q y %.(._._._.(.(.J.H.J._.%.| T @.$.K.lXJXJXJXJXJXJXJXJXJXJXJXHXHXFXFXSXSXAXBXBXDXJXJXHXHXHXKXHXHXFXHXHXHXHXJXFXcXyXtXuXkXkXkXzXuX>XqXqXwXzX=.~ ( ) ( ) ( Y Y Y Y Y ~ T Y Y R Y R U Y T T ( #.V.J.(.(.(.R                     ~ V.V.%.(.C...c.v.l.l.l.l.l.c.l.O.l.l.l.Y   ! v.o.x                                   ",
"          % Y ~ ~ ( X.) ) ` o.x.b.m.m.m.B.N.D.D.F.F.Y.T.W.W.Q.Q.Q.Q.W.W.Q.R.D.Z.n.n.n.o.0 A I I I I I I I A A Z Z Z Z Z A Z Z A A 9 o 5 a a 5 %.(._._._._.(.(.(.(.3X4X=X&.~ R } %.wXFXJXJXJXJXJXJXJXJXJXJXJXJXHXFXSXDXAXBXmXVXKXJXJXHXHXHXHXHXHXHXHXHXSXzXtXyXuXkXkXkXzXcXqX;XyXqXtXrX..) ( ) ( ( ~ Y Y Y Y Y ~ ~ T T Y Y Y R T T T ( X.V.J.(.(.J.+.                        ..+.%.(.C.~ o.c.c.l.l.l.l.l.o.l.l.b.` % X.n.x.2                                   ",
"          1 Y Y ! ( ~ ! ) ` o.e.x.b.m.N.N.N.D.S.D.F.Y.F.T.W.W.Q.Q.Q.Q.Q.T.D.Z.n.v.v.x.B A R } I P Z Z I I I P I I I P A Z Z A P Z + + O 8 a 7 R _.{.{._._._._.(.(.>X9XpXtXK.: o % } =XqXrXqXrXrXyXtXyXzXmXAXSXHXJXJXJXHXFXAXnXnXAXHXJXJXHXHXHXHXHXHXAXuXtXyXuXuXkXkXzXcXnX>X>XiXtXzX:X_ ) ) ) ( ~ ~ ~ Y Y ~ ~ ( ( ~ ~ T T Y Y Y Y T T ..V.H.J.(.(.%.>                         A T V.J.c.! o.c.o.l.l.l.l.O.l.l.b.l.B c.c.o.0                                   ",
"        @ V ! Y ~ ( ) ! _ ` ` e.m.M.N.B.B.N.D.D.D.F.F.Y.T.T.T.'.'.Q.T.R.D.Z.n.b.x.b.U Z } } I P Z Z I I I P I I I I P P A A A r : + + + O a a 7 H.{.{.{.{._._.(._.-X4X3X9X*.; 4 o . 0 +.%.K.{.-X>X>X>X3X9X9XwXlXmXFXJXJXJXJXKXAXvXmXSXHXJXJXJXHXHXBXuXtXtXiXkXkXzXzXcXcXvX=XqXkXyXzXK.` ) ( ) ( ( ( ! ! ! ~ ~ ~ ( ~ ~ ~ T T Y Y T ~ T ..%.C.J.(.(.H.P N                           N C.J.#.~ #.#.l.l.l.c.l.l.l.b.b.O.c.c.o.2                                   ",
"        % ~ ! ) ) ) ) _ ` ` x.m.N.N.N.B.B.B.N.D.D.F.F.Y.T.W.T.T.T.T.R.D.Z.M.v.v.n.) r } } } } { I I I { { I I I I I P P I A 9 7 ; + + + + 5 a 8 R {.}.{.{.{.{._._.-X4X4X(.q u u 6 o o A +.%.K._.{.=X=X;X>X>X3X9X0XyXBXHXJXJXJXJXFXmXnXBXDXHXHXHXBXkXtXtXyXkXkXzXcXxXcXnXzX*XkXcXzXlXK.` ) ( ) ) ( ~ ~ Y ! ~ ( ( ) ( ( ~ T T T T T T ( X.#.V.J.K.(.(.R @.                            T H.J.O.~ c.c.c.l.c.c.l.l.l.c.c.c.c.X.2                                   ",
"        0 ) ) X.#.o._ ` o.b.b.m.M.N.B.B.B.N.D.D.F.Y.Y.Y.T.T.T.T.R.D.N.Z.Z.Z.M.v.o.r R } } } I { } } { { { I I I I I I I r 5 8 e 6 O O + + + 6 q 7 %.}.}.}.}.}.{.{.-X3X,XI u i i u + N T R =.;XqXyXyXyXyXqXwX9X>X3X0XyXnXFXJXJXJXJXKXmXnXmXBXBXBXcXuXiXuXuXkXzXcXcXcXnXmXyX=XnXnXnXmX:X_ ) ) ) ) ) ! ~ ~ ~ ~ ) ) ) ( ) ~ T T T T ~ ( ( ..#.C.J.K.(.(.} %.T                             ..J.C.X.) c.c.c.c.c.c.l.l.o.c.c.c.)                                     ",
"      @ Y X.X.#.#.o.) o.b.b.b.m.m.N.N.B.N.S.D.F.F.F.Y.T.T.Y.F.F.R.Z.Z.Z.Z.M.v.x.B } | | | | | | } { { I { } I I I I I y 7 q 6 6 q 5 + + o o + 8 8 7 H.}.}.}.}.}.}.-X3X%.q i i i q r +...U R K.yXnXnXmXmXnXmXnXzXyXwXwXqXkXAXJXJXJXJXHXmXnXnXnXnXzXkXkXkXkXkXcXnXnXnXmXBX1X;XmXnXmXFXxX..` ` ) ) ) ( ( ~ ! Y Y ~ ) ) ( ~ Y Y Y T ~ ( ....X.V.H.H.H.J.....#.                              %.J.J...X.c.c.c.c.c.l.c.c.( #.c.V                                     ",
"      % ( ) ) o.X.` ` o.x.b.b.m.m.N.N.S.S.D.F.F.F.F.Y.Y.Y.Y.Y.R.R.Z.Z.Z.M.n.v.~ P ..| | | | | | I I { } | | } } } P 7 6 6 % % O 6 8 + + o @ . + 8 5 0 (.}.}.}.}.}.-X{.r i t i i e +._.>X&.P P K.kXnXnXnXnXmXmXmXBXmXnXlXqXyXnXKXJXJXJXHXBXnXnXcXcXzXcXzXzXcXnXmXmXmXmXBX:X1XVXmXmXHXKXK.` ` ) ( ~ ~ ~ ~ ~ ~ ( ) _ _ ~ Y Y Y Y T ~ ( ( ( X.%.H.H.J.J.#.( C.Y                             A C.J.C.~ o.c.c.c.c.l.c.V.( A Y                                       ",
"      < ~ ! ) ) ` _ ` x.f.e.f.m.m.m.N.N.N.D.D.F.D.F.F.T.T.T.R.Z.Z.M.n.n.n.v.) N ....+.+. .| | | } } } } | } } I Z : 5 5 O O O O + 5 O o @ . . . O 6 ; r _.}.}.}.}.-X..q t t t 7 R H.3XpXrX_.R Z _.zXnXnXmXmXmXmXmXmXmXmXcXuXyXkXDXJXJXJXHXBXvXcXcXvXnXcXnXmXmXBXBXBXBXBX1XqXAXmXDXJXJX1X) ` ( ( ~ ~ ( ! ! ( ) ) _ ) ( Y ~ T T T T T ~ ( X.#.H.J.(.(.%.T C.#.                              T C.H.V.~ o.o.l.c.l.c.V...                                          ",
"    . B ( ! ) _ _ ` x.x.f.x.b.m.m.m.m.N.N.N.N.D.D.Y.R.R.R.D.Z.M.Z.n.n.n.v.x.N | +.+.+.+.+.+.+.+. .| } I Z r 9 O + O O O O + + + o + O + . . . . o O 6 5 A _.}.}.-X_.t t t i e Z H.,X4X9XpXiX>X%.R _.zXmXmXmXmXmXmXnXnXnXnXcXkXuXkXnXHXJXJXHXBXcXvXcXvXnXnXmXmXmXBXBXBXBX:XqXVXnXHXJXJXxX..) ( ( ~ ) ) ( ( ~ ) ) ) ) ) ( ( ~ ~ ~ T ( ( ) X.#.C.J.J.(.H.R C.H.T                               ..H.H.#.) c.c.c.l.c.V.X.                                          ",
"    @ U ( ) _ ` ` ` x.f.f.x.b.m.m.m.m.N.N.m.N.F.F.Y.F.R.R.Z.Z.M.M.n.n.v.v.Y R $.+.+.+.+.$.+.| } } P p a p I e + O O O O + + o o o o @ + o . . @ o o 6 a 8 P (.}.=X+.q t t t e %.-X9X0X9X0X9XtXtX;X@.=.yXmXmXmXmXmXnXnXmXmXmXnXzXyXyXzXFXJXJXHXBXcXcXvXvXnXnXnXmXmXmXBXBX:XyXnXDXJXJXFXxX+.) ) X.) ( ) ) ) ( ( ) ) ) ( ~ ~ ! Y ~ ~ ( ....X.#.C.H.H.H.H.U V.J.%.                              0 %.H.C.O.O.c.l.c.c.v.X.                                          ",
"    % ~ ) ) _ _ ` o.e.e.x.x.b.b.m.m.m.N.N.N.D.R.Y.F.Z.D.Z.Z.M.M.M.M.v.v.X.A $.$.+.+.+.+.|  .+.| I } | | { a + O + + + + + o o o o @ . . o o o o o o + 8 a w P (.{.I t t t e R }.4X4X4X9X4X0X0XpXtXtX_.=.:XzXBXmXmXmXmXnXnXmXnXmXcXkXuXrXSXJXJXHXAXnXcXnXnXmXmXmXBXmXmXmX:XlXnXFXDXmXzXlX%._ ` o.X._ ` ) ) ) ) ) ) ( ~ ~ T Y T ~ ( ( ( ..X.#.C.J.J.J.J.R V.J.C.A                               A C.H.C.X.o.c.c.c.V.X.                                          ",
"    1 ) ) ) ) _ ` o.o.l.b.b.b.m.m.m.m.B.B.N.D.R.D.N.N.N.M.Z.Z.M.M.A.v.x.N +.$.$.$.$.+.$.$.$.+.{ |  . .{ a O ; + + + + + o o o @ o o o o o o o o + + + O 6 t w P +.t t t t r H.3X4X4X4X4X9X0X0X9X0XpXkXrX`.H.>XvXmXnXmXnXmXBXmXnXnXzXkXtXwXDXJXJXHXAXnXnXnXmXmXBXmXmXmXkX>XyXkXyXyXyXyXrX+.! _ l.` _ ) X.) ) ) ) ) ( ( ~ ~ Y T ~ ( ( ....X.#.V.H.H.J.J.T %.C.J...                                ..H.H.V.X.l.c.c.V...                                          ",
"  . B ) ) ( ) ` ` o.x.x.b.m.m.m.m.m.m.N.B.B.N.D.D.Z.Z.Z.Z.M.v.v.v.v.x.P R %.$.$.$.$.$.$.+.}  . . . .| a + ; + + + + o o o . . o o o o o o + ; 5 O + O ; ; 5 7 w 6 t t p e T }.3X3X3X4X4X4X4X4X0X9XpXpXuXnX<X%.=.>XzXmXnXmXmXmXnXnXnXzXkXwXwXSXHXJXKXBXmXnXmXVXVXVXxXqX>X3X0X0XwX0XtXqXK.~ ) ) o.` _ ) ) ( ( ) ) ) ( ( ( ~ T T T ( ( ( ..X.#.V.H.H.J.(...%.C.J.V.0                               0 %.H.H.o.O.c.l.c.~                                           ",
"  . P ! ) ) ) ` ` ` x.x.b.x.f.b.m.m.N.N.N.N.N.N.N.M.n.v.v.A.v.A.M.v.X.Z $.%.%.%.$.%.$.| { +.$. . . .I O O + + + + o o @ @ @ o o o o o o + O ; 8 8 6 : ; : 5 ; O 7 t t t r V.3X3X3X3X3X3X3X4X4X4X9X0XpXpXpXuXkX;X&.%.;XqXzXcXcXzXzXkXzXkXyX>XuXSXHXHXDXmXmXmXmXnXqX-X=X>X9XwXwXwX1X*X+.~ ) ` o.o.o.X.X.` ) ( ( ~ ~ ( ) ( ( ~ ~ ( ) ( ....X.#.%.H.J.J.(.....J.C.H.R                                 R H.H.C.X.o.o.c.Y                                           ",
"  X Y _ ` ` ` o.` x.x.f.x.x.b.b.m.M.M.m.m.N.N.N.M.M.M.M.M.M.M.M.A.c.A +.%.%.%.%.$.| I  .&.$.$. . .I % : + + + + o @ . @ . @ o o o o + O 4 4 5 6 8 q q 7 5 6 7 O + e p e R }.3X3X3X3X3X3X4X4X4X4X9X0XpXpX0XpXiXvXlX=X%.+.%.*X>X9X9X3X9XwXwX>X3XvXDXSXAXBXVXBXzX>X=X=X-X>X>X>X=XK.$.U ( ( ( ) X.X.o.X.) ( ( ( ( ( ( ) ) ) ( ~ ~ ( ( ..( ..X.#.V.H.J.J.(.+.N C.C.J...                                  %.H.C.#.O.o.#.A                                           ",
"  % Y _ ) ` ` ` ` ` ` ` f.b.b.b.m.M.M.M.N.N.N.N.M.M.M.M.M.M.M.A.v.~ I %.%.%.$.| Z { $.*.$.$.$.$. .5 6 O + + o o o . . . . o o o + O 4 8 w 8 6 6 8 7 7 q w 7 7 6 @ + w + 9 {.3X3X3X3X3X4X4X4X4X4X9X9XpXpXpXpXpXpXuXnXlX`.7 O 7 } %.H._.=X;X=X=XqXcXmXBXBXBXrX*XH._.-X>X}.(.A.f.#.H.U ( ~ ( ) ) X.X.X.` ( ( ( ( ( ( ) ) ) ( ~ ~ ~ ( ( ( ..X.#.V.C.J.(.(.%.> #.C.C.V.0                                 A C.H.C.X.O.O.B                                           ",
"  < ~ _ ` ` ` ` _ ` f.x.b.b.b.b.n.M.M.M.M.M.M.M.A.M.A.A.M.Z.M.v.#.N %.%.$.} Z { $.*.*.=.=.=.*.$.7 6 : + + o o . @ @ . o o o o + 5 8 q w w w 8 6 8 7 6 6 q t t w > o + + + > C.,X3X3X3X3X3X3X4X4X4X9X0XpXpXpXpXpXtXtXvX*Xt t ; @ o T ..| %.`.{.>XtXkXzXlX:XC.#.|.|.|.|.] ' ' ' ( } U ~ ( ~ ~ ( ) ( ) ) ( ( ) ( ( ( ( ) ) ( ( ( ( ( T ~ ( X.#.V.C.J.(.(.%.  ~ H.J.H.U                                   O.H.C.O.O.O.                                            ",
". y ~ _ ` ` ` ` ` x.x.x.x.b.b.b.m.m.n.m.m.b.v.M.A.A.M.M.M.Z.v.v.U P | P I  .*.*.*.*.*.*.=.=.*.p 5 6 + + o o o @ o o o o o o + 6 q w w 8 w w w w 7 7 8 5 : 6 e t t t 9 9 > ; + R }.3X3X3X3X3X4X4X4X4X4XpXpXpXpXpXpXpX9X} i J i 6 r C.&...T R +.`.>X>X_.A.|. X X|.f.' ' [ ! L L T P Y ( ( ( ( ( ) ( ( ) ) ) ( ( ) ( ( ) ( ) ( ( ( ( ( ( ( ..X.#.C.C.J.(.%.    V.J.J...                                  A C.C.V...~                                             ",
". B ~ _ ` ` ` ` o.x.x.x.x.b.b.m.m.m.n.n.v.b.b.M.n.v.A.M.M.v.b.X.0 I | $.=.=.=.=.=.*.*.*.*.=. .5 8 + + o o o o . @ @ o o o + 6 w q q q w w w w w w 6 6 6 6 : : 6 w t y y y 9 : @ 9 V.,X3X3X3X4X4X4X4X4X0X0X0X9X0X0XpX=Xp J J J t &.=XyX<X_.C.......U f.%X Xf.' ' [ ' [ [ f.L L ..A ( ( ~ ~ Y ~ ( ) ) ) ) ) ..) ) ) ) ) ( ) ) ( ( ( ( ..X.X.#.#.V.C.H.J.&.    ..J.J.%.                                  < #.C.V.T                                               ",
"@ V ~ _ ` ` ` ` #.f.x.x.x.b.b.b.m.m.m.v.v.M.M.v.v.v.v.M.M.v.#.A $.-.-.-.-.=.=.=.-.=.*.*.*.*.e e ; + + + o o @ @ o o o o O 6 w q q q q w w w q w q q 7 6 6 > : ; : 6 e y y t ; O 9 9 E _.3X3X3X4X3X3X4X4X0X0X9X0XpXpX$.t J i i I {.4XuXnXnXyX>X=X*XY |.+X' ' ' ' ' ' ' ] L ' E } P Y T Y Y ~ ( ) ) ) ) ( ( ) ) ) ) ( ) ( ) ) ( ( ( ( ..X.X.#.#.V.J.J.(.+.    R J.J.V.                                    R C.C...                                              ",
"+ U ! ` ` ` ` ` ` ` f.x.x.x.x.x.b.b.b.v.A.M.M.M.A.M.M.M.M.v.) I -.-.-.-.-.-.=.-.-.=.*.*.*.{ q q + + + o o o o o o + + + 6 w q q q q q q q q q w q e e 7 6 6 6 : ; : : > : : 9 y y y y y ..{.3X4X3X3X4X4X4X4X0X0X0X>XI J J i t &.>XpXpXpX9X>X,X,X{.[ |.f.' ' ' ' ] ] ' ' [ ! | R Y T ( T T Y ~ ( ( ( ) ) ..) ( ( ( ( ( ( ( ( ( ( ..........X.#.C.J.J.J...      V.H.C.U                                   N V.C...                                              ",
"% P ~ ` ` ` ` ` ` #.x.x.x.x.x.x.x.x.v.v.A.M.v.A.A.M.M.M.v.v.P *.K.-.).).-.-.-.=.=.=.*.*.$.q a O + + o o o o o o + + O 4 8 8 w q q q q q q q q q q t t e 7 6 : ; O + o + > y t 9 1 e y y y N &.}.3X3X3X4X4X4X4X4X0X_.p K J J i {.9XpX9X4X,X}.{.}.+.[ f.' ' ' ' ' ] ' ] ] ] E | U Y Y Y Y Y T T ( ( ) ..) ..( ( ( ( ( ( ( ( ( ( ( ..........#.#.C.C.J.J...      X.J.H.T                                   > O.C...                                              ",
", P Y ) ) ` ` ` #.#.x.b.x.x.x.x.x.x.b.b.v.v.v.v.M.M.v.A.A.X.I -.-.-.-.-.-.-.-.=.=.=.*.*.p e 8 + + + + o o o + + + + O 4 8 w q q u u q q q q q e t t t t e : o . . + 9 P K y 9 e y y y y y K K P .._.,X4X4X4X4X4X4X$.t J J t | >XpX4X3X-X}.=X-X-XT ' ] ' ' ] ] ] ] ] ] ] ] E ~ Y ~ Y T T T T T T ~ ( ( ) ( ( ( ( ( ( ( ( ( ( ) ) ..........#.#.V.C.C.J...      T (.J.@.                                    ..J...                                              ",
"> R Y ( ` ` ` ` x.#.x.x.x.x.x.x.b.x.b.v.b.v.v.b.A.M.v.v.b.P *.).-.-.-.-.-.-.=.=.*.*.*. .6 a 4 + + + o o o + + + + O 4 w u u q q q u u u u t q t t t e > o . o 9 R ..I 9 7 y K p y y y y y e y I K p T H.,X4X4X4X>XE J i t t H.4X4X,X-X}.=X-X,X_.[ ] ] ' ' ] ] ] ] ] x.A.) T Y Y T Y Y Y Y R R R Y T ( ( ) ) ) ..) ......) ) ( ( ) ......X.X.#.V.C.C.J.Y       N C.J.#.                                    T H.|                                               ",
"y T Y ( ` ` ` #.x.x.#.x.x.x.x.x.x.x.b.b.b.b.A.A.M.Z.v.c.X.} ).).).-.-.-.-.-.-.=.*.*.*.p q q + + + + + + o o + + O ; 6 w q q q q u i i i t t q t t 6 + + y } +.+.P 7 ; > t p K K y y y y y y y K P P K y I &.}.4X{.i J J i p _.3X,X-X=X-X-X-X,XC.' f.] ] ' ] ] ] x.x.A.A.~ R Y Y ~ T Y Y R U U U T ( ..X.) ) ....) ( ..) ( ) ............X.X.#.V.C.C.C.N         V.(.V.                                    U C.R                                               ",
"r ..T ~ _ ` o.o.` ` #.x.x.x.x.#.#.x.x.v.b.b.v.v.M.A.b.b.R *.).).).).).-.-.-.=.=.*.*.$.5 a 5 + + o o o o + O o o o + 4 8 q q q q u u u q q w 7 7 7 y P } | I w ; O O ; : > 9 y K P p y y y 9 y y y K K K K 9 > Z P t i i i E =X,X,X-X-X-X=X-X-X) ] ] ] ] ] ] ] x.A.A.A.x.y P ( ~ ~ Y Y T R R R R T T ( ( ) ) ) ) ( ( X.X...X.X.X...X.X.X.X.X.#.V.V.C.V.0         @.J.V.                                    A V.B                                               ",
"r ....~ ) ` ` ` ` ` o.#.#.x.x.x.x.x.b.b.x.b.b.v.M.M.v.#.I ).).).).-.-.-.-.-.=.=.=.=.{ 5 e + + + + + + + O O @ + o o o + O ; 4 6 8 6 6 5 6 7 7 e a p t w : ; O O ; ; ; ; : : > e K P p y y y 9 e y t K K K J t ; o t J J q +.,X,X,X-X-X-X}.}.}._ f.] ] A.] ] #.x.A.A.A.( r Z U Y Y Y Y Y R U U U U R Y ~ ( ) ) ) ( ( ) ......X.X.X.X.X.X.X.X.#.V.V.C.#.,         T J.C.                                    U +.                                                ",
"Z +...( ) ` ` ` ` ` #.#.` ` #.#.x.x.x.b.x.b.b.A.A.v.v.~ $.).).).).K.).K.).-.-.=.*.*.8 q 8 + + + + O O + + o r T y e 7 7 7 5 5 6 8 8 w q t t t t q t t w 7 > : O O ; ; ; O ; ; : > e t y y y y y t y t p I J J t + O t i ; > } &._.}.-X-X}.}.(.] f.] A.A.x.x.A.A.A.A.` 7 I  .I A Y Y Y Y U P R U U U R T ( ) ) ( ( ) ( ( ( ..X.X...X.X.X.X.X.#.b.A.C.(           U J.C.                                    R R                                                 ",
"T C.+...( ) ` ` #.M.N.m.b.x.#.x.b.x.x.x.x.b.M.M.M.A.b.R ).).).).).K.-.=.=.-.-.=.=.$.5 a 5 + + + + + O ; ; + I q 5 5 : : 5 6 w u i w w q i i i i J I J J t e w 6 : : ; ; ; : ; : : > 7 e t y y y y t t t t I I J 6 @ o O o o . @ + 0 I ..%.H.V.f.f.A.A.A.A.A.c.A.#.P : 5 { $.$.{ Z A U Y R T T R U U P U T ( ( ( ) ` ) X...X.X...X.X.X.X.X.X.#.b.V.V.B           N C.%.                                    A                                                   ",
"Z H.%.+...( ) #.#.M.Z.v.b.m.x.x.x.#.x.x.b.A.Z.M.A.M._ | ).).).).).-.-.K.).K.-.=.*.} 5 e O + + + O O ; 4 4 + q 6 4 O + + O ; 5 q q 8 w w q t t i I J J J J t t t p w 6 > : ; : : : > : > 7 t t y e w w w w w t I I q ; ; O o o o o @ . @ o + > f.f.A.A.A.A.A.` P : + % % { $.$.$. .{ N P T T R U P P P A P R Y ( ) ) ) ) ) ( ..X.X.X.X.X.X.o.#.x.V.#.%           B C.%.                                  +                                                     ",
"7 $.%.%.%.X.) ) ` x.b.x.x.m.x.x.x.x.x.x.v.M.M.M.v.v.U *.).).).).).K.-.K.).K.-.*.*.p 6 8 O O + + O ; 4 4 4 + 6 4 4 4 O + O O O 4 8 8 w q u i J i J J I J J J J J I K q w 7 7 7 > : : > > > 7 w e e e w w w w 8 7 J | I t q 5 o o o o @ @ o o o x f.] #.) E 3 + . o + : %  .$.$.$.$.*. .{ Z U R R U A N Z P P T X...) ) ) ) ) X.X.X.X.X.X.X.X.o.x.v.Y X             C...                                                                                        ",
"  | H.C.=.%.X.) ) b.b.x.x.x.x.x.x.#.x.v.M.A.M.M.v.c.P ).).*X).).).).).).).).-.=.$.5 e 8 O O O O O ; 4 4 ; O 6 6 6 6 4 O + O O ; 5 8 q u i J J J J J I I I I I J I $.} 7 7 9 w e w 7 > > > 7 7 w t p t w w 7 6 5 5 7 I } i q 6 + o o o @ o o + @ 3 1 : O + + + @ + + 5 : +.*.*.*.$.*.*.*.$.{ P P P A P P N P R ) X.) ) X.X.X.X...) ) ..X.#.#.#.x.x.2               %...                                                                                        ",
"  I H.H.=.&...) ) X.x.b.v.v.v.v.M.v.v.M.N.A.v.b.x.) } ).).).).).).).).).).K.-.*.p + a 5 O + O O O ; 4 6 O O 4 6 6 q u 6 4 ; ; 4 4 5 w i J J J J J J J J I I I I J I &.| 9 w e 9 9 w w w 7 7 7 w e t t e 7 6 6 5 5 ; ; w I { i 5 o o o o o o o @ + + + O O O O o + O 5 7 *.*.*.=.*.*.=.=.=.*.=. .I P P P P P P ~ X.X.X...) ) ) ) ) X.X.X.#.#.x.v._ X               @.                                                                                          ",
"  9 =.`.`.H.%.#...) #.v.v.A.A.v.M.M.M.M.M.v.v.#.x.Y $.`.).*X*X).).).K.).).).-.I   O a 4 O O O ; O ; 4 6 o ; ; 4 6 q u u w 4 4 4 5 5 4 8 i J J J J J J J I I I J J J I &.| w 9 e e e w w w w w e e e t t w 7 5 5 5 ; ; ; : r I t ; o o o o o o + : + % 7 y e 7 O O 5 5 a *.*.*.=.*.*.*.K.).-.).).-.*.| P N N N P T ( ( ( ( ..X.X.X.) X.X.#.x.x.x.2                 ..                                                                                          ",
"    +._._.`.H.&.....X.X.b.A.A.v.b.v.M.n.M.v.b.x.x.P *.).*X*X*X).*X).K.).).-.I     6 a 4 ; O O O O 4 6 6 + 4 4 4 4 4 w u u w 6 4 5 6 6 6 8 i J J J J J J I I J J J J J J E | p e e e e e e w w e e t t t t q 8 5 ; ; ; ; ; O 5 8 e ; @ o o @ . r r A ..P 9 5 > O % 6 5 { $.*.*.*.*.-.-.-.K.-.-.-.).).).-.$.} Z y N Y ( ) ( ( ) ) ) ) X.X.o.#.x.L @                 @.                                                                                          ",
"    y K.`.).).=.+.......#.M.v.v.b.v.n.m.b.v.x.#.V.P -.).).*X).*X*X).).*X-.I       q a O O O O O ; 4 6 ; + ; ; ; 4 4 4 6 w u u 8 6 4 4 6 6 w i J J J J J J J J I J J J J t I T K t t e e e e e e t t t t t t q 5 ; ; ; ; ; ; ; O ; : o . o o o y 5 O : O O O O + : 7 7 $.$.$.=.=.-.-.-.-.-.).-.-.).*X*X*X*X:X*X-.+.T Y Y Y ( ) ) ) ) ) X.` #.` %                 N X.                                                                                          ",
"      | ).).).`.=.......X.c.v.x.b.v.v.N.Z.M.A.A.A.E K.).).*X*X*X*X*X).*.p       . a a O O O O ; 4 4 6 ; ; 4 ; ; ; 4 4 4 6 u q w 6 5 6 6 8 8 w i J J I J J J i J J J J J i t K I K t t t t t t t t t t q t t t q 6 ; ; O ; ; ; ; O O O @ @ o o > + @ + + O O O : r r I K.=.=.-.).-.-.).K.-.).).*X*X*X*X:X:X1X1X<X1X1X*XK.%.+...T Y Y Y ( %._.K.                  y                                                                                             ",
"      > *.`.`.).K.%...( ....x.x.v.m.v.M.Z.M.b.v.#.| ).).).).*X).).). .5         o a q O O ; ; ; 4 4 4 O 6 w 6 4 4 4 4 6 8 w q u u q 8 8 w q q w i J I I i t t t i J i i i t t t i i t t t t t t t t t t t t t q w 8 ; O O ; ; ; O O O + . @ o > o o o + O : % 8 p 9 $.).K.-.).`.).).).).).*X*X*X*X*X:X:X:X1X<X<X<XrXjXjXjX<X1X*X*X*X*X*X:X1X:X|                                                                                                               ",
"        r K.`.`.H.H.%.( ( ~ ) x.b.M.M.N.Z.A.c.C.#.| -.).).).*X).=.I             + a q O O O O ; 4 4 4 ; w u u u w 6 4 6 6 8 u u u u u q q q q w w q i I | J t t t t t t t t t t t t t t t t t t t t t i t t q w 8 8 8 4 ; O O ; O O O O + @ + 9 o o o + % 5 : p p r -.K.=.-.).`._.`.).*X*X*X*X*X*X:X:X:X1X<X<X<X<XqXjXjXjXjXjXqX<X<X<X<X1X1X1X+.                                                                                                              ",
"        e | =.K.K.H.H...T T T X.v.N.N.A.v.x.#.V.#.$.*.| ).).=.}                 + p q ; ; O ; 4 4 4 6 4 w u u u u u w 6 6 6 w q q u u u u q q w q q q i I | J t q q q t t t t t q w w q t t t t t t t t t q q w w w w 6 6 ; O O O O O O O o > > o o + + O : 7 p 9 + | K._.).`.).).*X*X*X*X*X*X*X;X:X:X1X<X<XqXrXrXjXjXjXjXjXqX<X<X<X<X<X<X1X<X-.                                                                                                              ",
"         .*X .H.).H.H.$.U U U R #.N.n.b.b.X.V.V.%.&.*X*.{ I                     + a a 5 O O ; 4 4 5 6 6 w w w w u u u u u w w q u u u u u u q q q q q q t J } J q t t w 7 w t t q w w w w q q q q t t t q q q w w 8 6 6 6 6 4 ; O O O O O + 0 + o o + + O 5 e s 7 7 O +._._.`.).`.*X*X*X*X*X;X:X:X:X1X<X<XrXjXjXjXjXjXjXrXqX<X<XqX<XqXqXqX<X<X*X                                                                                                              ",
"        | <X;X+.%.H.H.%.} P P P Y v.n.v.x.#.V.V.%.H.*X;X*.7                     + { a 5 4 ; ; 4 ; 5 4 6 w 8 w w u q w u u u u u u u u u i i i u q q q q t t J { i w w 6 6 7 w t t q w 7 8 8 w w w q u u u q w 8 8 6 6 6 6 6 6 6 5 ; ; O O : 7 o + + + O : 7 p e e a %    .).`.`.`.).*X;X;X:X:X:X1X<X<X<X<XqXjXjXjXrXrXqXqXrXqXqXrXrXrXqXqX<XqX:X                                                                                                              ",
"        p *X<X:X*.=.H.=.$.P Z Z P ` M.N.A.x.V.V.%.=X:X:X:X$.                    + a a 6 4 4 ; O ; 4 5 8 8 w q w q q w u u u u u i u u u u u u u u i i i t q t t I i 7 7 7 8 6 w q t u w w 8 5 8 q t t q q q w w 8 6 6 6 6 6 6 6 6 6 5 ; O 7 ; o + + + O 5 9 r r a a O     { ).*X*X*X*X:X:X:X1X1X<X<X<XqXrXjXjXjXjXrXjXrXjXjXrXrXrXrXqXqX<X<XxXrX                                                                                                              ",
"          =.<X<X1X*X-.H.&.| N P P Y x.v.v.c.V.V._.VXxX1X:X;X{                   + a a q 4 4 O O O ; 4 8 6 w w w w w u u u u u u u q q u q i u u q u i i q w q w q I J w 8 6 6 6 5 7 q q w 8 6 5 6 8 w w w w w 8 6 6 6 6 6 6 6 6 6 6 6 5 ; w O + + + + 5 7 e e e p I +       | *X;X*X;X:X;X:X1X1X<XrXjXrXrXjXjXlXjXjXrXrXrXrXqXqXqXrXrXrX<XrXDXjX                                                                                                              ",
"          { :X<X<X<X1X:XK.+.R P P Y x.M.M.#.%.*XmXFXSXmX<X:X*Xp                 + a J q 5 ; O O O ; 4 6 w q w q q w u u u u u u u u u u u u u u u q q q q q t t q t I i 8 6 5 ; ; ; 5 w q w 6 ; ; ; 6 w w w w 8 8 6 6 6 6 6 6 6 6 6 6 6 > 6 O + O O 5 5 7 7 e p | p o         { ).*X;X:X:X:X:X:X1XqXlXjXjXjXjXjXrXrXrXrXjXjXrXqX<XqX<X<X<XxXFXrX                                                                                                              ",
"            -.<X<X<X<X<X1X*X=.| R T #.C.K.;XjXSXFXSXFXFXmXqX1X-.8               o a a q 6 ; O O O ; 4 6 8 6 w w w q u u u u u u u i i u u u i u u u u i q q q w q i i J q 5 5 ; ; ; ; : 7 w 8 ; O O O 5 8 w w 8 8 6 6 4 4 4 6 8 8 8 8 : 7 ; ; ; O ; 6 5 5 8 Z P 7 6 O           p -.*X;X:X:X:X:X1XqXjXjXjXjXjXrXqXrXrXrXrXqX<X<XqXqX<X1XlXSXFXqX                                                                                                              ",
"            { :X<X<X<X<X1X1X:X*X*X:XjXVXDXFXFXFXFXFXSXFXSXmXqX1X .                e a a 8 ; O O O 5 4 6 6 6 w w w q q u u u u i i i i i i i u u i u u u q w q q q i u q t q 6 ; O ; ; O O 5 w 5 O + O O ; 6 8 8 8 6 4 4 4 4 6 6 6 4 4 : 7 4 4 ; ; 5 5 % 7 p r 6 6 6 5 o           e *.*X:X1X:X:X<XqX<XrXjXjXjXrXjXjXjXjXrXrXqX<XrXrX<X<XAXFXFX:X                                                                                                              ",
"              *.1X<X<X<X1X:X:X;X*X:XjXDXFXSXFXFXFXFXFXSXSXFXmXqX*..               q a a 8 ; O ; ; 4 4 5 4 6 8 6 w q w u q u u i i u u u u u u u q q q q q w q q q t i i t t w 5 ; ; O O O O : 8 4 + + + + O 5 8 8 6 6 4 4 4 6 4 ; ; O 7 5 4 4 O 5 : + 6 8 5 O 5 5 5 5 5 @              .*X1X1X1X<X<X<X<XjXjXjXjXjXjXrXrXjXjXrX<XqX<X<XzXFXFXFX*X                                                                                                              ",
"                -.<X<X1X1X:X:X;X*X*X1XxXSXSXFXFXFXSXSXSXSXFXSXjXp @ .             5 a a 8 4 ; ; O O ; 4 4 4 6 6 6 w q u q u u u u i u u i i i i i u q q w w q q t i i t w q t w 5 O O O O + o ; 6 ; + o o + O ; 4 6 8 4 4 4 4 4 4 4 : 7 4 4 ; O 5 + O 5 O O O 4 5 5 5 6 +               { ).:X1X<X<XqXqXrXjXjXrXrXrXjXjXjXrXqX<X<X<XqXBXFXFXSX-.                                                                                                              ",
"                  -.1X1X:X:X:X:X:X*X:XjXAXSXSXFXFXFXSXSXSXFXAX-.; ; I             O a a 8 4 ; ; O O O 4 4 4 4 6 w w q u q q u u i i i J I J J i i i i t t t t q q a i i i t w w 5 O + + + O + + ; 6 O o o o + O O 4 8 q 6 4 6 4 4 + > 4 4 4 O 4 + + O O O O O ; ; 5 6 8 8 o                 $.:X<X<X<XqXqXrXrXrXjXjXjXjXrX<X<X1X1X<XjXDXFXFXAX=.                                                                                                              ",
"                  5 $.:X1X:X:X:X:X*X:X1XxXSXFXSXFXSXSXSXFXmX).J w  .:X .          + a a 8 5 ; ; O O O 4 4 4 4 6 w q u u q u u i u u u J J J I I J J J t q w w e t t J J t w 8 8 8 4 O + + ; ; o o ; 4 + o o o o + O ; 8 I a 6 4 ; O 7 4 ; O O + + + + + O O O O : 7 q e a 5                   } ).1XqXrXrXrXrXjXlXjXjXjXrXqX<X<X<XrXzXSXFXFXxX*.                                                                                                              ",
"                    O I -.;X:X1X1X:X:X:XrXAXSXSXSXSXFXSXjX*.I I *.rXrX*X          @ e a s 8 ; O O O O ; 4 4 4 4 6 u u w q u u i i u u i i u i J I { I J t t t t t t J i w w 8 8 6 5 ; + o + ; + @ o ; 4 o o o o o o + + 4 } $.t + > 4 ; ; O + o + + + + + + + 4 8 e e a a a +                      .*XqXjXrXrXrXrXrXrXrXrXrX<X<X<XrXxXFXFXFXrX                                                                                                                ",
"                      5 p { =.*X:X:X:X;X:XxXSXSXDXmX<X*X .I I -.xXAXxXqX*.          8 a e 8 O + O O + O ; ; 4 4 6 6 w w q q u u u u u i u u i J J J I I E E t w q t t t q w 8 8 8 6 ; O o o + : O . o 5 4 o @ . o o o o + O I | : : O O + + o + + + + + + + ; e a e 8 8 e a 8                         =.:XrXrXrXrXrXrXqX<XrXqXqXrXlXAXFXFXFX:X                                                                                                                ",
"                        a  .| a a {  . . .-.*X*X-.$. .| {  .:XAXFXSXVXlX:X{         : a a 8 O O O O O + ; 4 4 4 6 6 w w 8 8 q u u u u i i u i J J J J t t E T K t t t t q w w w 8 6 4 ; + o o + : + . + 4 O o @ o o o o + + + + : + + + + o + + + + + + O 7 8 7 6 5 6 8 a a p :                           -.:XqXrXrXrXrXqXrXqXqXrXlXDXFXFXAX-.                                                                                                                ",
"                            $.*X*.{ 7 O o @ o w I }  .-.:XxXFXSXSXLXAXxXlX*X        + a a 8 O + O O O + ; 4 4 w 6 6 6 4 4 6 q u u u u u u u i J J J t t t e t t t i i t t q w 8 8 6 5 4 O o @ o + ; @ . O 4 + o o o o o o o o + + + + + . o + + + + O 6 p q 5 + + O 6 q a a p e                               -.:XqXrXrXrXrXqXrXrXxXFXFXFXlX .                                                                                                                ",
"                               .*X:X:X*X-.$.$.-.1XjXxXAXFXFXSXSXSXSXLXVXxX<X          e a s 5 O + O O + O 4 6 6 4 4 6 8 8 8 8 q u q q q u t i J t t t e e w w w e t t t t q w w w 8 6 4 ; + o . @ + O . o 4 4 o . . o o o o o + o + + o o o + + + : 9 8 5 O + + + O 6 8 q a p p :                                 =.*X1XqXrXqXrXlXAXFXSXFX:X                                                                                                                  ",
"                                p =.:X:X:X:X;X;X<XAXFXSXSXSXSXSXSXSXSXVXxXlX=.        5 a q q 6 5 5 ; + O ; 4 6 4 4 6 w 6 w 8 8 w q q u i J t J t t t q e w w w w w w w q t w w w w 6 6 4 O o o . @ + + . + 4 O o . . . o o + o + + o + + + o + 5 6 ; + + + + + + O 5 8 e p p I e                                       -.*X1XrXxXSXFXFXjX*.                                                                                                                  ",
"                                     .*X:X:X*X:X:X<XxXSXSXSXSXFXSXFXSXAXmXxX*X        + e e e q s e 8 5 ; 4 6 4 4 4 6 6 6 6 w q q q q q q t t J t p e w e w e t w w 7 : : 5 6 w w w 8 6 4 ; O o . . @ + @ . ; 4 + . . @ o o o + + o + O + + ; O + + + O O O O O O 4 6 8 q a p p p 5                                           *X<XlXzX<X-.                                                                                                                    ",
"                                      p *.*X:X:X:X:X:XrXAXFXFXSXFXSXSXAXAXxX).          8 a 8 8 s s 8 8 O 8 8 5 6 4 w q 6 6 w w q q u q q t t t t t t e e w e y e w 7 > : ; O O ; 6 6 6 4 4 4 + o o . o + . o 4 4 + o o @ + O + o o o + O O + o + + + O O O O O ; 6 8 8 e a p p p 8                                                                                                                                                                           ",
"                                          Z *.*X:X:X:X:XrXxXDXSXFXSXDXAXAXqX+.          5 a 5 O O O ; 4 + 5 5 5 6 6 6 6 6 6 q q u u J J i J I t t e w 7 7 7 9 e e w 7 7 : ; ; O O + + ; 4 4 4 O o o o o + @ @ O O + o o + O o o o o o o o o o + + O O O O O ; 5 6 6 6 8 q a p p a a +                                                                                                                                                                         ",
"                                              I *.*X:X:X1X<XlXVXAXDXDXAXlX-.            + a q 5 + + + + o + + + ; 4 4 4 4 4 6 q u u i J J J { | E I E | | | E K y 9 6 : : : ; O O + + + o + ; O + o o o O o . o o o o . . . o + + o o o o + + + + O O O 4 e 8 5 4 ; 5 8 a p a p a 7 : @                                                                                                                                                                       ",
"                                                    $.-.*X:X1X<XjXxXzX1X*.                e a q 5 O + + + o + o + O O O O O 4 6 6 8 q u i J J J J I I I +.`._.=...I p e 7 6 5 ; ; O O + + + o o o o o o + + . o + o @ . o + + + + + + + + o + + + O O 5 8 | 6 O 5 r e e a a a e > < y 7                                                                                                                                                                       ",
"                                                          | +.*.=.-.*.                    8 a s 6 5 O + + o + + o + + ; O O ; 4 6 6 8 w q t t t J K K t K I I K K p K p t t q 7 6 6 5 4 O O + + o @ @ o + O @ + o . o + + + + + + + + + + + + + O 4 5 5 4 4 6 I  .I e a a e 5 , 1 1 1 Z 6                                                                                                                                                                     ",
"                                                                                          5 a e 6 5 O + + o o + o o + + O 4 ; 4 8 q u u i J { I I I I J I I I J K t t t t t w 7 6 5 6 5 ; O + + o . . . o O @ . . o + o + + + + O O O + + + + O 4 4 O O 5 p &.&.Z e a a 7 , < 1 3 0 1 y Z ;                                                                                                                                                                   ",
"                                                                                            8 a 5 ; 4 ; O a + o o o o + ; 4 4 6 u i J i J J I I J I I I E E I K t e e e w w 7 6 5 ; O O + + + + o . . @ o + + . o o o + + + O O O + O O ; 5 O + + + 5 8 Z { { e e e 9 3 3 3 2 2 2 1 1 1 r { +                                                                                                                                                                 ",
"                                                                                            + q 8 5 O O O I } 5 o o o o o + O ; 4 w q w i J J J J I I I E I P K y t t t e e e 7 8 8 6 5 4 O O + + o @ . . + O . o o + + + + O O O O ; ; O O + O 5 8 a e a e q 8 7 B V x 3 2 2 1 3 3 3 1 9 { a                                                                                                                                                                 ",
"                                                                                            7 7 ; 4 O ; + + 5 q 8 ; + + + o o + + O ; ; ; 5 7 w 6 w y t t t e y e w e w 7 7 > : ; ; ; 4 ; O + + + o . . @ o 6 o + + + + + + + O O ; O + O 6 6 7 8 8 8 8 q e r S V V x x x x 3 3 3 1 1 1 1 N  .8                                                                                                                                                               ",
"                                                                                            a y , + + + + + O O O O O O O O 4 6 w w w q i I } } } } E } T E E E P P P I r e 7 6 : O + o @ . . . . . . . o o 8 + + + + + + + + + O 5 5 6 6 5 5 5 6 8 q r r x x W V x B B B B 3 2 2 1 1 0 y 0 Z { +                                                                                                                                                             ",
"                                                                                          o a r > , % + o + + O O + + O O ; 4 6 6 8 w q i I } } +.&.&.&.&.=.`.{.,X>X,X}.=.&.&.+.| } I a w 5 O + o . . @ o o 5 : o + + + + + + O 6 8 5 5 : ; 5 5 5 9 0 3 3 2 3 x x x B B B x 3 2 3 1 1 1 9 1 0 { e                                                                                                                                                             ",
"                                                                                          + a p 9 % % : , , % + o o + O O ; 4 6 6 6 8 w q i i J I J I I I I I I E | | I J J J K i i i u i u q 8 6 O o o + + 5 5 o + + O + + O O 4 5 5 5 O O : > < 2 2 2 1 2 x x x x B V V x 3 2 3 3 1 1 > > > p { 5                                                                                                                                                           ",
"                                                                                          o a { y : : % % , > , % + + o o + O ; 4 4 6 q t i i J I I E E E E I I I I I I J J J K i i t u u u 8 6 6 4 o o o + O 7 o + O O + O ; ; O O + + % , < , , > 1 1 1 , 2 x x x B B x x 3 2 2 2 1 1 > 1 1 9 { J o                                                                                                                                                         ",
"                                                                                          o a { r > , : % : , : , % , , , , , % % % : > 7 7 w w t K K J I I E E I I I I J J K p e w 7 8 6 5 4 4 4 4 o o o + + 5 + + + + + o o o + % , > , > < , , , < 2 1 < 2 2 x x x x x x 3 2 2 2 1 1 < 1 1 1 r { 8                                                                                                                                                         ",
"                                                                                          . a { a 7 : , , , , , % , > > , , 2 2 3 x x x x 3 3 3 x x x V _ ] c.C.}.,X,X}.Z.b.^ V x 3 2 2 2 2 , , % + + @ o o + O O . @ o + + % % , , > , , > < < < 1 1 2 1 < 2 2 2 x x x x x x 3 1 1 1 1 1 1 1 1 9 Z { +                                                                                                                                                       ",
"                                                                                            e { p 9 , % % : , , % % , , , , 2 3 3 x B V V V V V L V V L Q ' ' ` D.[.'.m.e.e.' W V x x x x x x x x x 3 < , % + + + + , : : : , , > > , : , , , , < 2 2 1 1 < , < 2 x x x x x x 3 3 2 1 < 1 1 1 9 1 y { e                                                                                                                                                       ",
"                                                                                            7 { p e > , : , , , , , , , , < 2 3 x x B V V V B V V V V V W Q ' ' ' ' ' ' ' ' ' Q W x x x x x x x x x x 3 > , > > X X , > , % : : > > > , , > , , , , , < , < < < 2 3 x B B x x 3 2 2 2 1 1 1 1 1 9 9 p { O                                                                                                                                                     ",
"                                                                                            O { I a > , , , , , , , , , < 2 3 x B x x x B V B B B V V V L ' ' ' e.e.e.e.' e.' Q W V x x x x x x x x x x 3 1 1 1 1 X % % % , > : , > , : > , , , , < < 1 1 < 2 2 2 2 x x B x x 3 3 2 < < 1 1 1 1 9 9 9 { a .                                                                                                                                                   ",
"                                                                                            + I { p 7 > > , , , , , , , 2 2 3 x x x B B V V V V B V V V V ' e.' ' e.e.e.e.e.Q Q W V B B B x x x x x x B B 3 1 1 1 , X : , > > : : : : : : , > > > 2 1 1 < < < 2 < 2 3 x x x 3 3 3 2 2 1 2 1 1 1 1 9 9 p { 5                                                                                                                                                   ",
"                                                                                            . a { p y > > , , , , , , < 2 3 x x x x x B V V V V V V V V V W ' e.' ' r.e.e.e.Q Q W L V B x x x x x x x B B B x 1 1 , o % > > > : : > > : , , > , > 1 , < < < 2 < < < 2 2 3 x x 3 3 3 3 1 1 1 1 1 9 9 9 9 I a @                                                                                                                                                 ",
"                                                                                            . q { a e > , , > > , , < < 2 2 x B x x x x B V V V V V V V V L ' e.e.e.e.e.e.e.' Q W W V x x x x x x x x B V V B 3 1 1 % + > : : , : > > > > > > > > > , , < , < < < < < 2 2 x x 3 3 3 3 1 2 1 1 1 1 1 1 > r { 5                                                                                                                                                 ",
"                                                                                              5 { J p 7 > , , > , , > < 2 2 x x x x x B V V V V V V V V L L ^ ' e.e.e.e.e.e.' Q W W V B x x x x x x x V V V V x 1 1 > @ : > > > > > > > > > > > > > > , , , < , , , < 2 2 3 3 3 3 3 2 1 < > 1 1 1 > > > 9 I a o                                                                                                                                               ",
"                                                                                              + I I p 9 > > , > , , > , < 2 x x x x V V V V V V V V V L L L L ' ' e.e.e.e.' e.e.Q W W V x x x x x x x V L V V V 3 2 1 + + > > > > > > > > > > > > , , 1 1 < < , , < < 2 < 2 2 2 2 2 2 2 < 1 1 1 1 1 1 9 7 r { 5                                                                                                                                               ",
"                                                                                              . a { p 9 > , , > , , , < 2 2 x x x x V V V V V B V V V L L L L W ' ' e.e.e.' ' Q Q W W V x B x x x x V V L L L L B 1 1 , @ > 7 > > : > > > , > > > > > 1 < 1 < > < < 2 2 < 2 2 2 2 2 2 < < 1 1 1 1 1 1 1 > > Z p o                                                                                                                                             ",
"                                                                                                6 { a r 9 > > > , , , > 2 3 3 x x x B V V V V V V V V L L L L L W Q ' ' ' e.e.' Q W W V V x x B V B V V L L L L V 3 1 1 + % 7 > : : > > > > > > > > > > > > > < < < < < < < < 2 3 2 2 < 1 1 1 1 1 1 > 1 > > r { 5                                                                                                                                             ",
"                                                                                                o a a e 0 1 > > , , , % 2 3 2 x x x B B B B B V V V L L L V L W W Q e.e.' e.f.e.e.Q Q W V B B B V V V V L V L L V x 1 1 , + 7 > > > > > > > > > > > > > > 1 > > < > > , , , < 2 3 2 < < 2 1 1 1 1 < 1 1 1 7 9 I a .                                                                                                                                           ",
"                                                                                                  8 { a 0 > > < < > , , , 2 3 x x x B V B x B B V L L L L V L L L W Q ' e.e.e.e.r.' Q W V B B B V V V L L L L L V x 2 1 > o > > > > > > > > > > > > > > > > < > 1 > > < < < 1 1 1 < 1 3 1 1 1 1 1 > > > > 9 9 r { 4                                                                                                                                           ",
"                                                                                                  + a a 9 > > > > > , , , 2 x x x B V V B B V V V L L L L V L V L L W W ' e.e.' e.' Q W V V B V V V V L L V V V V V x 3 1 + + > > > > > > > > > > > > > > > > > 1 1 1 > < < < < < 2 1 1 1 1 1 1 1 1 1 1 9 9 9 9 I a                                                                                                                                           ",
"                                                                                                    8 a e > > > , , , , , < 3 x x B B B x x V V V V L L L L V V L L V W W Q ' ' Q Q W W V V V L V V V V L L V V V V B 3 1 , o > 7 5 > > > : : : : > > > > > > , 1 1 < 1 < > > 1 < 1 1 1 1 1 1 1 1 1 1 9 9 9 7 7 y { 5                                                                                                                                         ",
"                                                                                                    + a r > > 1 1 , > > < > 2 x x x x x x x B V V V L L L L V L L L V L W W Q Q Q Q W W W V V L V V V L L V V V V V V 3 2 > @ : 7 7 > > > > > > > > > > > > > > 1 9 > 1 1 1 > < > < < 1 1 1 1 1 1 1 1 9 9 9 9 9 9 I a                                                                                                                                         ",
"                                                                                                      8 p 9 < 1 1 , < > < < 2 x x x x x B B V V V V V V V L L V L L V V W ' ' ' Q Q Q Q W W V V V V L L L V V V V V V x 2 < + + 9 7 > > : : > 7 > > > > 1 1 > 1 > > > > 1 < > > > 1 1 1 1 1 1 1 > 1 1 9 9 9 9 9 9 y { ;                                                                                                                                       ",
"                                                                                                      + p y 1 1 < > > > < > 1 3 x x x x B V V V V V V L L L L V V L V L W ' ' ' ' ' Q Q Q W V V V L L L L V V V V V V x 2 < , + 7 7 > > > > > 7 > 7 7 7 7 > > 1 > > > > > > > > 1 1 1 1 1 1 1 1 1 1 1 9 9 9 9 0 9 9 Z a                                                                                                                                       ",
"                                                                                                        8 p 1 , > < < > , < 2 2 x x x x B V V V V V V L L L L L V L V W W Q Q ' ' ' ' W W W V V L L L L L V V V V V V B 2 < , o : 7 > 7 9 7 > > > > 7 9 9 7 1 1 1 > > > 7 > > 1 1 1 1 1 1 9 9 1 1 9 9 9 9 9 9 0 9 9 r { O                                                                                                                                     ",
"                                                                                                        + p 1 < < > 1 1 < 1 2 2 x x x B V V V V L L L L V V V V V V L L W W W W ' ' ' W W V L L L L L W W L L L L L V x 3 2 < + + 7 7 7 7 > > > > > 7 9 9 1 9 9 1 1 1 9 9 1 > > > 9 9 9 9 9 9 9 9 9 7 7 9 9 9 9 9 y y I e                                                                                                                                     ",
"                                                                                                          a r 1 > < < < , < 2 2 x x B B V V V V L L L V V V V V L V V L L W W W ^ ' ' W W L W L L W L W L L V L L V V x x 3 2 , + 9 7 7 9 > 5 7 7 7 7 9 9 7 9 9 9 9 9 > 1 1 1 1 > 9 9 9 9 9 9 9 1 9 9 9 9 9 9 9 9 9 9 y a +                                                                                                                                   "
};
